(.../Documents/eagle/pcb-gcode/pcb-gcode.ulp)
(Copyright 2005 - 2012 by John Johnson)
(See readme.txt for licensing terms.)
(This file generated from the board:)
(.../GPS-Disciplined-Oscillator-GPSOXCO-/GPSPLLOCXO.brd)
(Current profile is .../eagle/pcb-gcode/profiles/mach.pp  )
(This file generated 13/08/2014 11:46 pm)
(Settings from pcb-machine.h)
(spindle on time = 2.0000)
(  Tool Size)
(0.0800  )
(spindle speed = 30000.0000)
(tool change at 0.0000  0.0000  25.4000 )
(feed rate xy = F127   )
(feed rate z  = F127   )
(Z Axis Settings)
(  High     Up        Down     Drill)
(30.0000 	2.5400  	-0.1000 	-1.6500 )
(Settings from pcb-defaults.h)
(isolate min = 0.1000)
(isolate max = 0.4000)
(isolate step = 0.0500)
(Generated top outlines, top drill, bottom outlines, )
(Unit of measure: mm)
(Metric Mode)
G21
(Absolute Coordinates)
G90
S30000
G00 Z30.0000 
G00 X0.0000  Y0.0000  
M03
G04 P2.000000
G00 Z2.5400  
G00 X-5.1459 Y0.5394  
G01 Z-0.1000 F127   
G01 X-5.1882 Y0.5023  F127   
G01 X-5.2279 Y0.4625  
G01 X-5.2521 Y0.4463  
G01 X-5.2740 Y0.4271  
G01 X-5.3227 Y0.3989  
G01 X-5.3695 Y0.3676  
G01 X-5.3963 Y0.3564  
G01 X-5.4216 Y0.3419  
G01 X-5.4749 Y0.3238  
G01 X-5.5268 Y0.3022  
G01 X-5.5553 Y0.2965  
G01 X-5.5829 Y0.2871  
G01 X-5.6387 Y0.2798  
G01 X-5.6939 Y0.2687  
G01 X-5.7230 Y0.2687  
G01 X-5.7518 Y0.2649  
G01 X-5.8080 Y0.2685  
G01 X-61.2349 Y0.1922  
G01 X-61.2923 Y0.1884  
G01 X-61.3199 Y0.1921  
G01 X-61.3478 Y0.1920  
G01 X-61.4042 Y0.2032  
G01 X-61.4612 Y0.2107  
G01 X-61.4876 Y0.2197  
G01 X-61.5150 Y0.2251  
G01 X-61.5682 Y0.2470  
G01 X-61.6226 Y0.2655  
G01 X-61.6467 Y0.2794  
G01 X-61.6725 Y0.2900  
G01 X-61.7204 Y0.3219  
G01 X-61.7701 Y0.3507  
G01 X-61.7911 Y0.3690  
G01 X-61.8143 Y0.3845  
G01 X-61.8550 Y0.4251  
G01 X-61.8982 Y0.4630  
G01 X-61.9152 Y0.4851  
G01 X-61.9350 Y0.5048  
G01 X-61.9670 Y0.5526  
G01 X-62.0020 Y0.5982  
G01 X-62.0143 Y0.6232  
G01 X-62.0298 Y0.6464  
G01 X-62.0519 Y0.6994  
G01 X-62.0773 Y0.7510  
G01 X-62.0845 Y0.7779  
G01 X-62.0953 Y0.8037  
G01 X-62.1065 Y0.8601  
G01 X-62.1214 Y0.9156  
G01 X-62.1232 Y0.9434  
G01 X-62.1287 Y0.9708  
G01 X-62.1288 Y1.0283  
G01 X-62.1326 Y1.0856  
G01 X-62.1289 Y1.1133  
G01 X-62.1290 Y1.1412  
G01 X-62.1178 Y1.1976  
G01 X-62.1103 Y1.2545  
G01 X-62.1014 Y1.2809  
G01 X-62.0959 Y1.3083  
G01 X-62.0740 Y1.3615  
G01 X-62.0555 Y1.4159  
G01 X-62.0416 Y1.4400  
G01 X-62.0310 Y1.4658  
G01 X-61.9991 Y1.5137  
G01 X-61.6927 Y2.0443  
G01 X-61.5240 Y2.6740  
G01 X-61.5240 Y3.3260  
G01 X-61.6927 Y3.9557  
G01 X-62.0187 Y4.5203  
G01 X-62.4797 Y4.9813  
G01 X-63.0443 Y5.3073  
G01 X-63.6740 Y5.4760  
G01 X-64.3260 Y5.4760  
G01 X-64.9557 Y5.3073  
G01 X-65.5203 Y4.9813  
G01 X-65.9813 Y4.5203  
G01 X-66.1381 Y4.2486  
G01 X-66.1490 Y4.2223  
G01 X-66.1806 Y4.1750  
G01 X-66.2091 Y4.1257  
G01 X-66.2279 Y4.1043  
G01 X-66.2437 Y4.0806  
G01 X-66.2839 Y4.0404  
G01 X-66.3214 Y3.9976  
G01 X-66.3440 Y3.9803  
G01 X-66.3642 Y3.9601  
G01 X-66.4115 Y3.9285  
G01 X-66.4566 Y3.8939  
G01 X-66.4822 Y3.8813  
G01 X-66.5059 Y3.8655  
G01 X-66.5584 Y3.8437  
G01 X-66.6094 Y3.8185  
G01 X-66.6370 Y3.8112  
G01 X-66.6633 Y3.8003  
G01 X-66.7191 Y3.7892  
G01 X-66.7740 Y3.7744  
G01 X-66.8024 Y3.7726  
G01 X-66.8304 Y3.7670  
G01 X-66.8873 Y3.7670  
G01 X-66.9440 Y3.7633  
G01 X-66.9723 Y3.7670  
G01 X-67.0008 Y3.7670  
G01 X-67.0566 Y3.7781  
G01 X-67.1130 Y3.7855  
G01 X-67.1400 Y3.7947  
G01 X-67.1679 Y3.8003  
G01 X-67.2204 Y3.8220  
G01 X-67.2743 Y3.8403  
G01 X-67.2990 Y3.8546  
G01 X-67.3253 Y3.8655  
G01 X-67.3726 Y3.8971  
G01 X-67.4219 Y3.9255  
G01 X-67.4433 Y3.9443  
G01 X-67.4670 Y3.9601  
G01 X-67.5072 Y4.0004  
G01 X-67.5500 Y4.0378  
G01 X-67.5673 Y4.0605  
G01 X-67.5875 Y4.0806  
G01 X-67.6191 Y4.1279  
G01 X-67.6537 Y4.1730  
G01 X-67.6663 Y4.1986  
G01 X-67.6821 Y4.2223  
G01 X-67.7039 Y4.2748  
G01 X-67.7291 Y4.3258  
G01 X-67.7365 Y4.3534  
G01 X-67.7474 Y4.3797  
G01 X-67.7546 Y4.4161  
G01 X-67.7546 Y2.6165  
G01 X-67.7331 Y2.6376  
G01 X-67.6858 Y2.6692  
G01 X-67.6407 Y2.7039  
G01 X-67.6152 Y2.7165  
G01 X-67.5915 Y2.7323  
G01 X-67.5389 Y2.7541  
G01 X-67.4879 Y2.7792  
G01 X-67.4604 Y2.7866  
G01 X-67.4341 Y2.7975  
G01 X-67.3783 Y2.8086  
G01 X-67.3233 Y2.8233  
G01 X-67.2949 Y2.8252  
G01 X-67.2669 Y2.8308  
G01 X-67.2100 Y2.8308  
G01 X-67.1533 Y2.8345  
G01 X-67.1250 Y2.8308  
G01 X-67.0965 Y2.8308  
G01 X-67.0408 Y2.8197  
G01 X-66.9844 Y2.8122  
G01 X-66.9574 Y2.8031  
G01 X-66.9294 Y2.7975  
G01 X-66.8769 Y2.7757  
G01 X-66.8230 Y2.7575  
G01 X-66.7983 Y2.7432  
G01 X-66.7720 Y2.7323  
G01 X-66.7247 Y2.7007  
G01 X-66.6754 Y2.6723  
G01 X-66.6540 Y2.6535  
G01 X-66.6303 Y2.6377  
G01 X-66.5901 Y2.5974  
G01 X-66.5473 Y2.5599  
G01 X-66.5300 Y2.5373  
G01 X-66.5098 Y2.5172  
G01 X-66.4782 Y2.4699  
G01 X-66.4436 Y2.4247  
G01 X-66.4310 Y2.3992  
G01 X-66.4152 Y2.3755  
G01 X-66.3934 Y2.3229  
G01 X-66.3683 Y2.2719  
G01 X-66.3609 Y2.2444  
G01 X-66.3500 Y2.2181  
G01 X-66.3389 Y2.1623  
G01 X-66.3073 Y2.0443  
G01 X-65.9971 Y1.5071  
G01 X-65.9658 Y1.4604  
G01 X-65.9547 Y1.4336  
G01 X-65.9401 Y1.4084  
G01 X-65.9220 Y1.3550  
G01 X-65.9004 Y1.3031  
G01 X-65.8947 Y1.2746  
G01 X-65.8853 Y1.2470  
G01 X-65.8780 Y1.1912  
G01 X-65.8669 Y1.1360  
G01 X-65.8669 Y1.1069  
G01 X-65.8631 Y1.0781  
G01 X-65.8668 Y1.0219  
G01 X-65.8667 Y0.9656  
G01 X-65.8723 Y0.9371  
G01 X-65.8742 Y0.9080  
G01 X-65.8888 Y0.8537  
G01 X-65.8997 Y0.7985  
G01 X-65.9108 Y0.7716  
G01 X-65.9183 Y0.7435  
G01 X-65.9432 Y0.6930  
G01 X-65.9647 Y0.6410  
G01 X-65.9808 Y0.6167  
G01 X-65.9937 Y0.5906  
G01 X-66.0279 Y0.5460  
G01 X-66.0592 Y0.4991  
G01 X-66.0797 Y0.4785  
G01 X-66.0974 Y0.4555  
G01 X-66.1397 Y0.4184  
G01 X-66.1795 Y0.3785  
G01 X-66.2037 Y0.3623  
G01 X-66.2255 Y0.3431  
G01 X-66.2743 Y0.3150  
G01 X-66.3210 Y0.2836  
G01 X-66.3479 Y0.2725  
G01 X-66.3731 Y0.2579  
G01 X-66.4264 Y0.2398  
G01 X-66.4783 Y0.2182  
G01 X-66.5069 Y0.2125  
G01 X-66.5344 Y0.2032  
G01 X-66.5902 Y0.1958  
G01 X-66.6454 Y0.1847  
G01 X-66.6745 Y0.1847  
G01 X-66.7034 Y0.1809  
G01 X-66.7595 Y0.1846  
G01 X-71.2592 Y0.1784  
G01 X-71.3459 Y0.1782  
G01 X-71.4315 Y0.1951  
G01 X-71.5131 Y0.2112  
G01 X-71.5929 Y0.2440  
G01 X-71.6706 Y0.2761  
G01 X-71.7413 Y0.3231  
G01 X-71.8124 Y0.3705  
G01 X-71.8750 Y0.4328  
G01 X-71.9332 Y0.4907  
G01 X-71.9809 Y0.5618  
G01 X-72.0281 Y0.6322  
G01 X-72.0606 Y0.7102  
G01 X-72.0936 Y0.7895  
G01 X-72.1102 Y0.8723  
G01 X-72.1272 Y0.9565  
G01 X-72.1273 Y1.0385  
G01 X-72.1283 Y1.5724  
G01 X-72.1285 Y1.6581  
G01 X-72.1287 Y1.7419  
G01 X-72.1119 Y1.8268  
G01 X-72.0957 Y1.9091  
G01 X-72.0629 Y1.9889  
G01 X-72.0308 Y2.0667  
G01 X-71.9833 Y2.1381  
G01 X-71.9364 Y2.2085  
G01 X-71.8755 Y2.2697  
G01 X-71.8162 Y2.3292  
G01 X-71.7449 Y2.3771  
G01 X-71.6747 Y2.4242  
G01 X-71.5953 Y2.4572  
G01 X-71.5174 Y2.4897  
G01 X-71.4794 Y2.4974  
G01 X-73.0024 Y2.4974  
G01 X-73.0539 Y2.5187  
G01 X-73.0933 Y2.5581  
G01 X-73.1146 Y2.6096  
G01 X-73.1146 Y4.9512  
G01 X-73.0933 Y5.0027  
G01 X-73.0539 Y5.0421  
G01 X-73.0024 Y5.0634  
G01 X-71.4749 Y5.0634  
G01 X-71.5113 Y5.0706  
G01 X-71.6687 Y5.1358  
G01 X-71.8104 Y5.2305  
G01 X-71.9309 Y5.3510  
G01 X-72.0255 Y5.4927  
G01 X-72.0908 Y5.6501  
G01 X-72.1240 Y5.8172  
G01 X-72.1240 Y10.5828 
G01 X-72.0908 Y10.7499 
G01 X-72.0255 Y10.9073 
G01 X-71.9309 Y11.0490 
G01 X-71.8104 Y11.1695 
G01 X-71.6687 Y11.2642 
G01 X-71.5113 Y11.3294 
G01 X-71.4749 Y11.3366 
G01 X-73.0024 Y11.3366 
G01 X-73.0539 Y11.3579 
G01 X-73.0933 Y11.3973 
G01 X-73.1146 Y11.4488 
G01 X-73.1146 Y13.7904 
G01 X-73.0933 Y13.8419 
G01 X-73.0539 Y13.8813 
G01 X-73.0024 Y13.9026 
G01 X-71.5049 Y13.9026 
G01 X-71.5392 Y13.9094 
G01 X-71.6189 Y13.9422 
G01 X-71.6967 Y13.9743 
G01 X-71.7680 Y14.0217 
G01 X-71.8386 Y14.0687 
G01 X-71.8994 Y14.1292 
G01 X-71.9593 Y14.1889 
G01 X-72.0073 Y14.2604 
G01 X-72.0542 Y14.3304 
G01 X-72.0875 Y14.4103 
G01 X-72.1197 Y14.4877 
G01 X-72.1368 Y14.5728 
G01 X-72.1533 Y14.6547 
G01 X-72.1535 Y14.7416 
G01 X-72.1633 Y19.8724 
G01 X-72.1634 Y19.9568 
G01 X-72.1636 Y20.0419 
G01 X-72.1470 Y20.1264 
G01 X-72.1307 Y20.2091 
G01 X-72.0978 Y20.2888 
G01 X-72.0658 Y20.3667 
G01 X-72.0183 Y20.4379 
G01 X-71.9714 Y20.5085 
G01 X-71.9108 Y20.5693 
G01 X-71.8511 Y20.6292 
G01 X-71.7796 Y20.6772 
G01 X-71.7096 Y20.7242 
G01 X-71.6298 Y20.7574 
G01 X-71.5523 Y20.7897 
G01 X-71.5143 Y20.7974 
G01 X-73.1024 Y20.7974 
G01 X-73.1539 Y20.8187 
G01 X-73.1933 Y20.8581 
G01 X-73.2146 Y20.9095 
G01 X-73.2146 Y23.2512 
G01 X-73.1933 Y23.3027 
G01 X-73.1539 Y23.3421 
G01 X-73.1024 Y23.3634 
G01 X-71.5229 Y23.3634 
G01 X-71.5572 Y23.3702 
G01 X-71.6369 Y23.4030 
G01 X-71.7148 Y23.4351 
G01 X-71.7865 Y23.4828 
G01 X-71.8566 Y23.5295 
G01 X-71.9178 Y23.5904 
G01 X-71.9774 Y23.6497 
G01 X-72.0253 Y23.7212 
G01 X-72.0723 Y23.7912 
G01 X-72.1055 Y23.8711 
G01 X-72.1378 Y23.9485 
G01 X-72.1549 Y24.0336 
G01 X-72.1714 Y24.1155 
G01 X-72.1715 Y24.2023 
G01 X-72.1801 Y28.7116 
G01 X-72.1803 Y28.7960 
G01 X-72.1804 Y28.8811 
G01 X-72.1638 Y28.9656 
G01 X-72.1475 Y29.0483 
G01 X-72.1147 Y29.1280 
G01 X-72.0826 Y29.2059 
G01 X-72.0349 Y29.2775 
G01 X-71.9882 Y29.3477 
G01 X-71.9273 Y29.4089 
G01 X-71.8680 Y29.4684 
G01 X-71.7965 Y29.5164 
G01 X-71.7265 Y29.5634 
G01 X-71.6466 Y29.5966 
G01 X-71.5692 Y29.6289 
G01 X-71.5312 Y29.6366 
G01 X-73.1024 Y29.6366 
G01 X-73.1539 Y29.6579 
G01 X-73.1933 Y29.6973 
G01 X-73.2146 Y29.7488 
G01 X-73.2146 Y32.0904 
G01 X-73.1933 Y32.1419 
G01 X-73.1539 Y32.1813 
G01 X-73.1024 Y32.2026 
G01 X-71.5398 Y32.2026 
G01 X-71.5741 Y32.2094 
G01 X-71.6538 Y32.2422 
G01 X-71.7317 Y32.2743 
G01 X-71.8030 Y32.3217 
G01 X-71.8735 Y32.3687 
G01 X-71.9343 Y32.4292 
G01 X-71.9942 Y32.4889 
G01 X-72.0422 Y32.5604 
G01 X-72.0892 Y32.6304 
G01 X-72.1224 Y32.7103 
G01 X-72.1547 Y32.7877 
G01 X-72.1718 Y32.8728 
G01 X-72.1882 Y32.9547 
G01 X-72.1884 Y33.0415 
G01 X-72.1944 Y36.1724 
G01 X-72.1945 Y36.2568 
G01 X-72.1947 Y36.3419 
G01 X-72.1781 Y36.4264 
G01 X-72.1618 Y36.5091 
G01 X-72.1290 Y36.5888 
G01 X-72.0969 Y36.6667 
G01 X-72.0494 Y36.7379 
G01 X-72.0025 Y36.8085 
G01 X-71.9419 Y36.8693 
G01 X-71.8822 Y36.9292 
G01 X-71.8107 Y36.9772 
G01 X-71.7407 Y37.0242 
G01 X-71.6609 Y37.0574 
G01 X-71.5834 Y37.0897 
G01 X-71.5454 Y37.0974 
G01 X-73.0024 Y37.0974 
G01 X-73.0539 Y37.1187 
G01 X-73.0933 Y37.1581 
G01 X-73.1146 Y37.2096 
G01 X-73.1146 Y39.5512 
G01 X-73.0933 Y39.6027 
G01 X-73.0539 Y39.6421 
G01 X-73.0024 Y39.6634 
G01 X-71.4749 Y39.6634 
G01 X-71.5113 Y39.6706 
G01 X-71.6687 Y39.7358 
G01 X-71.8104 Y39.8305 
G01 X-71.9309 Y39.9510 
G01 X-72.0255 Y40.0927 
G01 X-72.0908 Y40.2501 
G01 X-72.1240 Y40.4172 
G01 X-72.1240 Y45.1828 
G01 X-72.0908 Y45.3499 
G01 X-72.0255 Y45.5073 
G01 X-71.9309 Y45.6490 
G01 X-71.8104 Y45.7695 
G01 X-71.6687 Y45.8642 
G01 X-71.5113 Y45.9294 
G01 X-71.4749 Y45.9366 
G01 X-73.0024 Y45.9366 
G01 X-73.0539 Y45.9579 
G01 X-73.0933 Y45.9973 
G01 X-73.1146 Y46.0487 
G01 X-73.1146 Y48.3904 
G01 X-73.0933 Y48.4419 
G01 X-73.0539 Y48.4813 
G01 X-73.0024 Y48.5026 
G01 X-71.5709 Y48.5026 
G01 X-71.6052 Y48.5094 
G01 X-71.6850 Y48.5422 
G01 X-71.7628 Y48.5743 
G01 X-71.8343 Y48.6218 
G01 X-71.9046 Y48.6687 
G01 X-71.9658 Y48.7296 
G01 X-72.0253 Y48.7889 
G01 X-72.0732 Y48.8602 
G01 X-72.1203 Y48.9304 
G01 X-72.1534 Y49.0099 
G01 X-72.1858 Y49.0877 
G01 X-72.2027 Y49.1721 
G01 X-72.2193 Y49.2547 
G01 X-72.2195 Y49.3402 
G01 X-72.2204 Y49.8330 
G01 X-72.2206 Y49.9187 
G01 X-72.2208 Y50.0025 
G01 X-72.2040 Y50.0874 
G01 X-72.1878 Y50.1697 
G01 X-72.1550 Y50.2495 
G01 X-72.1229 Y50.3273 
G01 X-72.0754 Y50.3987 
G01 X-72.0285 Y50.4691 
G01 X-71.9676 Y50.5303 
G01 X-71.9083 Y50.5898 
G01 X-71.8370 Y50.6377 
G01 X-71.7668 Y50.6848 
G01 X-71.6874 Y50.7178 
G01 X-71.6095 Y50.7503 
G01 X-71.5251 Y50.7672 
G01 X-71.4424 Y50.7838 
G01 X-71.3564 Y50.7840 
G01 X-71.2720 Y50.7842 
G01 X-66.3558 Y50.7840 
G01 X-66.1887 Y50.7508 
G01 X-66.0313 Y50.6855 
G01 X-65.8896 Y50.5909 
G01 X-65.7691 Y50.4704 
G01 X-65.6744 Y50.3287 
G01 X-65.6092 Y50.1713 
G01 X-65.5760 Y50.0042 
G01 X-65.5760 Y49.2740 
G01 X-65.4073 Y48.6443 
G01 X-65.0813 Y48.0797 
G01 X-64.6203 Y47.6187 
G01 X-64.0557 Y47.2927 
G01 X-63.4260 Y47.1240 
G01 X-62.7740 Y47.1240 
G01 X-62.1443 Y47.2927 
G01 X-61.5797 Y47.6187 
G01 X-61.1187 Y48.0797 
G01 X-60.7927 Y48.6443 
G01 X-60.6240 Y49.2740 
G01 X-60.6240 Y50.0042 
G01 X-60.5908 Y50.1713 
G01 X-60.5256 Y50.3287 
G01 X-60.4309 Y50.4704 
G01 X-60.3104 Y50.5909 
G01 X-60.1687 Y50.6855 
G01 X-60.0113 Y50.7508 
G01 X-59.8442 Y50.7840 
G01 X-24.1292 Y50.7840 
G01 X-24.0470 Y50.7677 
G01 X-23.9621 Y50.7508 
G01 X-23.8046 Y50.6855 
G01 X-23.6919 Y50.6102 
G01 X-23.6630 Y50.5909 
G01 X-23.6037 Y50.5316 
G01 X-23.5425 Y50.4704 
G01 X-23.5128 Y50.4259 
G01 X-23.4478 Y50.3287 
G01 X-23.4326 Y50.2919 
G01 X-23.3826 Y50.1713 
G01 X-23.3494 Y50.0042 
G01 X-23.3494 Y49.8338 
G01 X-23.3657 Y49.7516 
G01 X-23.3826 Y49.6667 
G01 X-23.3894 Y49.6503 
G01 X-23.3894 Y49.0896 
G01 X-23.1178 Y48.4341 
G01 X-23.0846 Y48.2669 
G01 X-23.0846 Y47.8526 
G01 X-23.1178 Y47.6855 
G01 X-23.1830 Y47.5281 
G01 X-23.2777 Y47.3864 
G01 X-23.2981 Y47.3660 
G01 X-23.3696 Y47.1934 
G01 X-23.3696 Y45.2066 
G01 X-23.2981 Y45.0340 
G01 X-23.1660 Y44.9019 
G01 X-22.9934 Y44.8304 
G01 X-21.0066 Y44.8304 
G01 X-20.8340 Y44.9019 
G01 X-20.7019 Y45.0340 
G01 X-20.6304 Y45.2066 
G01 X-20.6304 Y47.1869 
G01 X-20.6353 Y47.2053 
G01 X-20.6462 Y47.2316 
G01 X-20.6573 Y47.2874 
G01 X-20.6720 Y47.3424 
G01 X-20.6739 Y47.3708 
G01 X-20.6795 Y47.3987 
G01 X-20.6795 Y47.4556 
G01 X-20.6832 Y47.5124 
G01 X-20.6795 Y47.5406 
G01 X-20.6795 Y47.5691 
G01 X-20.6684 Y47.6249 
G01 X-20.6609 Y47.6813 
G01 X-20.6518 Y47.7083 
G01 X-20.6462 Y47.7362 
G01 X-20.6245 Y47.7888 
G01 X-20.6062 Y47.8427 
G01 X-20.5919 Y47.8673 
G01 X-20.5810 Y47.8937 
G01 X-20.5494 Y47.9410 
G01 X-20.5210 Y47.9902 
G01 X-20.5022 Y48.0117 
G01 X-20.4864 Y48.0353 
G01 X-20.4462 Y48.0755 
G01 X-20.4086 Y48.1183 
G01 X-20.3860 Y48.1357 
G01 X-20.3659 Y48.1558 
G01 X-20.3186 Y48.1874 
G01 X-20.3050 Y48.1978 
G01 X-20.3050 Y48.7235 
G01 X-20.3635 Y48.8041 
G01 X-20.4407 Y48.9555 
G01 X-20.4932 Y49.1171 
G01 X-20.5198 Y49.2850 
G01 X-20.5198 Y49.4550 
G01 X-20.4932 Y49.6229 
G01 X-20.4407 Y49.7845 
G01 X-20.3635 Y49.9359 
G01 X-20.2636 Y50.0734 
G01 X-20.1434 Y50.1936 
G01 X-20.0059 Y50.2935 
G01 X-19.8545 Y50.3707 
G01 X-19.6929 Y50.4232 
G01 X-19.5250 Y50.4498 
G01 X-19.3550 Y50.4498 
G01 X-19.1871 Y50.4232 
G01 X-19.0255 Y50.3707 
G01 X-18.8741 Y50.2935 
G01 X-18.7366 Y50.1936 
G01 X-18.6164 Y50.0734 
G01 X-18.5165 Y49.9359 
G01 X-18.4393 Y49.7845 
G01 X-18.3868 Y49.6229 
G01 X-18.3602 Y49.4550 
G01 X-18.3602 Y49.2850 
G01 X-18.3868 Y49.1171 
G01 X-18.4393 Y48.9555 
G01 X-18.5165 Y48.8041 
G01 X-18.5750 Y48.7235 
G01 X-18.5750 Y48.3701 
G01 X-18.5362 Y48.3540 
G01 X-18.4823 Y48.3357 
G01 X-18.4576 Y48.3215 
G01 X-18.4313 Y48.3106 
G01 X-18.3840 Y48.2790 
G01 X-18.3347 Y48.2505 
G01 X-18.3133 Y48.2317 
G01 X-18.2896 Y48.2159 
G01 X-18.2494 Y48.1757 
G01 X-18.2066 Y48.1382 
G01 X-18.1893 Y48.1156 
G01 X-18.1058 Y48.0321 
G01 X-17.9332 Y47.9606 
G01 X-16.3494 Y47.9606 
G01 X-16.1823 Y47.9274 
G01 X-16.0249 Y47.8621 
G01 X-15.8832 Y47.7675 
G01 X-15.7627 Y47.6470 
G01 X-15.6680 Y47.5053 
G01 X-15.6028 Y47.3479 
G01 X-15.5696 Y47.1808 
G01 X-15.5696 Y47.1066 
G01 X-15.4981 Y46.9340 
G01 X-15.3660 Y46.8019 
G01 X-15.1934 Y46.7304 
G01 X-13.2066 Y46.7304 
G01 X-13.0340 Y46.8019 
G01 X-12.9019 Y46.9340 
G01 X-12.8304 Y47.1066 
G01 X-12.8304 Y49.0934 
G01 X-12.9019 Y49.2660 
G01 X-12.9990 Y49.3632 
G01 X-13.0035 Y49.3676 
G01 X-13.0404 Y49.4228 
G01 X-13.0981 Y49.5093 
G01 X-13.1633 Y49.6667 
G01 X-13.1764 Y49.7322 
G01 X-13.1966 Y49.8338 
G01 X-13.1966 Y50.0042 
G01 X-13.1837 Y50.0688 
G01 X-13.1634 Y50.1713 
G01 X-13.0982 Y50.3287 
G01 X-13.0676 Y50.3745 
G01 X-13.0035 Y50.4704 
G01 X-12.8830 Y50.5909 
G01 X-12.8278 Y50.6278 
G01 X-12.7413 Y50.6855 
G01 X-12.5839 Y50.7508 
G01 X-12.5184 Y50.7638 
G01 X-12.4168 Y50.7840 
G01 X-2.0558 Y50.7840 
G01 X-1.8887 Y50.7508 
G01 X-1.7313 Y50.6855 
G01 X-1.5896 Y50.5909 
G01 X-1.4691 Y50.4704 
G01 X-1.3744 Y50.3287 
G01 X-1.3092 Y50.1713 
G01 X-1.2760 Y50.0042 
G01 X-1.2760 Y49.2698 
G01 X-1.2822 Y49.2385 
G01 X-1.3092 Y49.1027 
G01 X-1.3368 Y49.0362 
G01 X-1.3744 Y48.9453 
G01 X-1.4495 Y48.8329 
G01 X-1.4691 Y48.8036 
G01 X-1.5896 Y48.6832 
G01 X-1.7313 Y48.5885 
G01 X-1.8216 Y48.5511 
G01 X-1.8887 Y48.5233 
G01 X-2.0558 Y48.4900 
G01 X-2.2262 Y48.4900 
G01 X-2.2576 Y48.4963 
G01 X-2.3933 Y48.5233 
G01 X-2.4598 Y48.5508 
G01 X-2.5507 Y48.5885 
G01 X-2.6631 Y48.6636 
G01 X-2.6924 Y48.6832 
G01 X-2.8129 Y48.8036 
G01 X-2.8683 Y48.8591 
G01 X-4.1517 Y48.8591 
G01 X-4.2826 Y48.7282 
G01 X-4.4030 Y48.6077 
G01 X-4.5447 Y48.5130 
G01 X-4.7021 Y48.4478 
G01 X-4.8693 Y48.4146 
G01 X-6.0197 Y48.4146 
G01 X-6.4257 Y48.2464 
G01 X-6.9183 Y47.7538 
G01 X-8.6364 Y46.0357 
G01 X-8.8046 Y45.6297 
G01 X-8.8046 Y39.7803 
G01 X-8.6364 Y39.3743 
G01 X-8.2420 Y38.9798 
G01 X-6.9580 Y37.6959 
G01 X-6.8598 Y37.5977 
G01 X-6.8375 Y37.5754 
G01 X-6.7429 Y37.4337 
G01 X-6.6777 Y37.2763 
G01 X-6.6444 Y37.1092 
G01 X-6.6444 Y36.9388 
G01 X-6.6777 Y36.7717 
G01 X-6.7429 Y36.6143 
G01 X-6.7972 Y36.5329 
G01 X-6.7972 Y35.2191 
G01 X-5.8823 Y34.3042 
G01 X-4.5885 Y34.3042 
G01 X-3.6736 Y35.2191 
G01 X-3.6736 Y36.5129 
G01 X-4.0077 Y36.8470 
G01 X-4.1024 Y36.9887 
G01 X-4.1676 Y37.1461 
G01 X-4.2008 Y37.3132 
G01 X-4.2008 Y37.8251 
G01 X-4.3690 Y38.2311 
G01 X-4.8616 Y38.7237 
G01 X-6.4023 Y40.2644 
G01 X-6.4970 Y40.4061 
G01 X-6.5622 Y40.5635 
G01 X-6.5954 Y40.7306 
G01 X-6.5954 Y44.6794 
G01 X-6.5622 Y44.8465 
G01 X-6.4970 Y45.0039 
G01 X-6.4023 Y45.1456 
G01 X-6.2818 Y45.2660 
G01 X-5.5356 Y46.0123 
G01 X-5.3939 Y46.1069 
G01 X-5.2365 Y46.1722 
G01 X-5.0694 Y46.2054 
G01 X-4.8693 Y46.2054 
G01 X-4.7677 Y46.1852 
G01 X-4.7021 Y46.1722 
G01 X-4.6621 Y46.1556 
G01 X-4.5447 Y46.1070 
G01 X-4.4030 Y46.0123 
G01 X-4.3210 Y45.9303 
G01 X-4.2812 Y45.8904 
G01 X-4.2428 Y45.8520 
G01 X-4.1607 Y45.7700 
G01 X-4.0661 Y45.6283 
G01 X-4.0445 Y45.5762 
G01 X-4.0008 Y45.4709 
G01 X-3.9944 Y45.4386 
G01 X-3.9676 Y45.3038 
G01 X-3.9676 Y45.1334 
G01 X-3.9871 Y45.0355 
G01 X-4.0008 Y44.9663 
G01 X-4.0159 Y44.9299 
G01 X-4.0660 Y44.8088 
G01 X-4.0867 Y44.7779 
G01 X-4.0151 Y44.8495 
G01 X-3.0049 Y44.8495 
G01 X-2.2905 Y44.1351 
G01 X-2.2905 Y43.1249 
G01 X-2.5816 Y42.8338 
G01 X-2.5507 Y42.8544 
G01 X-2.3933 Y42.9196 
G01 X-2.2262 Y42.9528 
G01 X-2.0558 Y42.9528 
G01 X-1.8887 Y42.9196 
G01 X-1.7358 Y42.8563 
G01 X-1.7313 Y42.8544 
G01 X-1.7284 Y42.8525 
G01 X-1.5896 Y42.7597 
G01 X-1.4710 Y42.6411 
G01 X-1.4390 Y42.5941 
G01 X-1.3744 Y42.4976 
G01 X-1.3092 Y42.3402 
G01 X-1.2760 Y42.1730 
G01 X-1.2760 Y6.2854  
G01 X-1.2723 Y6.2571  
G01 X-1.2760 Y6.2004  
G01 X-1.2760 Y6.1435  
G01 X-1.2816 Y6.1155  
G01 X-1.2834 Y6.0871  
G01 X-1.2981 Y6.0322  
G01 X-1.3092 Y5.9764  
G01 X-1.3201 Y5.9500  
G01 X-1.3275 Y5.9225  
G01 X-1.3527 Y5.8715  
G01 X-1.3744 Y5.8190  
G01 X-1.3903 Y5.7953  
G01 X-1.4029 Y5.7697  
G01 X-1.4375 Y5.7246  
G01 X-1.4691 Y5.6773  
G01 X-1.4893 Y5.6571  
G01 X-1.5066 Y5.6345  
G01 X-1.5494 Y5.5970  
G01 X-1.5896 Y5.5568  
G01 X-1.6133 Y5.5410  
G01 X-1.6347 Y5.5222  
G01 X-1.6840 Y5.4937  
G01 X-1.7313 Y5.4621  
G01 X-1.7576 Y5.4512  
G01 X-1.7823 Y5.4370  
G01 X-1.8362 Y5.4187  
G01 X-1.8887 Y5.3969  
G01 X-1.9166 Y5.3914  
G01 X-1.9436 Y5.3822  
G01 X-2.0000 Y5.3748  
G01 X-2.0558 Y5.3637  
G01 X-2.0843 Y5.3637  
G01 X-2.1126 Y5.3600  
G01 X-2.1693 Y5.3637  
G01 X-2.2262 Y5.3637  
G01 X-2.2542 Y5.3692  
G01 X-2.2826 Y5.3711  
G01 X-2.3375 Y5.3858  
G01 X-2.3933 Y5.3969  
G01 X-2.4196 Y5.4078  
G01 X-2.6740 Y5.4760  
G01 X-3.3260 Y5.4760  
G01 X-3.9557 Y5.3073  
G01 X-4.5203 Y4.9813  
G01 X-4.9813 Y4.5203  
G01 X-5.3073 Y3.9557  
G01 X-5.4760 Y3.3260  
G01 X-5.4760 Y2.6740  
G01 X-5.3073 Y2.0443  
G01 X-5.0456 Y1.5911  
G01 X-5.0143 Y1.5444  
G01 X-5.0031 Y1.5175  
G01 X-4.9886 Y1.4923  
G01 X-4.9705 Y1.4390  
G01 X-4.9489 Y1.3870  
G01 X-4.9432 Y1.3585  
G01 X-4.9338 Y1.3310  
G01 X-4.9265 Y1.2752  
G01 X-4.9154 Y1.2200  
G01 X-4.9154 Y1.1909  
G01 X-4.9116 Y1.1620  
G01 X-4.9152 Y1.1059  
G01 X-4.9152 Y1.0496  
G01 X-4.9208 Y1.0210  
G01 X-4.9227 Y0.9920  
G01 X-4.9373 Y0.9376  
G01 X-4.9482 Y0.8824  
G01 X-4.9593 Y0.8555  
G01 X-4.9668 Y0.8274  
G01 X-4.9917 Y0.7769  
G01 X-5.0132 Y0.7249  
G01 X-5.0293 Y0.7007  
G01 X-5.0422 Y0.6746  
G01 X-5.0764 Y0.6300  
G01 X-5.1076 Y0.5831  
G01 X-5.1282 Y0.5625  
G01 X-5.1459 Y0.5394  
G00 Z2.5400  
G00 X-5.2852 Y8.9042  
G01 Z-0.1000 F127   
G01 X-4.5885 Y8.9042  F127   
G01 X-3.6736 Y9.8191  
G01 X-3.6736 Y11.1129 
G01 X-4.5885 Y12.0278 
G01 X-5.8823 Y12.0278 
G01 X-6.7972 Y11.1129 
G01 X-6.7972 Y10.4161 
G01 X-6.8304 Y10.2490 
G01 X-6.8323 Y10.2445 
G01 X-6.8956 Y10.0916 
G01 X-6.9884 Y9.9528  
G01 X-6.9903 Y9.9499  
G01 X-7.1108 Y9.8295  
G01 X-10.2711 Y6.6691  
G01 X-10.4128 Y6.5744  
G01 X-10.5702 Y6.5092  
G01 X-10.7373 Y6.4760  
G01 X-10.9077 Y6.4760  
G01 X-28.2172 Y6.4760  
G01 X-28.3843 Y6.5092  
G01 X-28.5417 Y6.5744  
G01 X-28.6834 Y6.6691  
G01 X-28.8039 Y6.7896  
G01 X-28.8057 Y6.7924  
G01 X-28.8985 Y6.9313  
G01 X-28.9097 Y6.9582  
G01 X-29.0418 Y7.0903  
G01 X-29.2144 Y7.1618  
G01 X-31.5856 Y7.1618  
G01 X-31.7582 Y7.0903  
G01 X-31.8903 Y6.9582  
G01 X-31.9618 Y6.7856  
G01 X-31.9618 Y4.4144  
G01 X-31.8903 Y4.2418  
G01 X-31.7582 Y4.1097  
G01 X-31.5856 Y4.0382  
G01 X-29.2144 Y4.0382  
G01 X-29.0418 Y4.1097  
G01 X-28.9097 Y4.2418  
G01 X-28.8985 Y4.2687  
G01 X-28.8039 Y4.4104  
G01 X-28.6834 Y4.5309  
G01 X-28.5417 Y4.6255  
G01 X-28.3843 Y4.6908  
G01 X-28.2172 Y4.7240  
G01 X-9.9271 Y4.7240  
G01 X-9.6052 Y4.8574  
G01 X-9.2419 Y5.2206  
G01 X-5.8719 Y8.5906  
G01 X-5.8069 Y8.6556  
G01 X-5.7515 Y8.7111  
G01 X-5.6098 Y8.8057  
G01 X-5.4524 Y8.8710  
G01 X-5.2852 Y8.9042  
G00 Z2.5400  
G00 X-5.6949 Y9.2338  
G01 Z-0.1000 F127   
G01 X-9.6642 Y5.2645  F127   
G01 X-9.7659 Y5.1628  
G01 X-9.8905 Y5.0908  
G01 X-10.0295 Y5.0536  
G01 X-29.1678 Y5.0536  
G01 X-29.1678 Y4.4799  
G01 X-29.1891 Y4.4285  
G01 X-29.2285 Y4.3891  
G01 X-29.2799 Y4.3678  
G01 X-31.5200 Y4.3678  
G01 X-31.5715 Y4.3891  
G01 X-31.6109 Y4.4285  
G01 X-31.6322 Y4.4799  
G01 X-31.6322 Y6.7200  
G01 X-31.6109 Y6.7715  
G01 X-31.5715 Y6.8109  
G01 X-31.5200 Y6.8322  
G01 X-29.2799 Y6.8322  
G01 X-29.2285 Y6.8109  
G01 X-29.1891 Y6.7715  
G01 X-29.1678 Y6.7200  
G01 X-29.1678 Y6.1464  
G01 X-10.3277 Y6.1464  
G01 X-6.4676 Y10.0065 
G01 X-6.4676 Y10.9764 
G01 X-5.7458 Y11.6982 
G01 X-4.7250 Y11.6982 
G01 X-4.0032 Y10.9764 
G01 X-4.0032 Y9.9556  
G01 X-4.7250 Y9.2338  
G01 X-5.6949 Y9.2338  
G00 Z2.5400  
G00 X-5.7458 Y34.6338 
G01 Z-0.1000 F127   
G01 X-6.4676 Y35.3556 F127   
G01 X-6.4676 Y36.3764 
G01 X-6.0804 Y36.7636 
G01 X-6.0804 Y37.2844 
G01 X-8.1940 Y39.3980 
G01 X-8.3020 Y39.5060 
G01 X-8.3868 Y39.6329 
G01 X-8.4452 Y39.7739 
G01 X-8.4750 Y39.9237 
G01 X-8.4750 Y45.4863 
G01 X-8.4452 Y45.6361 
G01 X-8.3868 Y45.7771 
G01 X-8.3020 Y45.9040 
G01 X-6.4020 Y47.8040 
G01 X-6.2940 Y47.9120 
G01 X-6.1671 Y47.9968 
G01 X-6.0261 Y48.0552 
G01 X-5.8763 Y48.0850 
G01 X-4.4596 Y48.0850 
G01 X-4.0151 Y48.5295 
G01 X-3.0049 Y48.5295 
G01 X-2.2905 Y47.8151 
G01 X-2.2905 Y46.8049 
G01 X-3.0049 Y46.0905 
G01 X-4.0151 Y46.0905 
G01 X-4.4596 Y46.5350 
G01 X-5.4790 Y46.5350 
G01 X-6.9250 Y45.0890 
G01 X-6.9250 Y40.3210 
G01 X-4.8114 Y38.2074 
G01 X-4.7034 Y38.0994 
G01 X-4.6186 Y37.9725 
G01 X-4.5602 Y37.8315 
G01 X-4.5304 Y37.6817 
G01 X-4.5304 Y36.9036 
G01 X-4.0032 Y36.3764 
G01 X-4.0032 Y35.3556 
G01 X-4.7250 Y34.6338 
G01 X-5.7458 Y34.6338 
G00 Z2.5400  
G00 X-12.7922 Y35.2191 
G01 Z-0.1000 F127   
G01 X-12.7922 Y36.5129 F127   
G01 X-13.7071 Y37.4278 
G01 X-15.0009 Y37.4278 
G01 X-15.9158 Y36.5129 
G01 X-15.9158 Y35.2191 
G01 X-15.0009 Y34.3042 
G01 X-13.7071 Y34.3042 
G01 X-12.7922 Y35.2191 
G00 Z2.5400  
G00 X-13.1218 Y35.3556 
G01 Z-0.1000 F127   
G01 X-13.8436 Y34.6338 F127   
G01 X-14.8644 Y34.6338 
G01 X-15.5862 Y35.3556 
G01 X-15.5862 Y36.3764 
G01 X-14.8644 Y37.0982 
G01 X-13.8436 Y37.0982 
G01 X-13.1218 Y36.3764 
G01 X-13.1218 Y35.3556 
G00 Z2.5400  
G00 X-21.4536 Y35.2191 
G01 Z-0.1000 F127   
G01 X-21.4536 Y36.5129 F127   
G01 X-22.3685 Y37.4278 
G01 X-23.6623 Y37.4278 
G01 X-24.1550 Y36.9351 
G01 X-24.2967 Y36.8404 
G01 X-24.4541 Y36.7752 
G01 X-24.6212 Y36.7420 
G01 X-28.6721 Y36.7420 
G01 X-28.7537 Y36.7582 
G01 X-28.8392 Y36.7752 
G01 X-28.9089 Y36.8041 
G01 X-28.9966 Y36.8404 
G01 X-29.0808 Y36.8967 
G01 X-29.1383 Y36.9351 
G01 X-29.2588 Y37.0556 
G01 X-29.3534 Y37.1973 
G01 X-29.3644 Y37.2238 
G01 X-29.3819 Y37.2660 
G01 X-29.5140 Y37.3981 
G01 X-29.6866 Y37.4696 
G01 X-31.6734 Y37.4696 
G01 X-31.8460 Y37.3981 
G01 X-31.9781 Y37.2660 
G01 X-32.0496 Y37.0934 
G01 X-32.0496 Y35.1066 
G01 X-31.9781 Y34.9340 
G01 X-31.8460 Y34.8019 
G01 X-31.6734 Y34.7304 
G01 X-29.6866 Y34.7304 
G01 X-29.5074 Y34.8046 
G01 X-29.3773 Y34.8916 
G01 X-29.2199 Y34.9568 
G01 X-29.0528 Y34.9900 
G01 X-24.6212 Y34.9900 
G01 X-24.4541 Y34.9568 
G01 X-24.2967 Y34.8916 
G01 X-24.1550 Y34.7969 
G01 X-24.0345 Y34.6764 
G01 X-23.6623 Y34.3042 
G01 X-22.3685 Y34.3042 
G01 X-21.4536 Y35.2191 
G00 Z2.5400  
G00 X-21.7832 Y35.3556 
G01 Z-0.1000 F127   
G01 X-22.5050 Y34.6338 F127   
G01 X-23.5258 Y34.6338 
G01 X-24.2116 Y35.3196 
G01 X-29.6400 Y35.3196 
G01 X-29.6400 Y35.1722 
G01 X-29.6613 Y35.1207 
G01 X-29.7007 Y35.0813 
G01 X-29.7522 Y35.0600 
G01 X-31.6078 Y35.0600 
G01 X-31.6593 Y35.0813 
G01 X-31.6987 Y35.1207 
G01 X-31.7200 Y35.1722 
G01 X-31.7200 Y37.0278 
G01 X-31.6987 Y37.0793 
G01 X-31.6593 Y37.1187 
G01 X-31.6078 Y37.1400 
G01 X-29.7522 Y37.1400 
G01 X-29.7007 Y37.1187 
G01 X-29.6613 Y37.0793 
G01 X-29.6400 Y37.0278 
G01 X-29.6400 Y36.4124 
G01 X-24.2116 Y36.4124 
G01 X-23.5258 Y37.0982 
G01 X-22.5050 Y37.0982 
G01 X-21.7832 Y36.3764 
G01 X-21.7832 Y35.3556 
G00 Z2.5400  
G00 X-21.0722 Y45.1600 
G01 Z-0.1000 F127   
G01 X-22.9278 Y45.1600 F127   
G01 X-22.9793 Y45.1813 
G01 X-23.0187 Y45.2207 
G01 X-23.0400 Y45.2722 
G01 X-23.0400 Y47.1278 
G01 X-23.0187 Y47.1793 
G01 X-22.9793 Y47.2187 
G01 X-22.9278 Y47.2400 
G01 X-22.7550 Y47.2400 
G01 X-22.7550 Y48.6179 
G01 X-22.8036 Y48.6666 
G01 X-22.9035 Y48.8041 
G01 X-22.9807 Y48.9555 
G01 X-23.0332 Y49.1171 
G01 X-23.0598 Y49.2850 
G01 X-23.0598 Y49.4550 
G01 X-23.0332 Y49.6229 
G01 X-22.9807 Y49.7845 
G01 X-22.9035 Y49.9359 
G01 X-22.8036 Y50.0734 
G01 X-22.6834 Y50.1936 
G01 X-22.5459 Y50.2935 
G01 X-22.3945 Y50.3707 
G01 X-22.2329 Y50.4232 
G01 X-22.0650 Y50.4498 
G01 X-21.8950 Y50.4498 
G01 X-21.7271 Y50.4232 
G01 X-21.5655 Y50.3707 
G01 X-21.4141 Y50.2935 
G01 X-21.2766 Y50.1936 
G01 X-21.1564 Y50.0734 
G01 X-21.0565 Y49.9359 
G01 X-20.9793 Y49.7845 
G01 X-20.9268 Y49.6229 
G01 X-20.9002 Y49.4550 
G01 X-20.9002 Y49.2850 
G01 X-20.9268 Y49.1171 
G01 X-20.9793 Y48.9555 
G01 X-21.0565 Y48.8041 
G01 X-21.1564 Y48.6666 
G01 X-21.2050 Y48.6179 
G01 X-21.2050 Y47.2400 
G01 X-21.0722 Y47.2400 
G01 X-21.0207 Y47.2187 
G01 X-20.9813 Y47.1793 
G01 X-20.9600 Y47.1278 
G01 X-20.9600 Y45.2722 
G01 X-20.9813 Y45.2207 
G01 X-21.0207 Y45.1813 
G01 X-21.0722 Y45.1600 
G00 Z2.5400  
G00 X-17.9191 Y48.3115 
G01 Z-0.1000 F127   
G01 X-17.9585 Y48.3509 F127   
G01 X-17.9798 Y48.4023 
G01 X-17.9798 Y50.3376 
G01 X-17.9585 Y50.3891 
G01 X-17.9191 Y50.4285 
G01 X-17.8676 Y50.4498 
G01 X-15.9323 Y50.4498 
G01 X-15.8809 Y50.4285 
G01 X-15.8415 Y50.3891 
G01 X-15.8202 Y50.3376 
G01 X-15.8202 Y50.1450 
G01 X-15.3937 Y50.1450 
G01 X-15.2439 Y50.1152 
G01 X-15.1029 Y50.0568 
G01 X-14.9760 Y49.9720 
G01 X-14.8680 Y49.8640 
G01 X-14.1440 Y49.1400 
G01 X-13.2721 Y49.1400 
G01 X-13.2207 Y49.1187 
G01 X-13.1813 Y49.0793 
G01 X-13.1600 Y49.0278 
G01 X-13.1600 Y47.1722 
G01 X-13.1813 Y47.1207 
G01 X-13.2207 Y47.0813 
G01 X-13.2721 Y47.0600 
G01 X-15.1278 Y47.0600 
G01 X-15.1793 Y47.0813 
G01 X-15.2187 Y47.1207 
G01 X-15.2400 Y47.1722 
G01 X-15.2400 Y48.0440 
G01 X-15.7910 Y48.5950 
G01 X-15.8202 Y48.5950 
G01 X-15.8202 Y48.4023 
G01 X-15.8415 Y48.3509 
G01 X-15.8809 Y48.3115 
G01 X-15.9323 Y48.2902 
G01 X-17.8676 Y48.2902 
G01 X-17.9191 Y48.3115 
G00 Z2.5400  
G00 X-30.4187 Y47.1203 
G01 Z-0.1000 F127   
G01 X-30.8797 Y47.5813 F127   
G01 X-31.4443 Y47.9073 
G01 X-32.0740 Y48.0760 
G01 X-32.7260 Y48.0760 
G01 X-33.3557 Y47.9073 
G01 X-33.9203 Y47.5813 
G01 X-34.3813 Y47.1203 
G01 X-34.7073 Y46.5557 
G01 X-34.8760 Y45.9260 
G01 X-34.8760 Y45.2740 
G01 X-34.7073 Y44.6443 
G01 X-34.3813 Y44.0797 
G01 X-33.9203 Y43.6187 
G01 X-33.3557 Y43.2927 
G01 X-32.7260 Y43.1240 
G01 X-32.0740 Y43.1240 
G01 X-31.4443 Y43.2927 
G01 X-30.8797 Y43.6187 
G01 X-30.4187 Y44.0797 
G01 X-30.0927 Y44.6443 
G01 X-29.9240 Y45.2740 
G01 X-29.9240 Y45.9260 
G01 X-30.0927 Y46.5557 
G01 X-30.4187 Y47.1203 
G00 Z2.5400  
G00 X-39.3019 Y45.0660 
G01 Z-0.1000 F127   
G01 X-39.4340 Y45.1981 F127   
G01 X-39.6066 Y45.2696 
G01 X-41.5934 Y45.2696 
G01 X-41.7660 Y45.1981 
G01 X-41.8981 Y45.0660 
G01 X-41.9696 Y44.8934 
G01 X-41.9696 Y43.0994 
G01 X-42.0010 Y42.9417 
G01 X-42.0028 Y42.9322 
G01 X-42.0047 Y42.9277 
G01 X-42.0680 Y42.7748 
G01 X-42.1608 Y42.6360 
G01 X-42.1627 Y42.6332 
G01 X-42.2832 Y42.5127 
G01 X-42.4249 Y42.4180 
G01 X-42.5823 Y42.3528 
G01 X-42.7494 Y42.3196 
G01 X-42.9198 Y42.3196 
G01 X-43.0774 Y42.3509 
G01 X-43.0869 Y42.3528 
G01 X-43.0919 Y42.3549 
G01 X-43.6257 Y42.5760 
G01 X-63.3506 Y42.5760 
G01 X-63.5177 Y42.6092 
G01 X-63.6751 Y42.6744 
G01 X-63.8168 Y42.7691 
G01 X-63.9373 Y42.8896 
G01 X-64.0319 Y43.0313 
G01 X-64.0972 Y43.1887 
G01 X-64.1304 Y43.3558 
G01 X-64.1304 Y43.4934 
G01 X-64.2019 Y43.6660 
G01 X-64.3340 Y43.7981 
G01 X-64.5066 Y43.8696 
G01 X-66.4934 Y43.8696 
G01 X-66.6660 Y43.7981 
G01 X-66.7981 Y43.6660 
G01 X-66.8696 Y43.4934 
G01 X-66.8696 Y41.5066 
G01 X-66.7981 Y41.3340 
G01 X-66.6660 Y41.2019 
G01 X-66.4934 Y41.1304 
G01 X-65.4007 Y41.1304 
G01 X-65.3317 Y41.1330 
G01 X-65.3156 Y41.1304 
G01 X-65.2993 Y41.1304 
G01 X-65.2316 Y41.1169 
G01 X-65.1635 Y41.1060 
G01 X-65.1482 Y41.1003 
G01 X-65.1322 Y41.0972 
G01 X-65.0685 Y41.0707 
G01 X-65.0037 Y41.0467 
G01 X-64.9899 Y41.0382 
G01 X-64.9748 Y41.0320 
G01 X-64.9174 Y40.9936 
G01 X-64.5467 Y40.7655 
G01 X-64.1627 Y40.7039 
G01 X-63.8243 Y40.7845 
G01 X-63.8093 Y40.7908 
G01 X-63.7415 Y40.8042 
G01 X-63.6744 Y40.8202 
G01 X-63.6581 Y40.8208 
G01 X-63.6421 Y40.8240 
G01 X-63.5731 Y40.8240 
G01 X-63.5041 Y40.8266 
G01 X-63.4880 Y40.8240 
G01 X-62.4179 Y40.8240 
G01 X-62.3086 Y40.8022 
G01 X-62.2508 Y40.7908 
G01 X-62.0934 Y40.7255 
G01 X-61.9530 Y40.6317 
G01 X-61.8331 Y40.5123 
G01 X-61.7366 Y40.3687 
G01 X-61.6831 Y40.2396 
G01 X-61.6714 Y40.2113 
G01 X-61.6583 Y40.1458 
G01 X-61.6381 Y40.0442 
G01 X-61.6381 Y39.8738 
G01 X-61.6599 Y39.7645 
G01 X-61.6714 Y39.7067 
G01 X-61.7366 Y39.5493 
G01 X-61.8304 Y39.4088 
G01 X-62.0105 Y39.2283 
G01 X-62.0568 Y39.1782 
G01 X-62.0707 Y39.1682 
G01 X-62.0827 Y39.1561 
G01 X-62.1395 Y39.1182 
G01 X-62.1558 Y39.1063 
G01 X-62.1837 Y39.0608 
G01 X-62.1953 Y39.0482 
G01 X-62.2048 Y39.0340 
G01 X-62.2426 Y38.9962 
G01 X-62.2504 Y38.9775 
G01 X-62.2740 Y38.9135 
G01 X-62.2829 Y38.8990 
G01 X-62.2895 Y38.8832 
G01 X-62.3274 Y38.8264 
G01 X-64.0036 Y36.0915 
G01 X-64.0102 Y36.0757 
G01 X-64.0481 Y36.0190 
G01 X-64.0837 Y35.9608 
G01 X-64.0954 Y35.9482 
G01 X-64.1048 Y35.9340 
G01 X-64.1426 Y35.8962 
G01 X-64.1504 Y35.8776 
G01 X-64.1740 Y35.8135 
G01 X-64.1829 Y35.7990 
G01 X-64.1895 Y35.7832 
G01 X-64.2274 Y35.7264 
G01 X-64.2379 Y35.7092 
G01 X-64.2463 Y35.6564 
G01 X-64.2522 Y35.6404 
G01 X-64.2555 Y35.6236 
G01 X-64.2760 Y35.5742 
G01 X-64.2760 Y35.5540 
G01 X-64.2733 Y35.4858 
G01 X-64.2760 Y35.4690 
G01 X-64.2760 Y35.4519 
G01 X-64.2893 Y35.3850 
G01 X-64.2925 Y35.3650 
G01 X-64.2800 Y35.3130 
G01 X-64.2793 Y35.2960 
G01 X-64.2760 Y35.2792 
G01 X-64.2760 Y35.2110 
G01 X-64.2733 Y35.1428 
G01 X-64.2760 Y35.1259 
G01 X-64.2760 Y33.2357 
G01 X-64.1426 Y32.9138 
G01 X-64.0725 Y32.8437 
G01 X-63.9778 Y32.7020 
G01 X-63.9126 Y32.5446 
G01 X-63.8794 Y32.3774 
G01 X-63.8794 Y31.8962 
G01 X-63.7446 Y31.7614 
G01 X-63.6499 Y31.6197 
G01 X-63.6125 Y31.5294 
G01 X-63.5847 Y31.4623 
G01 X-63.5515 Y31.2952 
G01 X-63.5515 Y31.1248 
G01 X-63.5643 Y31.0602 
G01 X-63.5847 Y30.9577 
G01 X-63.6499 Y30.8003 
G01 X-63.6957 Y30.7318 
G01 X-63.7446 Y30.6586 
G01 X-63.8651 Y30.5381 
G01 X-63.8794 Y30.5238 
G01 X-63.8794 Y29.0558 
G01 X-63.9126 Y28.8887 
G01 X-63.9778 Y28.7313 
G01 X-64.0725 Y28.5896 
G01 X-64.1930 Y28.4691 
G01 X-64.3347 Y28.3744 
G01 X-64.4921 Y28.3092 
G01 X-64.6592 Y28.2760 
G01 X-65.8743 Y28.2760 
G01 X-66.2122 Y28.1360 
G01 X-66.3256 Y28.0602 
G01 X-66.4830 Y27.9950 
G01 X-66.6501 Y27.9618 
G01 X-67.6662 Y27.9618 
G01 X-67.7505 Y27.9618 
G01 X-67.8366 Y27.9618 
G01 X-67.8697 Y27.9684 
G01 X-67.8758 Y27.9658 
G01 X-68.0582 Y27.8903 
G01 X-68.1903 Y27.7582 
G01 X-68.2618 Y27.5856 
G01 X-68.2618 Y25.2144 
G01 X-68.1903 Y25.0418 
G01 X-68.0228 Y24.8743 
G01 X-67.9097 Y24.7612 
G01 X-67.9023 Y24.7538 
G01 X-67.8842 Y24.7267 
G01 X-67.8549 Y24.6828 
G01 X-67.7696 Y24.7397 
G01 X-67.7175 Y24.7613 
G01 X-67.6122 Y24.8050 
G01 X-67.5799 Y24.8114 
G01 X-67.4451 Y24.8382 
G01 X-65.7337 Y24.8382 
G01 X-65.6799 Y24.8275 
G01 X-65.5666 Y24.8050 
G01 X-65.5001 Y24.7774 
G01 X-65.4092 Y24.7398 
G01 X-65.2968 Y24.6647 
G01 X-65.2675 Y24.6451 
G01 X-65.1470 Y24.5246 
G01 X-65.0524 Y24.3829 
G01 X-65.0150 Y24.2926 
G01 X-64.9872 Y24.2255 
G01 X-64.9539 Y24.0584 
G01 X-64.9539 Y23.8880 
G01 X-64.9647 Y23.8341 
G01 X-64.9872 Y23.7209 
G01 X-65.0147 Y23.6544 
G01 X-65.0524 Y23.5635 
G01 X-65.1275 Y23.4511 
G01 X-65.1470 Y23.4218 
G01 X-65.2675 Y23.3013 
G01 X-65.4426 Y23.1262 
G01 X-65.5760 Y22.8042 
G01 X-65.5760 Y18.9257 
G01 X-65.4426 Y18.6038 
G01 X-65.1962 Y18.3574 
G01 X-65.1886 Y18.3542 
G01 X-65.1267 Y18.3285 
G01 X-65.0312 Y18.2890 
G01 X-64.8895 Y18.1943 
G01 X-64.5549 Y17.8597 
G01 X-64.4602 Y17.7181 
G01 X-64.4327 Y17.6515 
G01 X-64.3950 Y17.5606 
G01 X-64.3618 Y17.3935 
G01 X-64.3618 Y15.2144 
G01 X-64.2903 Y15.0418 
G01 X-64.1582 Y14.9097 
G01 X-63.9856 Y14.8382 
G01 X-61.6144 Y14.8382 
G01 X-61.4418 Y14.9097 
G01 X-61.3097 Y15.0418 
G01 X-61.2382 Y15.2144 
G01 X-61.2382 Y17.5856 
G01 X-61.3060 Y17.7493 
G01 X-61.3712 Y17.9067 
G01 X-61.3876 Y17.9890 
G01 X-61.4044 Y18.0738 
G01 X-61.4044 Y18.2442 
G01 X-61.3712 Y18.4113 
G01 X-61.3336 Y18.5022 
G01 X-61.3060 Y18.5687 
G01 X-61.2571 Y18.6419 
G01 X-61.2113 Y18.7104 
G01 X-61.0927 Y18.8290 
G01 X-60.9987 Y18.8924 
G01 X-60.9492 Y18.9255 
G01 X-60.7918 Y18.9908 
G01 X-60.7094 Y19.0071 
G01 X-60.6246 Y19.0240 
G01 X-59.0257 Y19.0240 
G01 X-58.7038 Y19.1574 
G01 X-58.2755 Y19.5857 
G01 X-56.9574 Y20.9038 
G01 X-56.8240 Y21.2257 
G01 X-56.8240 Y21.3527 
G01 X-56.8278 Y21.3822 
G01 X-56.8240 Y21.4377 
G01 X-56.8240 Y21.4933 
G01 X-56.8182 Y21.5225 
G01 X-56.8162 Y21.5522 
G01 X-56.8016 Y21.6058 
G01 X-56.7908 Y21.6604 
G01 X-56.7794 Y21.6879 
G01 X-56.7716 Y21.7166 
G01 X-56.7468 Y21.7664 
G01 X-56.7255 Y21.8178 
G01 X-56.7090 Y21.8426 
G01 X-56.6958 Y21.8692 
G01 X-56.6618 Y21.9132 
G01 X-56.6309 Y21.9595 
G01 X-56.6098 Y21.9805 
G01 X-56.5916 Y22.0041 
G01 X-56.5497 Y22.0406 
G01 X-56.5104 Y22.0800 
G01 X-56.4856 Y22.0965 
G01 X-55.2065 Y23.2116 
G01 X-55.1895 Y23.2451 
G01 X-55.0933 Y23.3775 
G01 X-54.9775 Y23.4933 
G01 X-54.8451 Y23.5895 
G01 X-54.6992 Y23.6638 
G01 X-54.6042 Y23.6947 
G01 X-54.5974 Y23.6986 
G01 X-54.5447 Y23.7163 
G01 X-54.4933 Y23.7376 
G01 X-54.4641 Y23.7434 
G01 X-54.4359 Y23.7529 
G01 X-54.3807 Y23.7600 
G01 X-54.3262 Y23.7708 
G01 X-54.2964 Y23.7708 
G01 X-54.2669 Y23.7746 
G01 X-54.2114 Y23.7708 
G01 X-54.1558 Y23.7708 
G01 X-54.1266 Y23.7650 
G01 X-54.0969 Y23.7630 
G01 X-54.0432 Y23.7484 
G01 X-53.9887 Y23.7376 
G01 X-53.9612 Y23.7262 
G01 X-53.9324 Y23.7184 
G01 X-53.8826 Y23.6937 
G01 X-53.8313 Y23.6724 
G01 X-53.8065 Y23.6558 
G01 X-53.7798 Y23.6426 
G01 X-53.7358 Y23.6086 
G01 X-53.6896 Y23.5777 
G01 X-53.6685 Y23.5567 
G01 X-53.6450 Y23.5385 
G01 X-53.6084 Y23.4966 
G01 X-53.5691 Y23.4572 
G01 X-53.5526 Y23.4325 
G01 X-53.5330 Y23.4100 
G01 X-53.5246 Y23.3954 
G01 X-53.5067 Y23.3775 
G01 X-53.4105 Y23.2451 
G01 X-53.3362 Y23.0992 
G01 X-53.2856 Y22.9435 
G01 X-53.2600 Y22.7818 
G01 X-53.2600 Y22.7457 
G01 X-53.2358 Y22.6873 
G01 X-53.2264 Y22.6732 
G01 X-53.2160 Y22.6599 
G01 X-53.1602 Y22.6121 
G01 X-53.1324 Y22.5936 
G01 X-53.0957 Y22.5568 
G01 X-53.0562 Y22.5230 
G01 X-53.0356 Y22.4967 
G01 X-52.9836 Y22.4447 
G01 X-52.9695 Y22.4353 
G01 X-52.9242 Y22.4098 
G01 X-52.8988 Y22.3881 
G01 X-52.8711 Y22.3695 
G01 X-52.8343 Y22.3328 
G01 X-52.4602 Y22.0121 
G01 X-52.4324 Y21.9935 
G01 X-52.3957 Y21.9568 
G01 X-52.3562 Y21.9230 
G01 X-52.3355 Y21.8967 
G01 X-52.2836 Y21.8447 
G01 X-52.2695 Y21.8353 
G01 X-52.2242 Y21.8098 
G01 X-52.2048 Y21.8011 
G01 X-52.1616 Y21.7723 
G01 X-52.1163 Y21.7468 
G01 X-52.0909 Y21.7251 
G01 X-52.0631 Y21.7065 
G01 X-52.0264 Y21.6697 
G01 X-51.9869 Y21.6359 
G01 X-51.9663 Y21.6096 
G01 X-51.9426 Y21.5860 
G01 X-51.9138 Y21.5428 
G01 X-51.8817 Y21.5019 
G01 X-51.8665 Y21.4721 
G01 X-51.8480 Y21.4443 
G01 X-51.8281 Y21.3963 
G01 X-51.8046 Y21.3500 
G01 X-51.7956 Y21.3178 
G01 X-51.7828 Y21.2869 
G01 X-51.7726 Y21.2359 
G01 X-51.7586 Y21.1859 
G01 X-51.7560 Y21.1526 
G01 X-51.7495 Y21.1198 
G01 X-51.7495 Y21.0678 
G01 X-51.7455 Y21.0160 
G01 X-51.7495 Y20.9828 
G01 X-51.7495 Y20.9494 
G01 X-51.7597 Y20.8985 
G01 X-51.7659 Y20.8469 
G01 X-51.7762 Y20.8151 
G01 X-51.7828 Y20.7823 
G01 X-51.8026 Y20.7343 
G01 X-51.8188 Y20.6849 
G01 X-51.8352 Y20.6558 
G01 X-51.8480 Y20.6249 
G01 X-51.8768 Y20.5817 
G01 X-51.9023 Y20.5364 
G01 X-51.9241 Y20.5110 
G01 X-51.9426 Y20.4832 
G01 X-51.9794 Y20.4464 
G01 X-52.0132 Y20.4070 
G01 X-52.0395 Y20.3864 
G01 X-52.0631 Y20.3627 
G01 X-52.1063 Y20.3338 
G01 X-52.1472 Y20.3017 
G01 X-52.1770 Y20.2866 
G01 X-52.2048 Y20.2680 
G01 X-52.2528 Y20.2482 
G01 X-52.2991 Y20.2247 
G01 X-52.3313 Y20.2156 
G01 X-52.3622 Y20.2028 
G01 X-52.4132 Y20.1927 
G01 X-52.4632 Y20.1787 
G01 X-52.4965 Y20.1761 
G01 X-52.5293 Y20.1696 
G01 X-52.5813 Y20.1696 
G01 X-52.6331 Y20.1656 
G01 X-52.6663 Y20.1696 
G01 X-53.2724 Y20.1696 
G01 X-53.7758 Y19.9611 
G01 X-54.1611 Y19.5758 
G01 X-54.3696 Y19.0724 
G01 X-54.3696 Y18.5276 
G01 X-54.1611 Y18.0242 
G01 X-53.8494 Y17.7125 
G01 X-53.8435 Y17.7144 
G01 X-53.6818 Y17.7400 
G01 X-53.5181 Y17.7400 
G01 X-53.3565 Y17.7144 
G01 X-53.2008 Y17.6638 
G01 X-53.0549 Y17.5895 
G01 X-52.9225 Y17.4933 
G01 X-52.8596 Y17.4304 
G01 X-52.7276 Y17.4304 
G01 X-52.2244 Y17.6388 
G01 X-52.1705 Y17.6926 
G01 X-52.1606 Y17.6992 
G01 X-52.1520 Y17.7074 
G01 X-52.0899 Y17.7464 
G01 X-52.0288 Y17.7872 
G01 X-52.0178 Y17.7918 
G01 X-52.0078 Y17.7981 
G01 X-51.9393 Y17.8243 
G01 X-51.8714 Y17.8524 
G01 X-51.8597 Y17.8548 
G01 X-51.8486 Y17.8590 
G01 X-51.7764 Y17.8714 
G01 X-51.7043 Y17.8857 
G01 X-51.6924 Y17.8857 
G01 X-51.6807 Y17.8877 
G01 X-51.6074 Y17.8857 
G01 X-51.5339 Y17.8857 
G01 X-51.5222 Y17.8834 
G01 X-42.8228 Y17.6461 
G01 X-42.7494 Y17.6461 
G01 X-42.7377 Y17.6438 
G01 X-42.7259 Y17.6435 
G01 X-42.6543 Y17.6272 
G01 X-42.5823 Y17.6129 
G01 X-42.5713 Y17.6083 
G01 X-42.5597 Y17.6057 
G01 X-42.4927 Y17.5757 
G01 X-42.4249 Y17.5477 
G01 X-42.4150 Y17.5411 
G01 X-42.4041 Y17.5362 
G01 X-42.3443 Y17.4938 
G01 X-42.2832 Y17.4530 
G01 X-42.2748 Y17.4446 
G01 X-42.2651 Y17.4377 
G01 X-42.2146 Y17.3845 
G01 X-42.1627 Y17.3325 
G01 X-42.1561 Y17.3226 
G01 X-42.1479 Y17.3140 
G01 X-42.1088 Y17.2519 
G01 X-42.0680 Y17.1908 
G01 X-42.0635 Y17.1799 
G01 X-42.0572 Y17.1698 
G01 X-42.0309 Y17.1013 
G01 X-42.0028 Y17.0334 
G01 X-42.0005 Y17.0218 
G01 X-41.9963 Y17.0107 
G01 X-41.9839 Y16.9383 
G01 X-41.9696 Y16.8663 
G01 X-41.9696 Y16.8544 
G01 X-41.9676 Y16.8427 
G01 X-41.9681 Y16.8240 
G01 X-41.7483 Y16.2933 
G01 X-41.7151 Y16.1262 
G01 X-41.7151 Y15.9558 
G01 X-41.7483 Y15.7887 
G01 X-41.8135 Y15.6313 
G01 X-41.9082 Y15.4896 
G01 X-42.0286 Y15.3691 
G01 X-42.1703 Y15.2744 
G01 X-42.3277 Y15.2092 
G01 X-42.4949 Y15.1760 
G01 X-51.3742 Y15.1760 
G01 X-51.6962 Y15.0426 
G01 X-52.0115 Y14.7273 
G01 X-52.4107 Y14.3281 
G01 X-52.4568 Y14.2782 
G01 X-52.4708 Y14.2680 
G01 X-52.4831 Y14.2558 
G01 X-52.5397 Y14.2180 
G01 X-52.5562 Y14.2060 
G01 X-52.5838 Y14.1608 
G01 X-52.5956 Y14.1481 
G01 X-52.6052 Y14.1337 
G01 X-52.6426 Y14.0962 
G01 X-52.6505 Y14.0773 
G01 X-52.6740 Y14.0135 
G01 X-52.6830 Y13.9987 
G01 X-52.6896 Y13.9827 
G01 X-52.7274 Y13.9262 
G01 X-52.7381 Y13.9087 
G01 X-52.7464 Y13.8564 
G01 X-52.7523 Y13.8402 
G01 X-52.7557 Y13.8232 
G01 X-52.7760 Y13.7742 
G01 X-52.7760 Y13.7538 
G01 X-52.7733 Y13.6858 
G01 X-52.7760 Y13.6687 
G01 X-52.7760 Y13.6514 
G01 X-52.7893 Y13.5847 
G01 X-52.8355 Y13.2918 
G01 X-52.8355 Y13.2745 
G01 X-52.8488 Y13.2078 
G01 X-52.8594 Y13.1406 
G01 X-52.8654 Y13.1244 
G01 X-52.8687 Y13.1074 
G01 X-52.8948 Y13.0445 
G01 X-52.9183 Y12.9807 
G01 X-52.9273 Y12.9660 
G01 X-52.9340 Y12.9500 
G01 X-52.9717 Y12.8934 
G01 X-53.0072 Y12.8354 
G01 X-53.0190 Y12.8227 
G01 X-53.0286 Y12.8083 
G01 X-53.0767 Y12.7602 
G01 X-53.1228 Y12.7102 
G01 X-53.1369 Y12.7000 
G01 X-53.3611 Y12.4758 
G01 X-53.5696 Y11.9724 
G01 X-53.5696 Y11.4276 
G01 X-53.3611 Y10.9242 
G01 X-52.9758 Y10.5389 
G01 X-52.4724 Y10.3304 
G01 X-51.9276 Y10.3304 
G01 X-51.4242 Y10.5389 
G01 X-51.0389 Y10.9242 
G01 X-50.8304 Y11.4276 
G01 X-50.8304 Y11.9724 
G01 X-50.9036 Y12.1493 
G01 X-50.9689 Y12.3067 
G01 X-50.9885 Y12.4054 
G01 X-51.0021 Y12.4738 
G01 X-51.0021 Y12.6442 
G01 X-50.9689 Y12.8113 
G01 X-50.9312 Y12.9022 
G01 X-50.9037 Y12.9687 
G01 X-50.8090 Y13.1104 
G01 X-50.6885 Y13.2309 
G01 X-50.5468 Y13.3255 
G01 X-50.3894 Y13.3908 
G01 X-50.2907 Y13.4104 
G01 X-50.2223 Y13.4240 
G01 X-40.1001 Y13.4240 
G01 X-40.0583 Y13.4282 
G01 X-40.0151 Y13.4240 
G01 X-39.9717 Y13.4240 
G01 X-39.9305 Y13.4158 
G01 X-39.8887 Y13.4117 
G01 X-39.8472 Y13.3992 
G01 X-39.8046 Y13.3908 
G01 X-39.8009 Y13.3892 
G01 X-39.7968 Y13.3884 
G01 X-39.7580 Y13.3723 
G01 X-39.7178 Y13.3602 
G01 X-39.6795 Y13.3398 
G01 X-39.6394 Y13.3232 
G01 X-39.6045 Y13.2999 
G01 X-39.5674 Y13.2801 
G01 X-39.5338 Y13.2526 
G01 X-39.4978 Y13.2285 
G01 X-39.4680 Y13.1988 
G01 X-39.4355 Y13.1722 
G01 X-39.4079 Y13.1387 
G01 X-39.3773 Y13.1081 
G01 X-39.3539 Y13.0731 
G01 X-39.3272 Y13.0407 
G01 X-39.3067 Y13.0024 
G01 X-39.2826 Y12.9664 
G01 X-39.2665 Y12.9276 
G01 X-39.2467 Y12.8905 
G01 X-39.2340 Y12.8490 
G01 X-39.2174 Y12.8090 
G01 X-39.2092 Y12.7677 
G01 X-39.1969 Y12.7276 
G01 X-39.1926 Y12.6844 
G01 X-39.1842 Y12.6419 
G01 X-39.1842 Y12.5998 
G01 X-39.1800 Y12.5580 
G01 X-39.1842 Y12.5148 
G01 X-39.1842 Y12.4715 
G01 X-39.1924 Y12.4302 
G01 X-39.1964 Y12.3884 
G01 X-39.2089 Y12.3469 
G01 X-39.2174 Y12.3043 
G01 X-39.2335 Y12.2655 
G01 X-39.2456 Y12.2253 
G01 X-39.2660 Y12.1870 
G01 X-39.2826 Y12.1469 
G01 X-39.3060 Y12.1120 
G01 X-39.3257 Y12.0749 
G01 X-39.3532 Y12.0413 
G01 X-39.3773 Y12.0053 
G01 X-39.4070 Y11.9755 
G01 X-39.4336 Y11.9430 
G01 X-39.4671 Y11.9154 
G01 X-40.2928 Y11.0898 
G01 X-40.3105 Y11.0549 
G01 X-40.4067 Y10.9225 
G01 X-40.5225 Y10.8067 
G01 X-40.6549 Y10.7105 
G01 X-40.6898 Y10.6928 
G01 X-44.8913 Y6.4912  
G01 X-45.0118 Y6.3707  
G01 X-45.1535 Y6.2760  
G01 X-45.3109 Y6.2108  
G01 X-45.4780 Y6.1776  
G01 X-50.3404 Y6.1776  
G01 X-50.5075 Y6.2108  
G01 X-50.6649 Y6.2760  
G01 X-50.8066 Y6.3707  
G01 X-50.9271 Y6.4912  
G01 X-50.9340 Y6.4981  
G01 X-51.1066 Y6.5696  
G01 X-53.0934 Y6.5696  
G01 X-53.2660 Y6.4981  
G01 X-53.3981 Y6.3660  
G01 X-53.4696 Y6.1934  
G01 X-53.4696 Y4.2066  
G01 X-53.3981 Y4.0340  
G01 X-53.2660 Y3.9019  
G01 X-53.0934 Y3.8304  
G01 X-51.1066 Y3.8304  
G01 X-50.9340 Y3.9019  
G01 X-50.8066 Y4.0293  
G01 X-50.6649 Y4.1239  
G01 X-50.5075 Y4.1892  
G01 X-50.3404 Y4.2224  
G01 X-44.6055 Y4.2224  
G01 X-44.2462 Y4.3712  
G01 X-36.1077 Y12.5098 
G01 X-35.7712 Y12.8462 
G01 X-35.6224 Y13.2055 
G01 X-35.6224 Y18.1863 
G01 X-35.6259 Y18.2116 
G01 X-35.6224 Y18.2713 
G01 X-35.6224 Y18.3310 
G01 X-35.6174 Y18.3561 
G01 X-35.6109 Y18.4667 
G01 X-35.6533 Y18.5690 
G01 X-35.6662 Y18.5911 
G01 X-35.6858 Y18.6476 
G01 X-35.7087 Y18.7028 
G01 X-35.7137 Y18.7279 
G01 X-35.7500 Y18.8325 
G01 X-35.8283 Y18.9108 
G01 X-35.8487 Y18.9262 
G01 X-35.8884 Y18.9709 
G01 X-35.9307 Y19.0132 
G01 X-35.9449 Y19.0345 
G01 X-38.0224 Y21.3716 
G01 X-38.0646 Y21.4139 
G01 X-38.0788 Y21.4352 
G01 X-38.0958 Y21.4543 
G01 X-38.1261 Y21.5059 
G01 X-38.1593 Y21.5556 
G01 X-38.1691 Y21.5792 
G01 X-38.1820 Y21.6013 
G01 X-38.2016 Y21.6578 
G01 X-38.2245 Y21.7130 
G01 X-38.2295 Y21.7381 
G01 X-38.2379 Y21.7623 
G01 X-38.2461 Y21.8215 
G01 X-38.2577 Y21.8801 
G01 X-38.2577 Y21.9057 
G01 X-38.2612 Y21.9311 
G01 X-38.2577 Y21.9907 
G01 X-38.2577 Y22.0505 
G01 X-38.2527 Y22.0756 
G01 X-38.2512 Y22.1012 
G01 X-38.2362 Y22.1590 
G01 X-38.2245 Y22.2176 
G01 X-38.2147 Y22.2413 
G01 X-38.2082 Y22.2660 
G01 X-38.1822 Y22.3198 
G01 X-38.1426 Y22.4153 
G01 X-38.1345 Y22.4451 
G01 X-38.1101 Y22.4939 
G01 X-38.0892 Y22.5442 
G01 X-38.0721 Y22.5699 
G01 X-38.0300 Y22.6541 
G01 X-38.0256 Y22.6700 
G01 X-38.0224 Y22.6862 
G01 X-38.0224 Y22.7803 
G01 X-38.0263 Y22.8109 
G01 X-38.0224 Y22.8653 
G01 X-38.0224 Y22.9198 
G01 X-38.0164 Y22.9501 
G01 X-38.0097 Y23.0440 
G01 X-38.0118 Y23.0603 
G01 X-38.0224 Y23.1138 
G01 X-38.0224 Y23.1447 
G01 X-38.0263 Y23.1753 
G01 X-38.0224 Y23.2297 
G01 X-38.0224 Y32.5515 
G01 X-38.0248 Y32.6217 
G01 X-38.0224 Y32.6366 
G01 X-38.0224 Y32.6516 
G01 X-38.0146 Y32.6908 
G01 X-38.0195 Y32.8318 
G01 X-38.0224 Y32.8466 
G01 X-38.0224 Y32.9169 
G01 X-38.0248 Y32.9871 
G01 X-38.0224 Y33.0019 
G01 X-38.0224 Y33.1120 
G01 X-38.0680 Y33.2123 
G01 X-38.0764 Y33.2248 
G01 X-38.1033 Y33.2897 
G01 X-38.1324 Y33.3537 
G01 X-38.1358 Y33.3683 
G01 X-38.1780 Y33.4700 
G01 X-38.2585 Y33.5451 
G01 X-38.2709 Y33.5535 
G01 X-38.3207 Y33.6032 
G01 X-38.3720 Y33.6511 
G01 X-38.3808 Y33.6633 
G01 X-38.5636 Y33.8461 
G01 X-38.6207 Y33.9019 
G01 X-38.6237 Y33.9062 
G01 X-38.6275 Y33.9100 
G01 X-38.6719 Y33.9765 
G01 X-38.7171 Y34.0424 
G01 X-38.7192 Y34.0473 
G01 X-38.7221 Y34.0517 
G01 X-38.7527 Y34.1255 
G01 X-38.7842 Y34.1990 
G01 X-38.7853 Y34.2042 
G01 X-38.7873 Y34.2091 
G01 X-38.8029 Y34.2876 
G01 X-38.8195 Y34.3657 
G01 X-38.8195 Y34.3710 
G01 X-38.8206 Y34.3762 
G01 X-38.8206 Y34.4562 
G01 X-38.8214 Y34.5208 
G01 X-38.8224 Y34.5260 
G01 X-38.8224 Y34.6059 
G01 X-38.8234 Y34.6858 
G01 X-38.8224 Y34.6911 
G01 X-38.8224 Y40.2945 
G01 X-38.9712 Y40.6538 
G01 X-39.4281 Y41.1107 
G01 X-39.5239 Y41.2535 
G01 X-39.5892 Y41.4109 
G01 X-39.6224 Y41.5780 
G01 X-39.6224 Y42.1404 
G01 X-39.5892 Y42.3075 
G01 X-39.5239 Y42.4649 
G01 X-39.4293 Y42.6066 
G01 X-39.3088 Y42.7271 
G01 X-39.3019 Y42.7340 
G01 X-39.2304 Y42.9066 
G01 X-39.2304 Y44.8934 
G01 X-39.3019 Y45.0660 
G00 Z2.5400  
G00 X-39.6207 Y44.9187 
G01 Z-0.1000 F127   
G01 X-39.5813 Y44.8793 F127   
G01 X-39.5600 Y44.8278 
G01 X-39.5600 Y42.9721 
G01 X-39.5813 Y42.9207 
G01 X-39.6207 Y42.8813 
G01 X-39.6722 Y42.8600 
G01 X-39.9520 Y42.8600 
G01 X-39.9520 Y41.1684 
G01 X-39.3869 Y40.6033 
G01 X-39.2967 Y40.5131 
G01 X-39.2257 Y40.4069 
G01 X-39.1769 Y40.2890 
G01 X-39.1520 Y40.1638 
G01 X-39.1520 Y34.6041 
G01 X-39.1513 Y34.5441 
G01 X-39.1520 Y34.5402 
G01 X-39.1520 Y34.5362 
G01 X-39.1637 Y34.4776 
G01 X-39.1746 Y34.4186 
G01 X-39.1761 Y34.4149 
G01 X-39.1769 Y34.4110 
G01 X-39.1998 Y34.3558 
G01 X-39.2221 Y34.3001 
G01 X-39.2242 Y34.2967 
G01 X-39.2257 Y34.2931 
G01 X-39.2590 Y34.2433 
G01 X-39.2917 Y34.1931 
G01 X-39.2945 Y34.1902 
G01 X-39.2967 Y34.1869 
G01 X-39.3390 Y34.1446 
G01 X-39.3603 Y34.1227 
G01 X-38.5963 Y33.4096 
G01 X-38.5869 Y33.4033 
G01 X-38.5497 Y33.3661 
G01 X-38.5112 Y33.3302 
G01 X-38.5046 Y33.3210 
G01 X-38.4967 Y33.3131 
G01 X-38.4674 Y33.2693 
G01 X-38.4367 Y33.2266 
G01 X-38.4320 Y33.2163 
G01 X-38.4258 Y33.2069 
G01 X-38.4056 Y33.1583 
G01 X-38.3838 Y33.1104 
G01 X-38.3812 Y33.0994 
G01 X-38.3769 Y33.0890 
G01 X-38.3666 Y33.0374 
G01 X-38.3546 Y32.9861 
G01 X-38.3542 Y32.9749 
G01 X-38.3520 Y32.9638 
G01 X-38.3520 Y32.9112 
G01 X-38.3502 Y32.8585 
G01 X-38.3520 Y32.8474 
G01 X-38.3520 Y22.9407 
G01 X-38.3491 Y22.9177 
G01 X-38.3520 Y22.8770 
G01 X-38.3520 Y22.8362 
G01 X-38.3565 Y22.8135 
G01 X-38.3582 Y22.7904 
G01 X-38.3689 Y22.7510 
G01 X-38.3769 Y22.7110 
G01 X-38.3858 Y22.6896 
G01 X-38.3919 Y22.6673 
G01 X-38.4101 Y22.6308 
G01 X-38.4258 Y22.5931 
G01 X-38.4386 Y22.5738 
G01 X-38.8322 Y21.7866 
G01 X-36.1284 Y18.7448 
G01 X-36.0967 Y18.7131 
G01 X-36.0860 Y18.6971 
G01 X-36.0733 Y18.6828 
G01 X-36.0506 Y18.6442 
G01 X-36.0258 Y18.6069 
G01 X-36.0184 Y18.5892 
G01 X-36.0087 Y18.5727 
G01 X-35.9940 Y18.5304 
G01 X-35.9769 Y18.4890 
G01 X-35.9732 Y18.4702 
G01 X-35.9669 Y18.4521 
G01 X-35.9607 Y18.4077 
G01 X-35.9520 Y18.3638 
G01 X-35.9520 Y18.3446 
G01 X-35.9494 Y18.3257 
G01 X-35.9520 Y18.2810 
G01 X-35.9520 Y13.3362 
G01 X-35.9769 Y13.2110 
G01 X-36.0258 Y13.0931 
G01 X-36.0967 Y12.9869 
G01 X-36.1869 Y12.8967 
G01 X-44.3869 Y4.6967  
G01 X-44.4931 Y4.6258  
G01 X-44.6110 Y4.5769  
G01 X-44.7362 Y4.5520  
G01 X-51.0600 Y4.5520  
G01 X-51.0600 Y4.2721  
G01 X-51.0813 Y4.2207  
G01 X-51.1207 Y4.1813  
G01 X-51.1722 Y4.1600  
G01 X-53.0278 Y4.1600  
G01 X-53.0793 Y4.1813  
G01 X-53.1187 Y4.2207  
G01 X-53.1400 Y4.2721  
G01 X-53.1400 Y6.1278  
G01 X-53.1187 Y6.1793  
G01 X-53.0793 Y6.2187  
G01 X-53.0278 Y6.2400  
G01 X-51.1722 Y6.2400  
G01 X-51.1207 Y6.2187  
G01 X-51.0813 Y6.1793  
G01 X-51.0600 Y6.1278  
G01 X-51.0600 Y5.8480  
G01 X-45.0684 Y5.8480  
G01 X-37.2480 Y13.6684 
G01 X-37.2480 Y18.0536 
G01 X-39.9104 Y21.0488 
G01 X-40.5390 Y21.0488 
G01 X-40.5905 Y21.0701 
G01 X-40.6299 Y21.1095 
G01 X-40.6512 Y21.1609 
G01 X-40.6512 Y22.6390 
G01 X-40.6299 Y22.6905 
G01 X-40.5905 Y22.7299 
G01 X-40.5390 Y22.7512 
G01 X-39.7989 Y22.7512 
G01 X-39.6480 Y23.0530 
G01 X-39.6480 Y32.6184 
G01 X-40.3354 Y33.2600 
G01 X-41.4278 Y33.2600 
G01 X-41.4793 Y33.2813 
G01 X-41.5187 Y33.3207 
G01 X-41.5400 Y33.3721 
G01 X-41.5400 Y35.2278 
G01 X-41.5187 Y35.2793 
G01 X-41.4793 Y35.3187 
G01 X-41.4278 Y35.3400 
G01 X-40.4480 Y35.3400 
G01 X-40.4480 Y39.8316 
G01 X-41.1033 Y40.4869 
G01 X-41.1742 Y40.5931 
G01 X-41.2231 Y40.7110 
G01 X-41.2480 Y40.8362 
G01 X-41.2480 Y42.8600 
G01 X-41.5278 Y42.8600 
G01 X-41.5793 Y42.8813 
G01 X-41.6187 Y42.9207 
G01 X-41.6400 Y42.9721 
G01 X-41.6400 Y44.8278 
G01 X-41.6187 Y44.8793 
G01 X-41.5793 Y44.9187 
G01 X-41.5278 Y44.9400 
G01 X-39.6722 Y44.9400 
G01 X-39.6207 Y44.9187 
G00 Z2.5400  
G00 X-41.1327 Y40.1913 
G01 Z-0.1000 F127   
G01 X-41.0087 Y40.0673 F127   
G01 X-40.9113 Y39.9216 
G01 X-40.8442 Y39.7596 
G01 X-40.8100 Y39.5877 
G01 X-40.8100 Y39.4123 
G01 X-40.8442 Y39.2404 
G01 X-40.9113 Y39.0784 
G01 X-41.0087 Y38.9327 
G01 X-41.1327 Y38.8087 
G01 X-41.2784 Y38.7113 
G01 X-41.4404 Y38.6442 
G01 X-41.6123 Y38.6100 
G01 X-41.7877 Y38.6100 
G01 X-41.9596 Y38.6442 
G01 X-42.1216 Y38.7113 
G01 X-42.2673 Y38.8087 
G01 X-42.3913 Y38.9327 
G01 X-42.4887 Y39.0784 
G01 X-42.5558 Y39.2404 
G01 X-42.5900 Y39.4123 
G01 X-42.5900 Y39.5877 
G01 X-42.5570 Y39.7536 
G01 X-43.8933 Y41.1536 
G01 X-63.8497 Y41.1536 
G01 X-63.8718 Y41.1376 
G01 X-63.9878 Y41.0844 
G01 X-64.1120 Y41.0548 
G01 X-64.2396 Y41.0501 
G01 X-64.3656 Y41.0703 
G01 X-64.4853 Y41.1147 
G01 X-65.0464 Y41.4600 
G01 X-66.4278 Y41.4600 
G01 X-66.4793 Y41.4813 
G01 X-66.5187 Y41.5207 
G01 X-66.5400 Y41.5722 
G01 X-66.5400 Y43.4278 
G01 X-66.5187 Y43.4793 
G01 X-66.4793 Y43.5187 
G01 X-66.4278 Y43.5400 
G01 X-64.5721 Y43.5400 
G01 X-64.5207 Y43.5187 
G01 X-64.4813 Y43.4793 
G01 X-64.4600 Y43.4278 
G01 X-64.4600 Y42.6209 
G01 X-63.8515 Y42.2464 
G01 X-43.7281 Y42.2464 
G01 X-43.5891 Y42.2092 
G01 X-43.4645 Y42.1372 
G01 X-43.3628 Y42.0355 
G01 X-43.2908 Y41.9109 
G01 X-43.2536 Y41.7719 
G01 X-41.9112 Y40.3654 
G01 X-41.7877 Y40.3900 
G01 X-41.6123 Y40.3900 
G01 X-41.4404 Y40.3558 
G01 X-41.2784 Y40.2887 
G01 X-41.1327 Y40.1913 
G00 Z2.5400  
G00 X-43.1659 Y39.9141 
G01 Z-0.1000 F127   
G01 X-43.1127 Y39.8610 F127   
G01 X-43.1071 Y39.8525 
G01 X-43.1001 Y39.8452 
G01 X-43.0598 Y39.7818 
G01 X-43.0180 Y39.7193 
G01 X-43.0142 Y39.7099 
G01 X-43.0087 Y39.7014 
G01 X-42.9816 Y39.6313 
G01 X-42.9528 Y39.5619 
G01 X-42.9509 Y39.5519 
G01 X-42.9472 Y39.5425 
G01 X-42.9343 Y39.4685 
G01 X-42.9196 Y39.3948 
G01 X-42.9196 Y39.3846 
G01 X-42.9179 Y39.3746 
G01 X-42.9196 Y39.2995 
G01 X-42.9196 Y39.1606 
G01 X-42.9528 Y38.9935 
G01 X-43.0180 Y38.8361 
G01 X-43.1127 Y38.6944 
G01 X-43.2332 Y38.5739 
G01 X-43.3749 Y38.4792 
G01 X-43.5323 Y38.4140 
G01 X-43.6994 Y38.3808 
G01 X-44.3349 Y38.3808 
G01 X-44.7689 Y38.2010 
G01 X-45.1010 Y37.8689 
G01 X-45.2808 Y37.4349 
G01 X-45.2808 Y37.0557 
G01 X-45.2769 Y37.0251 
G01 X-45.2808 Y36.9707 
G01 X-45.2808 Y36.9162 
G01 X-45.2868 Y36.8859 
G01 X-45.2890 Y36.8551 
G01 X-45.3034 Y36.8025 
G01 X-45.3140 Y36.7491 
G01 X-45.3259 Y36.7206 
G01 X-45.3340 Y36.6908 
G01 X-45.3584 Y36.6420 
G01 X-45.3742 Y36.6039 
G01 X-45.3749 Y36.5201 
G01 X-45.3716 Y36.4934 
G01 X-45.3757 Y36.4351 
G01 X-45.3762 Y36.3766 
G01 X-45.3817 Y36.3503 
G01 X-45.3883 Y36.2578 
G01 X-45.3778 Y36.2025 
G01 X-45.3781 Y36.1756 
G01 X-45.3747 Y36.1489 
G01 X-45.3789 Y36.0906 
G01 X-45.4151 Y32.1371 
G01 X-45.4151 Y32.0558 
G01 X-45.4159 Y32.0519 
G01 X-45.4160 Y32.0479 
G01 X-45.4325 Y31.9684 
G01 X-45.4484 Y31.8887 
G01 X-45.4499 Y31.8850 
G01 X-45.4507 Y31.8811 
G01 X-45.4825 Y31.8063 
G01 X-45.5136 Y31.7313 
G01 X-45.5158 Y31.7279 
G01 X-45.5174 Y31.7243 
G01 X-45.5631 Y31.6571 
G01 X-45.6082 Y31.5896 
G01 X-45.6111 Y31.5868 
G01 X-45.6133 Y31.5834 
G01 X-45.6712 Y31.5266 
G01 X-45.7287 Y31.4691 
G01 X-45.7321 Y31.4669 
G01 X-45.7349 Y31.4641 
G01 X-45.8029 Y31.4196 
G01 X-45.8704 Y31.3744 
G01 X-45.8741 Y31.3729 
G01 X-45.8775 Y31.3707 
G01 X-45.9528 Y31.3403 
G01 X-46.0278 Y31.3092 
G01 X-46.0318 Y31.3085 
G01 X-46.0355 Y31.3070 
G01 X-46.1151 Y31.2919 
G01 X-46.1949 Y31.2760 
G01 X-46.1990 Y31.2760 
G01 X-46.2029 Y31.2753 
G01 X-46.2840 Y31.2760 
G01 X-52.4190 Y31.2760 
G01 X-52.4425 Y31.2726 
G01 X-52.5041 Y31.2760 
G01 X-52.5657 Y31.2760 
G01 X-52.5890 Y31.2806 
G01 X-52.6127 Y31.2819 
G01 X-52.6514 Y31.2918 
G01 X-52.6781 Y31.2880 
G01 X-52.7385 Y31.2760 
G01 X-52.7623 Y31.2760 
G01 X-52.7857 Y31.2726 
G01 X-52.8473 Y31.2760 
G01 X-52.8742 Y31.2760 
G01 X-52.9111 Y31.2607 
G01 X-52.9344 Y31.2561 
G01 X-52.9568 Y31.2482 
G01 X-52.9914 Y31.2433 
G01 X-53.0135 Y31.2285 
G01 X-53.0354 Y31.2194 
G01 X-53.0558 Y31.2073 
G01 X-53.1140 Y31.1869 
G01 X-53.1709 Y31.1633 
G01 X-53.1942 Y31.1587 
G01 X-53.2166 Y31.1508 
G01 X-53.2776 Y31.1421 
G01 X-53.3381 Y31.1301 
G01 X-53.3618 Y31.1301 
G01 X-53.3852 Y31.1267 
G01 X-53.4468 Y31.1301 
G01 X-53.5084 Y31.1301 
G01 X-53.5317 Y31.1347 
G01 X-53.5554 Y31.1360 
G01 X-53.6151 Y31.1513 
G01 X-53.6756 Y31.1633 
G01 X-53.6975 Y31.1724 
G01 X-53.7204 Y31.1783 
G01 X-53.7760 Y31.2049 
G01 X-53.8330 Y31.2285 
G01 X-53.8527 Y31.2417 
G01 X-53.8741 Y31.2519 
G01 X-53.9234 Y31.2889 
G01 X-53.9747 Y31.3232 
G01 X-53.9914 Y31.3399 
G01 X-54.0104 Y31.3542 
G01 X-54.0515 Y31.4001 
G01 X-54.2418 Y31.5903 
G01 X-54.4144 Y31.6618 
G01 X-56.7856 Y31.6618 
G01 X-56.9582 Y31.5903 
G01 X-57.0903 Y31.4582 
G01 X-57.1435 Y31.3297 
G01 X-57.1822 Y31.2718 
G01 X-57.2382 Y31.1880 
G01 X-57.3568 Y31.0694 
G01 X-57.5004 Y30.9728 
G01 X-57.6578 Y30.9076 
G01 X-57.8249 Y30.8744 
G01 X-58.0964 Y30.8744 
G01 X-58.2635 Y30.9076 
G01 X-58.4209 Y30.9728 
G01 X-58.5626 Y31.0675 
G01 X-58.6831 Y31.1880 
G01 X-58.7777 Y31.3297 
G01 X-58.8430 Y31.4871 
G01 X-58.8684 Y31.6150 
G01 X-59.2679 Y31.6150 
G01 X-59.4827 Y31.4002 
G01 X-60.3773 Y31.4002 
G01 X-61.0098 Y32.0327 
G01 X-61.0098 Y32.9273 
G01 X-60.7950 Y33.1421 
G01 X-60.7950 Y33.3236 
G01 X-60.8633 Y33.3100 
G01 X-61.0337 Y33.3100 
G01 X-61.2009 Y33.3433 
G01 X-61.2917 Y33.3809 
G01 X-61.3583 Y33.4085 
G01 X-61.4999 Y33.5031 
G01 X-61.6204 Y33.6236 
G01 X-61.9252 Y33.9284 
G01 X-62.0687 Y33.9878 
G01 X-62.2104 Y34.0825 
G01 X-62.3309 Y34.2030 
G01 X-62.4256 Y34.3447 
G01 X-62.4908 Y34.5021 
G01 X-62.5240 Y34.6692 
G01 X-62.5240 Y34.8920 
G01 X-62.5267 Y34.9601 
G01 X-62.5240 Y34.9770 
G01 X-62.5240 Y34.9941 
G01 X-62.5107 Y35.0610 
G01 X-62.5000 Y35.1284 
G01 X-62.4941 Y35.1445 
G01 X-62.4908 Y35.1612 
G01 X-62.4646 Y35.2243 
G01 X-62.4410 Y35.2883 
G01 X-62.4321 Y35.3029 
G01 X-62.4256 Y35.3186 
G01 X-62.3876 Y35.3754 
G01 X-61.6007 Y36.6594 
G01 X-61.5942 Y36.6751 
G01 X-61.5563 Y36.7318 
G01 X-61.5206 Y36.7901 
G01 X-61.5090 Y36.8026 
G01 X-61.4995 Y36.8168 
G01 X-61.4512 Y36.8650 
G01 X-61.4049 Y36.9152 
G01 X-61.3911 Y36.9252 
G01 X-61.3790 Y36.9373 
G01 X-61.3223 Y36.9752 
G01 X-61.2671 Y37.0153 
G01 X-61.2515 Y37.0225 
G01 X-61.2373 Y37.0320 
G01 X-61.1743 Y37.0581 
G01 X-61.1123 Y37.0866 
G01 X-61.0957 Y37.0906 
G01 X-61.0799 Y37.0972 
G01 X-61.0130 Y37.1105 
G01 X-60.9466 Y37.1264 
G01 X-60.9296 Y37.1271 
G01 X-60.9128 Y37.1304 
G01 X-60.8446 Y37.1304 
G01 X-60.7764 Y37.1331 
G01 X-60.7595 Y37.1304 
G01 X-59.2066 Y37.1304 
G01 X-59.0340 Y37.2019 
G01 X-58.9019 Y37.3340 
G01 X-58.8304 Y37.5066 
G01 X-58.8304 Y39.4934 
G01 X-58.9187 Y39.7067 
G01 X-58.9318 Y39.7722 
G01 X-58.9520 Y39.8738 
G01 X-58.9520 Y40.0442 
G01 X-58.9187 Y40.2113 
G01 X-58.8655 Y40.3398 
G01 X-58.8535 Y40.3687 
G01 X-58.7589 Y40.5104 
G01 X-58.6403 Y40.6290 
G01 X-58.5832 Y40.6678 
G01 X-58.4967 Y40.7255 
G01 X-58.3393 Y40.7908 
G01 X-58.2738 Y40.8038 
G01 X-58.1722 Y40.8240 
G01 X-44.4796 Y40.8240 
G01 X-44.4696 Y40.8257 
G01 X-44.3945 Y40.8240 
G01 X-44.3193 Y40.8240 
G01 X-44.3094 Y40.8220 
G01 X-44.2992 Y40.8218 
G01 X-44.2259 Y40.8054 
G01 X-44.1522 Y40.7908 
G01 X-44.1428 Y40.7869 
G01 X-44.1329 Y40.7847 
G01 X-44.0642 Y40.7543 
G01 X-43.9948 Y40.7255 
G01 X-43.9864 Y40.7199 
G01 X-43.9771 Y40.7158 
G01 X-43.9156 Y40.6727 
G01 X-43.8531 Y40.6309 
G01 X-43.8459 Y40.6237 
G01 X-43.8376 Y40.6179 
G01 X-43.7858 Y40.5636 
G01 X-43.7326 Y40.5104 
G01 X-43.7270 Y40.5020 
G01 X-43.1659 Y39.9141 
G00 Z2.5400  
G00 X-43.5574 Y37.8612 
G01 Z-0.1000 F127   
G01 X-43.4388 Y37.7426 F127   
G01 X-43.3457 Y37.6032 
G01 X-43.2815 Y37.4483 
G01 X-43.2488 Y37.2838 
G01 X-43.2488 Y37.1162 
G01 X-43.2815 Y36.9517 
G01 X-43.3457 Y36.7968 
G01 X-43.4388 Y36.6574 
G01 X-43.5574 Y36.5388 
G01 X-43.6968 Y36.4457 
G01 X-43.8517 Y36.3815 
G01 X-43.9035 Y36.3712 
G01 X-43.9548 Y36.2687 
G01 X-44.0062 Y30.6683 
G01 X-44.0068 Y30.5988 
G01 X-44.0068 Y30.5295 
G01 X-44.0075 Y30.5270 
G01 X-44.0075 Y30.5245 
G01 X-44.0475 Y26.2513 
G01 X-43.9388 Y26.1426 
G01 X-43.8457 Y26.0032 
G01 X-43.7815 Y25.8483 
G01 X-43.7488 Y25.6838 
G01 X-43.7488 Y25.5162 
G01 X-43.7815 Y25.3517 
G01 X-43.8457 Y25.1968 
G01 X-43.9388 Y25.0574 
G01 X-44.0574 Y24.9388 
G01 X-44.1968 Y24.8457 
G01 X-44.3517 Y24.7815 
G01 X-44.5162 Y24.7488 
G01 X-44.6838 Y24.7488 
G01 X-44.8483 Y24.7815 
G01 X-45.0032 Y24.8457 
G01 X-45.1426 Y24.9388 
G01 X-45.2612 Y25.0574 
G01 X-45.3543 Y25.1968 
G01 X-45.4185 Y25.3517 
G01 X-45.4512 Y25.5162 
G01 X-45.4512 Y25.6838 
G01 X-45.4185 Y25.8483 
G01 X-45.3543 Y26.0032 
G01 X-45.2612 Y26.1426 
G01 X-45.1426 Y26.2612 
G01 X-45.1402 Y26.2628 
G01 X-45.1066 Y29.8536 
G01 X-52.4268 Y29.8536 
G01 X-53.0636 Y29.0045 
G01 X-53.2507 Y25.6379 
G01 X-53.2500 Y25.6344 
G01 X-53.2546 Y25.5663 
G01 X-53.2584 Y25.4979 
G01 X-53.2595 Y25.4945 
G01 X-53.2598 Y25.4909 
G01 X-53.2820 Y25.4262 
G01 X-53.3033 Y25.3612 
G01 X-53.3053 Y25.3582 
G01 X-53.3064 Y25.3548 
G01 X-53.3446 Y25.2981 
G01 X-53.3821 Y25.2408 
G01 X-53.3847 Y25.2384 
G01 X-53.3867 Y25.2354 
G01 X-53.4383 Y25.1905 
G01 X-53.4893 Y25.1448 
G01 X-53.4925 Y25.1432 
G01 X-57.1536 Y21.9515 
G01 X-57.1536 Y21.3281 
G01 X-57.1908 Y21.1891 
G01 X-57.2628 Y21.0645 
G01 X-58.7628 Y19.5645 
G01 X-58.8645 Y19.4628 
G01 X-58.9891 Y19.3908 
G01 X-59.1281 Y19.3536 
G01 X-61.7719 Y19.3536 
G01 X-61.9109 Y19.3908 
G01 X-62.0355 Y19.4628 
G01 X-62.8055 Y20.2328 
G01 X-62.9072 Y20.3345 
G01 X-62.9792 Y20.4591 
G01 X-63.0164 Y20.5981 
G01 X-63.0164 Y21.3393 
G01 X-63.5498 Y21.8727 
G01 X-63.5498 Y22.7673 
G01 X-62.9173 Y23.3998 
G01 X-62.0227 Y23.3998 
G01 X-61.3902 Y22.7673 
G01 X-61.3902 Y21.8727 
G01 X-61.9236 Y21.3393 
G01 X-61.9236 Y20.8963 
G01 X-61.4737 Y20.4464 
G01 X-59.4263 Y20.4464 
G01 X-58.2464 Y21.6263 
G01 X-58.2464 Y22.1470 
G01 X-58.2500 Y22.1656 
G01 X-58.2464 Y22.2187 
G01 X-58.2464 Y22.2719 
G01 X-58.2415 Y22.2902 
G01 X-58.2402 Y22.3091 
G01 X-58.2229 Y22.3595 
G01 X-58.2092 Y22.4109 
G01 X-58.1997 Y22.4273 
G01 X-58.1936 Y22.4452 
G01 X-58.1638 Y22.4894 
G01 X-58.1372 Y22.5355 
G01 X-58.1238 Y22.5489 
G01 X-58.1133 Y22.5646 
G01 X-58.0732 Y22.5996 
G01 X-58.0355 Y22.6372 
G01 X-58.0191 Y22.6467 
G01 X-54.3328 Y25.8604 
G01 X-54.1486 Y29.1763 
G01 X-54.1511 Y29.1939 
G01 X-54.1446 Y29.2479 
G01 X-54.1416 Y29.3021 
G01 X-54.1360 Y29.3191 
G01 X-54.1339 Y29.3368 
G01 X-54.1136 Y29.3872 
G01 X-54.0967 Y29.4388 
G01 X-54.0869 Y29.4537 
G01 X-54.0803 Y29.4703 
G01 X-54.0477 Y29.5138 
G01 X-54.0179 Y29.5592 
G01 X-54.0047 Y29.5711 
G01 X-53.1568 Y30.7016 
G01 X-53.1372 Y30.7355 
G01 X-53.1138 Y30.7589 
G01 X-53.0940 Y30.7854 
G01 X-53.0632 Y30.8095 
G01 X-53.0355 Y30.8372 
G01 X-53.0068 Y30.8538 
G01 X-52.9808 Y30.8742 
G01 X-52.9448 Y30.8896 
G01 X-52.9109 Y30.9092 
G01 X-52.8789 Y30.9177 
G01 X-52.8485 Y30.9307 
G01 X-52.8097 Y30.9363 
G01 X-52.7719 Y30.9464 
G01 X-52.7388 Y30.9464 
G01 X-52.7061 Y30.9511 
G01 X-52.6672 Y30.9464 
G01 X-45.0964 Y30.9464 
G01 X-45.0465 Y36.3861 
G01 X-45.0497 Y36.4391 
G01 X-45.0459 Y36.4578 
G01 X-45.0457 Y36.4769 
G01 X-45.0315 Y36.5280 
G01 X-45.0209 Y36.5800 
G01 X-45.0123 Y36.5971 
G01 X-45.0072 Y36.6156 
G01 X-44.9803 Y36.6613 
G01 X-44.8807 Y36.8604 
G01 X-44.9185 Y36.9517 
G01 X-44.9512 Y37.1162 
G01 X-44.9512 Y37.2838 
G01 X-44.9185 Y37.4483 
G01 X-44.8543 Y37.6032 
G01 X-44.7612 Y37.7426 
G01 X-44.6426 Y37.8612 
G01 X-44.5032 Y37.9543 
G01 X-44.3483 Y38.0185 
G01 X-44.1838 Y38.0512 
G01 X-44.0162 Y38.0512 
G01 X-43.8517 Y38.0185 
G01 X-43.6968 Y37.9543 
G01 X-43.5574 Y37.8612 
G00 Z2.5400  
G00 X-43.4327 Y36.1985 
G01 Z-0.1000 F127   
G01 X-43.3748 Y36.2553 F127   
G01 X-43.1398 Y36.4903 
G01 X-43.0477 Y36.5519 
G01 X-42.9981 Y36.5849 
G01 X-42.8407 Y36.6502 
G01 X-42.7583 Y36.6665 
G01 X-42.6736 Y36.6834 
G01 X-42.5032 Y36.6834 
G01 X-42.4054 Y36.6639 
G01 X-42.3361 Y36.6501 
G01 X-42.1787 Y36.5849 
G01 X-42.0945 Y36.5287 
G01 X-42.0370 Y36.4903 
G01 X-41.9165 Y36.3698 
G01 X-41.8549 Y36.2776 
G01 X-41.8219 Y36.2281 
G01 X-41.7566 Y36.0707 
G01 X-41.7403 Y35.9883 
G01 X-41.7234 Y35.9036 
G01 X-41.7234 Y35.7332 
G01 X-41.7429 Y35.6354 
G01 X-41.7566 Y35.5661 
G01 X-41.8696 Y35.2934 
G01 X-41.8696 Y33.3066 
G01 X-41.7981 Y33.1340 
G01 X-41.6660 Y33.0019 
G01 X-41.4934 Y32.9304 
G01 X-40.7574 Y32.9304 
G01 X-40.5903 Y32.8972 
G01 X-40.4329 Y32.8319 
G01 X-40.2912 Y32.7373 
G01 X-40.1707 Y32.6168 
G01 X-40.0760 Y32.4751 
G01 X-40.0108 Y32.3177 
G01 X-39.9776 Y32.1506 
G01 X-39.9776 Y31.2510 
G01 X-39.9457 Y31.2032 
G01 X-39.8815 Y31.0483 
G01 X-39.8488 Y30.8838 
G01 X-39.8488 Y30.7162 
G01 X-39.8815 Y30.5517 
G01 X-39.9457 Y30.3968 
G01 X-39.9776 Y30.3490 
G01 X-39.9776 Y28.6606 
G01 X-40.0108 Y28.4935 
G01 X-40.0760 Y28.3361 
G01 X-40.1707 Y28.1944 
G01 X-40.2912 Y28.0739 
G01 X-40.4329 Y27.9792 
G01 X-40.5903 Y27.9140 
G01 X-40.7574 Y27.8808 
G01 X-40.9278 Y27.8808 
G01 X-41.1349 Y27.8808 
G01 X-41.5689 Y27.7010 
G01 X-41.9010 Y27.3689 
G01 X-42.0123 Y27.1003 
G01 X-42.0131 Y27.0963 
G01 X-42.0449 Y27.0215 
G01 X-42.0759 Y26.9466 
G01 X-42.0782 Y26.9432 
G01 X-42.0798 Y26.9395 
G01 X-42.1255 Y26.8725 
G01 X-42.1706 Y26.8049 
G01 X-42.1735 Y26.8020 
G01 X-42.1758 Y26.7987 
G01 X-42.2336 Y26.7419 
G01 X-42.2911 Y26.6845 
G01 X-42.2945 Y26.6822 
G01 X-42.2974 Y26.6793 
G01 X-42.3652 Y26.6349 
G01 X-42.4328 Y26.5898 
G01 X-42.4365 Y26.5882 
G01 X-42.4399 Y26.5860 
G01 X-42.5151 Y26.5557 
G01 X-42.5902 Y26.5246 
G01 X-42.5942 Y26.5238 
G01 X-42.5980 Y26.5223 
G01 X-42.6777 Y26.5072 
G01 X-42.7573 Y26.4913 
G01 X-42.7614 Y26.4913 
G01 X-42.7654 Y26.4906 
G01 X-42.8466 Y26.4913 
G01 X-42.9277 Y26.4913 
G01 X-42.9317 Y26.4921 
G01 X-42.9358 Y26.4922 
G01 X-43.0153 Y26.5088 
G01 X-43.0948 Y26.5246 
G01 X-43.0986 Y26.5261 
G01 X-43.1026 Y26.5270 
G01 X-43.1772 Y26.5587 
G01 X-43.2522 Y26.5898 
G01 X-43.2556 Y26.5921 
G01 X-43.2594 Y26.5937 
G01 X-43.3263 Y26.6393 
G01 X-43.3939 Y26.6845 
G01 X-43.3968 Y26.6873 
G01 X-43.4002 Y26.6896 
G01 X-43.4569 Y26.7475 
G01 X-43.5144 Y26.8049 
G01 X-43.5166 Y26.8083 
G01 X-43.5195 Y26.8113 
G01 X-43.5639 Y26.8790 
G01 X-43.6090 Y26.9466 
G01 X-43.6106 Y26.9504 
G01 X-43.6128 Y26.9538 
G01 X-43.6431 Y27.0289 
G01 X-43.6742 Y27.1040 
G01 X-43.6750 Y27.1080 
G01 X-43.6766 Y27.1118 
G01 X-43.6917 Y27.1915 
G01 X-43.7075 Y27.2711 
G01 X-43.7075 Y27.2752 
G01 X-43.7082 Y27.2792 
G01 X-43.7075 Y27.3604 
G01 X-43.7075 Y27.4415 
G01 X-43.7067 Y27.4455 
G01 X-43.6812 Y30.1664 
G01 X-43.6820 Y30.1709 
G01 X-43.6804 Y30.2516 
G01 X-43.6804 Y30.2584 
G01 X-43.6803 Y30.3329 
G01 X-43.6796 Y30.3366 
G01 X-43.6796 Y30.3404 
G01 X-43.6772 Y30.3518 
G01 X-43.6772 Y30.5119 
G01 X-43.6780 Y30.5159 
G01 X-43.6772 Y30.5971 
G01 X-43.6772 Y30.6782 
G01 X-43.6764 Y30.6822 
G01 X-43.6748 Y30.8541 
G01 X-43.6751 Y30.8569 
G01 X-43.6740 Y30.9413 
G01 X-43.6309 Y35.6448 
G01 X-43.6309 Y35.7261 
G01 X-43.6301 Y35.7300 
G01 X-43.6301 Y35.7340 
G01 X-43.6135 Y35.8135 
G01 X-43.5976 Y35.8932 
G01 X-43.5961 Y35.8969 
G01 X-43.5953 Y35.9008 
G01 X-43.5635 Y35.9757 
G01 X-43.5324 Y36.0506 
G01 X-43.5302 Y36.0540 
G01 X-43.5286 Y36.0577 
G01 X-43.4829 Y36.1248 
G01 X-43.4378 Y36.1923 
G01 X-43.4349 Y36.1951 
G01 X-43.4327 Y36.1985 
G00 Z2.5400  
G00 X-42.9612 Y25.8426 
G01 Z-0.1000 F127   
G01 X-42.8426 Y25.9612 F127   
G01 X-42.7032 Y26.0543 
G01 X-42.5483 Y26.1185 
G01 X-42.3838 Y26.1512 
G01 X-42.2162 Y26.1512 
G01 X-42.0517 Y26.1185 
G01 X-41.8968 Y26.0543 
G01 X-41.7574 Y25.9612 
G01 X-41.6388 Y25.8426 
G01 X-41.5457 Y25.7032 
G01 X-41.4815 Y25.5483 
G01 X-41.4488 Y25.3838 
G01 X-41.4488 Y25.2162 
G01 X-41.4815 Y25.0517 
G01 X-41.5457 Y24.8968 
G01 X-41.6388 Y24.7574 
G01 X-41.7574 Y24.6388 
G01 X-41.8968 Y24.5457 
G01 X-42.0517 Y24.4815 
G01 X-42.2162 Y24.4488 
G01 X-42.3838 Y24.4488 
G01 X-42.4108 Y24.4542 
G01 X-43.2214 Y23.7059 
G01 X-43.2645 Y23.6628 
G01 X-43.2741 Y23.6572 
G01 X-43.2822 Y23.6497 
G01 X-43.3363 Y23.6213 
G01 X-43.3891 Y23.5908 
G01 X-43.3998 Y23.5880 
G01 X-43.4096 Y23.5828 
G01 X-43.4691 Y23.5694 
G01 X-43.5281 Y23.5536 
G01 X-43.5392 Y23.5536 
G01 X-43.5500 Y23.5512 
G01 X-43.6109 Y23.5536 
G01 X-49.9882 Y23.5536 
G01 X-50.0483 Y23.5510 
G01 X-50.0600 Y23.5536 
G01 X-50.0719 Y23.5536 
G01 X-50.1300 Y23.5692 
G01 X-50.1888 Y23.5822 
G01 X-50.1994 Y23.5877 
G01 X-50.2109 Y23.5908 
G01 X-50.2630 Y23.6209 
G01 X-50.3163 Y23.6487 
G01 X-50.3251 Y23.6568 
G01 X-50.3355 Y23.6628 
G01 X-50.3780 Y23.7053 
G01 X-50.4224 Y23.7460 
G01 X-50.4288 Y23.7560 
G01 X-50.4372 Y23.7645 
G01 X-50.4673 Y23.8166 
G01 X-50.8092 Y24.3538 
G01 X-50.9483 Y24.3815 
G01 X-51.1032 Y24.4457 
G01 X-51.2426 Y24.5388 
G01 X-51.3612 Y24.6574 
G01 X-51.4543 Y24.7968 
G01 X-51.5185 Y24.9517 
G01 X-51.5512 Y25.1162 
G01 X-51.5512 Y25.2838 
G01 X-51.5185 Y25.4483 
G01 X-51.4543 Y25.6032 
G01 X-51.3612 Y25.7426 
G01 X-51.2426 Y25.8612 
G01 X-51.1032 Y25.9543 
G01 X-50.9483 Y26.0185 
G01 X-50.7838 Y26.0512 
G01 X-50.6162 Y26.0512 
G01 X-50.4517 Y26.0185 
G01 X-50.2968 Y25.9543 
G01 X-50.1574 Y25.8612 
G01 X-50.0388 Y25.7426 
G01 X-49.9457 Y25.6032 
G01 X-49.8815 Y25.4483 
G01 X-49.8488 Y25.2838 
G01 X-49.8488 Y25.1162 
G01 X-49.8815 Y24.9517 
G01 X-49.8866 Y24.9395 
G01 X-49.7001 Y24.6464 
G01 X-43.8136 Y24.6464 
G01 X-43.1512 Y25.2579 
G01 X-43.1512 Y25.3838 
G01 X-43.1185 Y25.5483 
G01 X-43.0543 Y25.7032 
G01 X-42.9612 Y25.8426 
G00 Z2.5400  
G00 X-41.4426 Y26.0388 
G01 Z-0.1000 F127   
G01 X-41.5612 Y26.1574 F127   
G01 X-41.6543 Y26.2968 
G01 X-41.7185 Y26.4517 
G01 X-41.7512 Y26.6162 
G01 X-41.7512 Y26.7838 
G01 X-41.7185 Y26.9483 
G01 X-41.6543 Y27.1032 
G01 X-41.5612 Y27.2426 
G01 X-41.4426 Y27.3612 
G01 X-41.3032 Y27.4543 
G01 X-41.1483 Y27.5185 
G01 X-40.9838 Y27.5512 
G01 X-40.8162 Y27.5512 
G01 X-40.6517 Y27.5185 
G01 X-40.4968 Y27.4543 
G01 X-40.3574 Y27.3612 
G01 X-40.2388 Y27.2426 
G01 X-40.1457 Y27.1032 
G01 X-40.0815 Y26.9483 
G01 X-40.0488 Y26.7838 
G01 X-40.0488 Y26.6162 
G01 X-40.0815 Y26.4517 
G01 X-40.1457 Y26.2968 
G01 X-40.2388 Y26.1574 
G01 X-40.2536 Y26.1426 
G01 X-40.2536 Y23.4281 
G01 X-40.2908 Y23.2891 
G01 X-40.3628 Y23.1645 
G01 X-40.4645 Y23.0628 
G01 X-41.3645 Y22.1628 
G01 X-41.4891 Y22.0908 
G01 X-41.6281 Y22.0536 
G01 X-51.7790 Y22.0536 
G01 X-51.8298 Y22.0497 
G01 X-51.8507 Y22.0536 
G01 X-51.8719 Y22.0536 
G01 X-51.9211 Y22.0668 
G01 X-51.9712 Y22.0762 
G01 X-51.9904 Y22.0853 
G01 X-52.0109 Y22.0908 
G01 X-52.0550 Y22.1163 
G01 X-52.1010 Y22.1383 
G01 X-52.1171 Y22.1522 
G01 X-52.1355 Y22.1628 
G01 X-52.1715 Y22.1988 
G01 X-52.8171 Y22.7522 
G01 X-52.8355 Y22.7628 
G01 X-52.8715 Y22.7988 
G01 X-52.9102 Y22.8320 
G01 X-52.9222 Y22.8495 
G01 X-52.9372 Y22.8645 
G01 X-52.9627 Y22.9086 
G01 X-52.9915 Y22.9507 
G01 X-52.9985 Y22.9707 
G01 X-53.0092 Y22.9891 
G01 X-53.0223 Y23.0383 
G01 X-53.0393 Y23.0864 
G01 X-53.0409 Y23.1076 
G01 X-53.0464 Y23.1281 
G01 X-53.0464 Y23.1790 
G01 X-53.0503 Y23.2298 
G01 X-53.0464 Y23.2507 
G01 X-53.0464 Y26.1839 
G01 X-53.0497 Y26.2397 
G01 X-53.0464 Y26.2557 
G01 X-53.0464 Y26.2719 
G01 X-53.0319 Y26.3259 
G01 X-53.0207 Y26.3806 
G01 X-53.0134 Y26.3952 
G01 X-53.0092 Y26.4109 
G01 X-52.9812 Y26.4593 
G01 X-52.9562 Y26.5092 
G01 X-52.9454 Y26.5214 
G01 X-52.9372 Y26.5355 
G01 X-52.8977 Y26.5750 
G01 X-52.1454 Y27.4214 
G01 X-52.1372 Y27.4355 
G01 X-52.0977 Y27.4750 
G01 X-52.0606 Y27.5168 
G01 X-52.0470 Y27.5257 
G01 X-52.0355 Y27.5372 
G01 X-51.9871 Y27.5652 
G01 X-51.9404 Y27.5959 
G01 X-51.9250 Y27.6010 
G01 X-51.9109 Y27.6092 
G01 X-51.8570 Y27.6236 
G01 X-51.8039 Y27.6412 
G01 X-51.7876 Y27.6422 
G01 X-51.7719 Y27.6464 
G01 X-51.7161 Y27.6464 
G01 X-51.6603 Y27.6497 
G01 X-51.6443 Y27.6464 
G01 X-50.1281 Y27.6464 
G01 X-49.9891 Y27.6092 
G01 X-49.8645 Y27.5372 
G01 X-49.7628 Y27.4355 
G01 X-48.7691 Y26.4418 
G01 X-48.6517 Y26.4185 
G01 X-48.4968 Y26.3543 
G01 X-48.3574 Y26.2612 
G01 X-48.2388 Y26.1426 
G01 X-48.1457 Y26.0032 
G01 X-48.0815 Y25.8483 
G01 X-48.0488 Y25.6838 
G01 X-48.0488 Y25.5162 
G01 X-48.0815 Y25.3517 
G01 X-48.1457 Y25.1968 
G01 X-48.2388 Y25.0574 
G01 X-48.3574 Y24.9388 
G01 X-48.4968 Y24.8457 
G01 X-48.6517 Y24.7815 
G01 X-48.8162 Y24.7488 
G01 X-48.9838 Y24.7488 
G01 X-49.1483 Y24.7815 
G01 X-49.3032 Y24.8457 
G01 X-49.4426 Y24.9388 
G01 X-49.5612 Y25.0574 
G01 X-49.6543 Y25.1968 
G01 X-49.7185 Y25.3517 
G01 X-49.7512 Y25.5162 
G01 X-49.7512 Y25.6838 
G01 X-49.7189 Y25.8462 
G01 X-50.4263 Y26.5536 
G01 X-51.4546 Y26.5536 
G01 X-51.9536 Y25.9923 
G01 X-51.9536 Y23.4513 
G01 X-51.5979 Y23.1464 
G01 X-41.9263 Y23.1464 
G01 X-41.3464 Y23.7263 
G01 X-41.3464 Y25.9745 
G01 X-41.4426 Y26.0388 
G00 Z2.5400  
G00 X-41.6527 Y18.9279 
G01 Z-0.1000 F127   
G01 X-41.6084 Y18.8811 F127   
G01 X-40.8419 Y18.1146 
G01 X-40.6818 Y18.1400 
G01 X-40.5181 Y18.1400 
G01 X-40.3565 Y18.1144 
G01 X-40.2008 Y18.0638 
G01 X-40.0549 Y17.9895 
G01 X-39.9225 Y17.8933 
G01 X-39.8067 Y17.7775 
G01 X-39.7105 Y17.6451 
G01 X-39.6362 Y17.4992 
G01 X-39.5856 Y17.3435 
G01 X-39.5600 Y17.1819 
G01 X-39.5600 Y17.0181 
G01 X-39.5856 Y16.8565 
G01 X-39.6362 Y16.7008 
G01 X-39.7105 Y16.5549 
G01 X-39.8067 Y16.4225 
G01 X-39.9225 Y16.3067 
G01 X-40.0549 Y16.2105 
G01 X-40.2008 Y16.1362 
G01 X-40.3565 Y16.0856 
G01 X-40.5181 Y16.0600 
G01 X-40.6818 Y16.0600 
G01 X-40.8435 Y16.0856 
G01 X-40.9992 Y16.1362 
G01 X-41.1451 Y16.2105 
G01 X-41.2775 Y16.3067 
G01 X-41.3933 Y16.4225 
G01 X-41.4895 Y16.5549 
G01 X-41.5638 Y16.7008 
G01 X-41.6144 Y16.8565 
G01 X-41.6400 Y17.0181 
G01 X-41.6400 Y17.1819 
G01 X-41.6146 Y17.3419 
G01 X-42.2325 Y17.9597 
G01 X-52.1289 Y18.2296 
G01 X-52.2067 Y18.1225 
G01 X-52.3225 Y18.0067 
G01 X-52.4549 Y17.9105 
G01 X-52.6008 Y17.8362 
G01 X-52.7565 Y17.7856 
G01 X-52.9181 Y17.7600 
G01 X-53.0819 Y17.7600 
G01 X-53.2435 Y17.7856 
G01 X-53.3992 Y17.8362 
G01 X-53.5451 Y17.9105 
G01 X-53.6775 Y18.0067 
G01 X-53.7933 Y18.1225 
G01 X-53.8895 Y18.2549 
G01 X-53.9638 Y18.4008 
G01 X-54.0144 Y18.5565 
G01 X-54.0400 Y18.7181 
G01 X-54.0400 Y18.8819 
G01 X-54.0144 Y19.0435 
G01 X-53.9638 Y19.1992 
G01 X-53.8895 Y19.3451 
G01 X-53.7933 Y19.4775 
G01 X-53.6775 Y19.5933 
G01 X-53.5451 Y19.6895 
G01 X-53.3992 Y19.7638 
G01 X-53.2435 Y19.8144 
G01 X-53.0819 Y19.8400 
G01 X-52.9181 Y19.8400 
G01 X-52.7565 Y19.8144 
G01 X-52.6008 Y19.7638 
G01 X-52.4549 Y19.6895 
G01 X-52.3225 Y19.5933 
G01 X-52.2067 Y19.4775 
G01 X-52.1105 Y19.3451 
G01 X-52.0988 Y19.3220 
G01 X-41.9926 Y19.0464 
G01 X-41.9281 Y19.0464 
G01 X-41.9207 Y19.0444 
G01 X-41.9132 Y19.0442 
G01 X-41.8514 Y19.0258 
G01 X-41.7891 Y19.0092 
G01 X-41.7826 Y19.0054 
G01 X-41.7753 Y19.0032 
G01 X-41.7203 Y18.9694 
G01 X-41.6645 Y18.9372 
G01 X-41.6592 Y18.9319 
G01 X-41.6527 Y18.9279 
G00 Z2.5400  
G00 X-39.8399 Y16.2027 
G01 Z-0.1000 F127   
G01 X-39.7027 Y16.3399 F127   
G01 X-39.5458 Y16.4539 
G01 X-39.3730 Y16.5419 
G01 X-39.1885 Y16.6019 
G01 X-38.9970 Y16.6322 
G01 X-38.8030 Y16.6322 
G01 X-38.6115 Y16.6019 
G01 X-38.4270 Y16.5419 
G01 X-38.2542 Y16.4539 
G01 X-38.0973 Y16.3399 
G01 X-37.9601 Y16.2027 
G01 X-37.8461 Y16.0458 
G01 X-37.7581 Y15.8730 
G01 X-37.6981 Y15.6885 
G01 X-37.6678 Y15.4970 
G01 X-37.6678 Y15.3030 
G01 X-37.6981 Y15.1115 
G01 X-37.7581 Y14.9270 
G01 X-37.8461 Y14.7542 
G01 X-37.9601 Y14.5973 
G01 X-38.0973 Y14.4601 
G01 X-38.2542 Y14.3461 
G01 X-38.4270 Y14.2581 
G01 X-38.6115 Y14.1981 
G01 X-38.8030 Y14.1678 
G01 X-38.9970 Y14.1678 
G01 X-39.1786 Y14.1966 
G01 X-39.3490 Y13.9884 
G01 X-39.3628 Y13.9645 
G01 X-39.3944 Y13.9329 
G01 X-39.4227 Y13.8983 
G01 X-39.4450 Y13.8822 
G01 X-39.4645 Y13.8628 
G01 X-39.5032 Y13.8404 
G01 X-39.5395 Y13.8143 
G01 X-39.5653 Y13.8046 
G01 X-39.5891 Y13.7908 
G01 X-39.6322 Y13.7793 
G01 X-39.6741 Y13.7635 
G01 X-39.7015 Y13.7607 
G01 X-39.7281 Y13.7536 
G01 X-39.7727 Y13.7536 
G01 X-39.8172 Y13.7492 
G01 X-39.8444 Y13.7536 
G01 X-50.9737 Y13.7536 
G01 X-51.3880 Y13.3393 
G01 X-51.5217 Y12.4925 
G01 X-51.4067 Y12.3775 
G01 X-51.3105 Y12.2451 
G01 X-51.2362 Y12.0992 
G01 X-51.1856 Y11.9435 
G01 X-51.1600 Y11.7819 
G01 X-51.1600 Y11.6181 
G01 X-51.1856 Y11.4565 
G01 X-51.2362 Y11.3008 
G01 X-51.3105 Y11.1549 
G01 X-51.4067 Y11.0225 
G01 X-51.5225 Y10.9067 
G01 X-51.6549 Y10.8105 
G01 X-51.8008 Y10.7362 
G01 X-51.9565 Y10.6856 
G01 X-52.1181 Y10.6600 
G01 X-52.2818 Y10.6600 
G01 X-52.4435 Y10.6856 
G01 X-52.5992 Y10.7362 
G01 X-52.7451 Y10.8105 
G01 X-52.8775 Y10.9067 
G01 X-52.9933 Y11.0225 
G01 X-53.0895 Y11.1549 
G01 X-53.1638 Y11.3008 
G01 X-53.2144 Y11.4565 
G01 X-53.2400 Y11.6181 
G01 X-53.2400 Y11.7819 
G01 X-53.2144 Y11.9435 
G01 X-53.1638 Y12.0992 
G01 X-53.0895 Y12.2451 
G01 X-52.9933 Y12.3775 
G01 X-52.8775 Y12.4933 
G01 X-52.7451 Y12.5895 
G01 X-52.6011 Y12.6628 
G01 X-52.4464 Y13.6429 
G01 X-52.4464 Y13.6719 
G01 X-52.4352 Y13.7136 
G01 X-52.4285 Y13.7563 
G01 X-52.4167 Y13.7828 
G01 X-52.4092 Y13.8109 
G01 X-52.3876 Y13.8483 
G01 X-52.3700 Y13.8877 
G01 X-52.3518 Y13.9103 
G01 X-52.3372 Y13.9355 
G01 X-52.3067 Y13.9660 
G01 X-52.2796 Y13.9996 
G01 X-52.2560 Y14.0167 
G01 X-51.6372 Y14.6355 
G01 X-51.5355 Y14.7372 
G01 X-51.4109 Y14.8092 
G01 X-51.2719 Y14.8464 
G01 X-40.0589 Y14.8464 
G01 X-40.0231 Y14.8901 
G01 X-40.0419 Y14.9270 
G01 X-40.1019 Y15.1115 
G01 X-40.1322 Y15.3030 
G01 X-40.1322 Y15.4970 
G01 X-40.1019 Y15.6885 
G01 X-40.0419 Y15.8730 
G01 X-39.9539 Y16.0458 
G01 X-39.8399 Y16.2027 
G00 Z2.5400  
G00 X-61.5678 Y15.2799 
G01 Z-0.1000 F127   
G01 X-61.5891 Y15.2285 F127   
G01 X-61.6285 Y15.1891 
G01 X-61.6799 Y15.1678 
G01 X-63.9200 Y15.1678 
G01 X-63.9715 Y15.1891 
G01 X-64.0109 Y15.2285 
G01 X-64.0322 Y15.2799 
G01 X-64.0322 Y17.5200 
G01 X-64.0109 Y17.5715 
G01 X-63.9715 Y17.6109 
G01 X-63.9200 Y17.6322 
G01 X-63.8612 Y17.6322 
G01 X-64.7866 Y18.5575 
G01 X-64.9109 Y18.5908 
G01 X-65.0355 Y18.6628 
G01 X-65.1372 Y18.7645 
G01 X-65.2092 Y18.8891 
G01 X-65.2464 Y19.0281 
G01 X-65.2464 Y22.7019 
G01 X-65.2092 Y22.8409 
G01 X-65.1372 Y22.9655 
G01 X-65.0355 Y23.0672 
G01 X-63.5498 Y24.5529 
G01 X-63.5498 Y25.3073 
G01 X-62.9173 Y25.9398 
G01 X-62.0227 Y25.9398 
G01 X-61.3902 Y25.3073 
G01 X-61.3902 Y24.4127 
G01 X-62.0227 Y23.7802 
G01 X-62.7771 Y23.7802 
G01 X-64.1536 Y22.4037 
G01 X-64.1536 Y19.1826 
G01 X-62.6032 Y17.6322 
G01 X-61.6799 Y17.6322 
G01 X-61.6285 Y17.6109 
G01 X-61.5891 Y17.5715 
G01 X-61.5678 Y17.5200 
G01 X-61.5678 Y15.2799 
G00 Z2.5400  
G00 X-61.0098 Y21.8727 
G01 Z-0.1000 F127   
G01 X-61.0098 Y22.7673 F127   
G01 X-60.3773 Y23.3998 
G01 X-59.4827 Y23.3998 
G01 X-58.8502 Y22.7673 
G01 X-58.8502 Y21.8727 
G01 X-59.4827 Y21.2402 
G01 X-60.3773 Y21.2402 
G01 X-61.0098 Y21.8727 
G00 Z2.5400  
G00 X-61.0098 Y24.4127 
G01 Z-0.1000 F127   
G01 X-61.0098 Y25.3073 F127   
G01 X-60.3773 Y25.9398 
G01 X-59.4827 Y25.9398 
G01 X-58.8502 Y25.3073 
G01 X-58.8502 Y24.4127 
G01 X-59.4827 Y23.7802 
G01 X-60.3773 Y23.7802 
G01 X-61.0098 Y24.4127 
G00 Z2.5400  
G00 X-61.0098 Y26.9527 
G01 Z-0.1000 F127   
G01 X-61.0098 Y27.8473 F127   
G01 X-60.3773 Y28.4798 
G01 X-59.4827 Y28.4798 
G01 X-58.8502 Y27.8473 
G01 X-58.8502 Y26.9527 
G01 X-59.4827 Y26.3202 
G01 X-60.3773 Y26.3202 
G01 X-61.0098 Y26.9527 
G00 Z2.5400  
G00 X-61.3902 Y26.9527 
G01 Z-0.1000 F127   
G01 X-62.0227 Y26.3202 F127   
G01 X-62.9173 Y26.3202 
G01 X-63.4507 Y26.8536 
G01 X-65.4678 Y26.8536 
G01 X-65.4678 Y25.2799 
G01 X-65.4891 Y25.2285 
G01 X-65.5285 Y25.1891 
G01 X-65.5799 Y25.1678 
G01 X-67.8200 Y25.1678 
G01 X-67.8715 Y25.1891 
G01 X-67.9109 Y25.2285 
G01 X-67.9322 Y25.2799 
G01 X-67.9322 Y27.5200 
G01 X-67.9109 Y27.5715 
G01 X-67.8715 Y27.6109 
G01 X-67.8200 Y27.6322 
G01 X-66.2405 Y27.6322 
G01 X-66.1372 Y27.7355 
G01 X-66.0355 Y27.8372 
G01 X-65.9109 Y27.9092 
G01 X-65.7719 Y27.9464 
G01 X-63.4507 Y27.9464 
G01 X-62.9173 Y28.4798 
G01 X-62.0227 Y28.4798 
G01 X-61.3902 Y27.8473 
G01 X-61.3902 Y26.9527 
G00 Z2.5400  
G00 X-61.3902 Y29.4927 
G01 Z-0.1000 F127   
G01 X-62.0227 Y28.8602 F127   
G01 X-62.9173 Y28.8602 
G01 X-63.5498 Y29.4927 
G01 X-63.5498 Y30.3873 
G01 X-62.9173 Y31.0198 
G01 X-62.0227 Y31.0198 
G01 X-61.3902 Y30.3873 
G01 X-61.3902 Y29.4927 
G00 Z2.5400  
G00 X-61.0098 Y29.4927 
G01 Z-0.1000 F127   
G01 X-61.0098 Y30.3873 F127   
G01 X-60.3773 Y31.0198 
G01 X-59.4827 Y31.0198 
G01 X-59.0077 Y30.5448 
G01 X-56.8322 Y30.5448 
G01 X-56.8322 Y31.2200 
G01 X-56.8109 Y31.2715 
G01 X-56.7715 Y31.3109 
G01 X-56.7200 Y31.3322 
G01 X-54.4800 Y31.3322 
G01 X-54.4285 Y31.3109 
G01 X-54.3891 Y31.2715 
G01 X-54.3678 Y31.2200 
G01 X-54.3678 Y28.9799 
G01 X-54.3891 Y28.9285 
G01 X-54.4285 Y28.8891 
G01 X-54.4800 Y28.8678 
G01 X-56.7200 Y28.8678 
G01 X-56.7715 Y28.8891 
G01 X-56.8109 Y28.9285 
G01 X-56.8322 Y28.9799 
G01 X-56.8322 Y29.6552 
G01 X-58.8502 Y29.6552 
G01 X-58.8502 Y29.4927 
G01 X-59.4827 Y28.8602 
G01 X-60.3773 Y28.8602 
G01 X-61.0098 Y29.4927 
G00 Z2.5400  
G00 X-61.3902 Y32.0327 
G01 Z-0.1000 F127   
G01 X-62.0227 Y31.4002 F127   
G01 X-62.9173 Y31.4002 
G01 X-63.5498 Y32.0327 
G01 X-63.5498 Y32.7871 
G01 X-63.7355 Y32.9728 
G01 X-63.8372 Y33.0745 
G01 X-63.9092 Y33.1991 
G01 X-63.9464 Y33.3381 
G01 X-63.9464 Y35.3353 
G01 X-63.9481 Y35.3424 
G01 X-63.9464 Y35.4071 
G01 X-63.9464 Y35.4719 
G01 X-63.9445 Y35.4790 
G01 X-63.9443 Y35.4863 
G01 X-63.9259 Y35.5484 
G01 X-63.9092 Y35.6109 
G01 X-63.9055 Y35.6172 
G01 X-63.9034 Y35.6242 
G01 X-63.8696 Y35.6795 
G01 X-63.8372 Y35.7355 
G01 X-63.8321 Y35.7406 
G01 X-61.9696 Y38.7794 
G01 X-61.9372 Y38.8355 
G01 X-61.9321 Y38.8406 
G01 X-61.9283 Y38.8469 
G01 X-61.8813 Y38.8914 
G01 X-61.8355 Y38.9372 
G01 X-61.8292 Y38.9409 
G01 X-61.8239 Y38.9459 
G01 X-61.7669 Y38.9768 
G01 X-61.7109 Y39.0092 
G01 X-61.7039 Y39.0110 
G01 X-61.6975 Y39.0145 
G01 X-61.6345 Y39.0296 
G01 X-61.5719 Y39.0464 
G01 X-61.5646 Y39.0464 
G01 X-61.5576 Y39.0481 
G01 X-61.4929 Y39.0464 
G01 X-61.2400 Y39.0464 
G01 X-61.2400 Y39.4278 
G01 X-61.2187 Y39.4793 
G01 X-61.1793 Y39.5187 
G01 X-61.1278 Y39.5400 
G01 X-59.2722 Y39.5400 
G01 X-59.2207 Y39.5187 
G01 X-59.1813 Y39.4793 
G01 X-59.1600 Y39.4278 
G01 X-59.1600 Y37.5722 
G01 X-59.1813 Y37.5207 
G01 X-59.2207 Y37.4813 
G01 X-59.2722 Y37.4600 
G01 X-61.1278 Y37.4600 
G01 X-61.1793 Y37.4813 
G01 X-61.2187 Y37.5207 
G01 X-61.2400 Y37.5722 
G01 X-61.2400 Y37.8786 
G01 X-62.8536 Y35.2459 
G01 X-62.8536 Y33.6363 
G01 X-62.7771 Y33.5598 
G01 X-62.0227 Y33.5598 
G01 X-61.3902 Y32.9273 
G01 X-61.3902 Y32.0327 
G00 Z2.5400  
G00 X-57.1109 Y28.1715 
G01 Z-0.1000 F127   
G01 X-57.0715 Y28.2109 F127   
G01 X-57.0200 Y28.2322 
G01 X-54.7799 Y28.2322 
G01 X-54.7285 Y28.2109 
G01 X-54.6891 Y28.1715 
G01 X-54.6678 Y28.1200 
G01 X-54.6678 Y25.8800 
G01 X-54.6891 Y25.8285 
G01 X-54.7285 Y25.7891 
G01 X-54.7799 Y25.7678 
G01 X-57.0200 Y25.7678 
G01 X-57.0715 Y25.7891 
G01 X-57.1109 Y25.8285 
G01 X-57.1322 Y25.8800 
G01 X-57.1322 Y28.1200 
G01 X-57.1109 Y28.1715 
G00 Z2.5400  
G00 X-68.0792 Y23.4928 
G01 Z-0.1000 F127   
G01 X-68.1645 Y23.4358 F127   
G01 X-68.2580 Y23.3971 
G01 X-68.3219 Y23.3706 
G01 X-68.3583 Y23.3634 
G01 X-67.9734 Y23.3634 
G01 X-68.0318 Y23.4218 
G01 X-68.0792 Y23.4928 
G00 Z2.5400  
G00 X-5.1092 Y0.5051  
G01 Z-0.1000 F127   
G01 X-5.1540 Y0.4658  F127   
G01 X-5.1960 Y0.4237  
G01 X-5.2216 Y0.4065  
G01 X-5.2447 Y0.3862  
G01 X-5.2963 Y0.3565  
G01 X-5.3457 Y0.3233  
G01 X-5.3742 Y0.3115  
G01 X-5.4008 Y0.2961  
G01 X-5.4572 Y0.2770  
G01 X-5.5122 Y0.2541  
G01 X-5.5423 Y0.2481  
G01 X-5.5715 Y0.2382  
G01 X-5.6305 Y0.2304  
G01 X-5.6889 Y0.2187  
G01 X-5.7197 Y0.2187  
G01 X-5.7502 Y0.2147  
G01 X-5.8096 Y0.2185  
G01 X-61.2332 Y0.1422  
G01 X-61.2939 Y0.1382  
G01 X-61.3232 Y0.1421  
G01 X-61.3527 Y0.1420  
G01 X-61.4123 Y0.1538  
G01 X-61.4726 Y0.1618  
G01 X-61.5006 Y0.1712  
G01 X-61.5295 Y0.1770  
G01 X-61.5857 Y0.2001  
G01 X-61.6433 Y0.2197  
G01 X-61.6688 Y0.2344  
G01 X-61.6961 Y0.2457  
G01 X-61.7467 Y0.2794  
G01 X-61.7994 Y0.3098  
G01 X-61.8216 Y0.3293  
G01 X-61.8461 Y0.3456  
G01 X-61.8892 Y0.3886  
G01 X-61.9349 Y0.4286  
G01 X-61.9529 Y0.4521  
G01 X-61.9738 Y0.4729  
G01 X-62.0076 Y0.5234  
G01 X-62.0446 Y0.5716  
G01 X-62.0577 Y0.5981  
G01 X-62.0741 Y0.6226  
G01 X-62.0975 Y0.6788  
G01 X-62.1243 Y0.7333  
G01 X-62.1320 Y0.7618  
G01 X-62.1433 Y0.7891  
G01 X-62.1553 Y0.8487  
G01 X-62.1710 Y0.9074  
G01 X-62.1729 Y0.9368  
G01 X-62.1787 Y0.9658  
G01 X-62.1788 Y1.0266  
G01 X-62.1828 Y1.0872  
G01 X-62.1789 Y1.1165  
G01 X-62.1790 Y1.1460  
G01 X-62.1672 Y1.2056  
G01 X-62.1593 Y1.2659  
G01 X-62.1498 Y1.2939  
G01 X-62.1440 Y1.3228  
G01 X-62.1209 Y1.3790  
G01 X-62.1013 Y1.4366  
G01 X-62.0866 Y1.4622  
G01 X-62.0753 Y1.4895  
G01 X-62.0416 Y1.5401  
G01 X-61.7393 Y2.0636  
G01 X-61.5740 Y2.6806  
G01 X-61.5740 Y3.3194  
G01 X-61.7393 Y3.9364  
G01 X-62.0587 Y4.4896  
G01 X-62.5104 Y4.9413  
G01 X-63.0636 Y5.2607  
G01 X-63.6806 Y5.4260  
G01 X-64.3194 Y5.4260  
G01 X-64.9364 Y5.2607  
G01 X-65.4896 Y4.9413  
G01 X-65.9413 Y4.4896  
G01 X-66.0932 Y4.2265  
G01 X-66.1047 Y4.1986  
G01 X-66.1382 Y4.1486  
G01 X-66.1682 Y4.0965  
G01 X-66.1881 Y4.0738  
G01 X-66.2049 Y4.0487  
G01 X-66.2474 Y4.0062  
G01 X-66.2871 Y3.9610  
G01 X-66.3110 Y3.9426  
G01 X-66.3323 Y3.9213  
G01 X-66.3823 Y3.8879  
G01 X-66.4301 Y3.8512  
G01 X-66.4571 Y3.8379  
G01 X-66.4822 Y3.8212  
G01 X-66.5378 Y3.7981  
G01 X-66.5917 Y3.7715  
G01 X-66.6209 Y3.7637  
G01 X-66.6487 Y3.7522  
G01 X-66.7077 Y3.7404  
G01 X-66.7658 Y3.7249  
G01 X-66.7959 Y3.7229  
G01 X-66.8255 Y3.7170  
G01 X-66.8856 Y3.7170  
G01 X-66.9457 Y3.7131  
G01 X-66.9756 Y3.7170  
G01 X-67.0057 Y3.7170  
G01 X-67.0647 Y3.7288  
G01 X-67.1244 Y3.7366  
G01 X-67.1529 Y3.7463  
G01 X-67.1825 Y3.7522  
G01 X-67.2381 Y3.7752  
G01 X-67.2950 Y3.7945  
G01 X-67.3212 Y3.8096  
G01 X-67.3490 Y3.8212  
G01 X-67.3990 Y3.8546  
G01 X-67.4511 Y3.8847  
G01 X-67.4738 Y3.9045  
G01 X-67.4989 Y3.9213  
G01 X-67.5414 Y3.9638  
G01 X-67.5867 Y4.0035  
G01 X-67.6050 Y4.0274  
G01 X-67.6263 Y4.0487  
G01 X-67.6597 Y4.0988  
G01 X-67.6964 Y4.1465  
G01 X-67.7046 Y4.1632  
G01 X-67.7046 Y2.7179  
G01 X-67.6672 Y2.7465  
G01 X-67.6402 Y2.7599  
G01 X-67.6152 Y2.7766  
G01 X-67.5596 Y2.7996  
G01 X-67.5056 Y2.8263  
G01 X-67.4765 Y2.8341  
G01 X-67.4486 Y2.8456  
G01 X-67.3896 Y2.8573  
G01 X-67.3315 Y2.8729  
G01 X-67.3014 Y2.8749  
G01 X-67.2719 Y2.8807  
G01 X-67.2117 Y2.8807  
G01 X-67.1516 Y2.8847  
G01 X-67.1218 Y2.8808  
G01 X-67.0916 Y2.8808  
G01 X-67.0326 Y2.8690  
G01 X-66.9729 Y2.8612  
G01 X-66.9444 Y2.8515  
G01 X-66.9148 Y2.8456  
G01 X-66.8593 Y2.8226  
G01 X-66.8023 Y2.8032  
G01 X-66.7762 Y2.7882  
G01 X-66.7483 Y2.7766  
G01 X-66.6983 Y2.7432  
G01 X-66.6462 Y2.7131  
G01 X-66.6235 Y2.6932  
G01 X-66.5985 Y2.6765  
G01 X-66.5559 Y2.6339  
G01 X-66.5107 Y2.5943  
G01 X-66.4923 Y2.5703  
G01 X-66.4710 Y2.5490  
G01 X-66.4376 Y2.4990  
G01 X-66.4009 Y2.4513  
G01 X-66.3876 Y2.4242  
G01 X-66.3709 Y2.3992  
G01 X-66.3478 Y2.3436  
G01 X-66.3212 Y2.2896  
G01 X-66.3134 Y2.2605  
G01 X-66.3019 Y2.2327  
G01 X-66.2902 Y2.1737  
G01 X-66.2607 Y2.0636  
G01 X-65.9547 Y1.5336  
G01 X-65.9215 Y1.4842  
G01 X-65.9097 Y1.4557  
G01 X-65.8943 Y1.4291  
G01 X-65.8752 Y1.3727  
G01 X-65.8523 Y1.3177  
G01 X-65.8463 Y1.2876  
G01 X-65.8364 Y1.2584  
G01 X-65.8286 Y1.1994  
G01 X-65.8169 Y1.1410  
G01 X-65.8169 Y1.1102  
G01 X-65.8129 Y1.0797  
G01 X-65.8168 Y1.0203  
G01 X-65.8167 Y0.9608  
G01 X-65.8226 Y0.9306  
G01 X-65.8247 Y0.8999  
G01 X-65.8401 Y0.8423  
G01 X-65.8516 Y0.7839  
G01 X-65.8633 Y0.7555  
G01 X-65.8713 Y0.7258  
G01 X-65.8976 Y0.6724  
G01 X-65.9203 Y0.6173  
G01 X-65.9374 Y0.5917  
G01 X-65.9510 Y0.5641  
G01 X-65.9873 Y0.5169  
G01 X-66.0203 Y0.4673  
G01 X-66.0420 Y0.4455  
G01 X-66.0607 Y0.4211  
G01 X-66.1055 Y0.3819  
G01 X-66.1475 Y0.3397  
G01 X-66.1731 Y0.3226  
G01 X-66.1963 Y0.3023  
G01 X-66.2478 Y0.2725  
G01 X-66.2973 Y0.2394  
G01 X-66.3257 Y0.2275  
G01 X-66.3523 Y0.2122  
G01 X-66.4087 Y0.1930  
G01 X-66.4637 Y0.1702  
G01 X-66.4939 Y0.1641  
G01 X-66.5230 Y0.1542  
G01 X-66.5821 Y0.1464  
G01 X-66.6404 Y0.1348  
G01 X-66.6712 Y0.1347  
G01 X-66.7017 Y0.1307  
G01 X-66.7611 Y0.1346  
G01 X-71.2580 Y0.1284  
G01 X-71.3507 Y0.1282  
G01 X-71.4387 Y0.1456  
G01 X-71.5275 Y0.1630  
G01 X-71.6099 Y0.1970  
G01 X-71.6942 Y0.2317  
G01 X-71.7697 Y0.2820  
G01 X-71.8443 Y0.3316  
G01 X-71.9087 Y0.3958  
G01 X-71.9719 Y0.4588  
G01 X-72.0232 Y0.5352  
G01 X-72.0724 Y0.6084  
G01 X-72.1071 Y0.6919  
G01 X-72.1417 Y0.7748  
G01 X-72.1589 Y0.8607  
G01 X-72.1772 Y0.9515  
G01 X-72.1773 Y1.0384  
G01 X-72.1783 Y1.5674  
G01 X-72.1785 Y1.6580  
G01 X-72.1787 Y1.7468  
G01 X-72.1610 Y1.8364  
G01 X-72.1438 Y1.9236  
G01 X-72.1093 Y2.0074  
G01 X-72.0752 Y2.0903  
G01 X-72.0251 Y2.1655  
G01 X-71.9753 Y2.2403  
G01 X-71.9117 Y2.3042  
G01 X-71.8481 Y2.3680  
G01 X-71.7732 Y2.4183  
G01 X-71.7298 Y2.4474  
G01 X-73.0124 Y2.4474  
G01 X-73.0822 Y2.4763  
G01 X-73.1357 Y2.5298  
G01 X-73.1646 Y2.5996  
G01 X-73.1646 Y4.9612  
G01 X-73.1357 Y5.0310  
G01 X-73.0822 Y5.0845  
G01 X-73.0124 Y5.1134  
G01 X-71.7251 Y5.1134  
G01 X-71.8423 Y5.1917  
G01 X-71.9697 Y5.3191  
G01 X-72.0699 Y5.4690  
G01 X-72.1388 Y5.6355  
G01 X-72.1740 Y5.8123  
G01 X-72.1740 Y10.5877 
G01 X-72.1388 Y10.7645 
G01 X-72.0699 Y10.9310 
G01 X-71.9697 Y11.0809 
G01 X-71.8423 Y11.2083 
G01 X-71.7251 Y11.2866 
G01 X-73.0124 Y11.2866 
G01 X-73.0822 Y11.3155 
G01 X-73.1357 Y11.3690 
G01 X-73.1646 Y11.4388 
G01 X-73.1646 Y13.8004 
G01 X-73.1357 Y13.8702 
G01 X-73.0822 Y13.9237 
G01 X-73.0124 Y13.9526 
G01 X-71.7546 Y13.9526 
G01 X-71.7958 Y13.9801 
G01 X-71.8704 Y14.0298 
G01 X-71.9347 Y14.0938 
G01 X-71.9981 Y14.1570 
G01 X-72.0488 Y14.2325 
G01 X-72.0985 Y14.3066 
G01 X-72.1336 Y14.3909 
G01 X-72.1678 Y14.4730 
G01 X-72.1859 Y14.5630 
G01 X-72.2033 Y14.6497 
G01 X-72.2035 Y14.7415 
G01 X-72.2132 Y19.8674 
G01 X-72.2134 Y19.9583 
G01 X-72.2136 Y20.0468 
G01 X-72.1959 Y20.1366 
G01 X-72.1788 Y20.2236 
G01 X-72.1440 Y20.3080 
G01 X-72.1101 Y20.3903 
G01 X-72.0599 Y20.4657 
G01 X-72.0103 Y20.5403 
G01 X-71.9463 Y20.6046 
G01 X-71.8831 Y20.6680 
G01 X-71.8075 Y20.7187 
G01 X-71.7647 Y20.7474 
G01 X-73.1124 Y20.7474 
G01 X-73.1822 Y20.7763 
G01 X-73.2357 Y20.8298 
G01 X-73.2646 Y20.8996 
G01 X-73.2646 Y23.2612 
G01 X-73.2357 Y23.3310 
G01 X-73.1822 Y23.3845 
G01 X-73.1124 Y23.4134 
G01 X-71.7727 Y23.4134 
G01 X-71.8138 Y23.4409 
G01 X-71.8884 Y23.4906 
G01 X-71.9527 Y23.5546 
G01 X-72.0161 Y23.6178 
G01 X-72.0668 Y23.6933 
G01 X-72.1166 Y23.7674 
G01 X-72.1517 Y23.8517 
G01 X-72.1858 Y23.9338 
G01 X-72.2039 Y24.0238 
G01 X-72.2213 Y24.1105 
G01 X-72.2215 Y24.2023 
G01 X-72.2301 Y28.7066 
G01 X-72.2303 Y28.7975 
G01 X-72.2305 Y28.8860 
G01 X-72.2127 Y28.9760 
G01 X-72.1956 Y29.0628 
G01 X-72.1609 Y29.1471 
G01 X-72.1270 Y29.2295 
G01 X-72.0768 Y29.3049 
G01 X-72.0271 Y29.3795 
G01 X-71.9631 Y29.4438 
G01 X-71.8999 Y29.5072 
G01 X-71.8244 Y29.5579 
G01 X-71.7816 Y29.5866 
G01 X-73.1124 Y29.5866 
G01 X-73.1822 Y29.6155 
G01 X-73.2357 Y29.6690 
G01 X-73.2646 Y29.7388 
G01 X-73.2646 Y32.1004 
G01 X-73.2357 Y32.1702 
G01 X-73.1822 Y32.2237 
G01 X-73.1124 Y32.2526 
G01 X-71.7895 Y32.2526 
G01 X-71.8307 Y32.2801 
G01 X-71.9053 Y32.3298 
G01 X-71.9696 Y32.3938 
G01 X-72.0330 Y32.4570 
G01 X-72.0837 Y32.5325 
G01 X-72.1334 Y32.6066 
G01 X-72.1685 Y32.6909 
G01 X-72.2027 Y32.7730 
G01 X-72.2208 Y32.8630 
G01 X-72.2382 Y32.9497 
G01 X-72.2384 Y33.0415 
G01 X-72.2443 Y36.1674 
G01 X-72.2445 Y36.2583 
G01 X-72.2447 Y36.3468 
G01 X-72.2270 Y36.4368 
G01 X-72.2099 Y36.5236 
G01 X-72.1751 Y36.6080 
G01 X-72.1412 Y36.6903 
G01 X-72.0910 Y36.7657 
G01 X-72.0414 Y36.8403 
G01 X-71.9774 Y36.9046 
G01 X-71.9142 Y36.9680 
G01 X-71.8386 Y37.0187 
G01 X-71.7958 Y37.0474 
G01 X-73.0124 Y37.0474 
G01 X-73.0822 Y37.0763 
G01 X-73.1357 Y37.1298 
G01 X-73.1646 Y37.1996 
G01 X-73.1646 Y39.5612 
G01 X-73.1357 Y39.6310 
G01 X-73.0822 Y39.6845 
G01 X-73.0124 Y39.7134 
G01 X-71.7251 Y39.7134 
G01 X-71.8423 Y39.7917 
G01 X-71.9697 Y39.9191 
G01 X-72.0699 Y40.0690 
G01 X-72.1388 Y40.2355 
G01 X-72.1740 Y40.4123 
G01 X-72.1740 Y45.1877 
G01 X-72.1388 Y45.3645 
G01 X-72.0699 Y45.5310 
G01 X-71.9697 Y45.6809 
G01 X-71.8423 Y45.8083 
G01 X-71.7251 Y45.8866 
G01 X-73.0124 Y45.8866 
G01 X-73.0822 Y45.9155 
G01 X-73.1357 Y45.9690 
G01 X-73.1646 Y46.0388 
G01 X-73.1646 Y48.4004 
G01 X-73.1357 Y48.4702 
G01 X-73.0822 Y48.5237 
G01 X-73.0124 Y48.5526 
G01 X-71.8206 Y48.5526 
G01 X-71.8616 Y48.5800 
G01 X-71.9364 Y48.6298 
G01 X-72.0007 Y48.6938 
G01 X-72.0641 Y48.7570 
G01 X-72.1149 Y48.8327 
G01 X-72.1645 Y48.9066 
G01 X-72.1995 Y48.9905 
G01 X-72.2338 Y49.0730 
G01 X-72.2516 Y49.1615 
G01 X-72.2693 Y49.2497 
G01 X-72.2695 Y49.3401 
G01 X-72.2704 Y49.8280 
G01 X-72.2706 Y49.9186 
G01 X-72.2708 Y50.0074 
G01 X-72.2531 Y50.0970 
G01 X-72.2359 Y50.1842 
G01 X-72.2014 Y50.2680 
G01 X-72.1673 Y50.3509 
G01 X-72.1172 Y50.4261 
G01 X-72.0674 Y50.5009 
G01 X-72.0034 Y50.5652 
G01 X-71.9402 Y50.6286 
G01 X-71.8645 Y50.6794 
G01 X-71.7906 Y50.7290 
G01 X-71.7067 Y50.7639 
G01 X-71.6242 Y50.7983 
G01 X-71.5357 Y50.8161 
G01 X-71.4475 Y50.8338 
G01 X-71.3565 Y50.8340 
G01 X-71.2672 Y50.8342 
G01 X-66.3509 Y50.8340 
G01 X-66.1741 Y50.7988 
G01 X-66.0076 Y50.7299 
G01 X-65.8577 Y50.6297 
G01 X-65.7303 Y50.5023 
G01 X-65.6301 Y50.3524 
G01 X-65.5612 Y50.1859 
G01 X-65.5260 Y50.0091 
G01 X-65.5260 Y49.2806 
G01 X-65.3607 Y48.6636 
G01 X-65.0413 Y48.1104 
G01 X-64.5896 Y47.6587 
G01 X-64.0364 Y47.3393 
G01 X-63.4194 Y47.1740 
G01 X-62.7806 Y47.1740 
G01 X-62.1636 Y47.3393 
G01 X-61.6104 Y47.6587 
G01 X-61.1587 Y48.1104 
G01 X-60.8393 Y48.6636 
G01 X-60.6740 Y49.2806 
G01 X-60.6740 Y50.0091 
G01 X-60.6388 Y50.1859 
G01 X-60.5699 Y50.3524 
G01 X-60.4697 Y50.5023 
G01 X-60.3423 Y50.6297 
G01 X-60.1924 Y50.7299 
G01 X-60.0259 Y50.7988 
G01 X-59.8491 Y50.8340 
G01 X-24.3045 Y50.8340 
G01 X-24.2154 Y50.8340 
G01 X-24.1243 Y50.8340 
G01 X-24.0974 Y50.8287 
G01 X-23.9475 Y50.7988 
G01 X-23.7810 Y50.7299 
G01 X-23.6815 Y50.6634 
G01 X-23.6311 Y50.6297 
G01 X-23.5684 Y50.5670 
G01 X-23.5037 Y50.5023 
G01 X-23.4035 Y50.3524 
G01 X-23.3655 Y50.2606 
G01 X-23.3345 Y50.1859 
G01 X-23.2994 Y50.0091 
G01 X-23.2994 Y49.9200 
G01 X-23.2994 Y49.8289 
G01 X-23.3047 Y49.8020 
G01 X-23.3345 Y49.6521 
G01 X-23.3394 Y49.6404 
G01 X-23.3394 Y49.0996 
G01 X-23.0698 Y48.4486 
G01 X-23.0346 Y48.2719 
G01 X-23.0346 Y47.8477 
G01 X-23.0698 Y47.6709 
G01 X-23.1387 Y47.5044 
G01 X-23.2389 Y47.3545 
G01 X-23.2557 Y47.3377 
G01 X-23.3196 Y47.1835 
G01 X-23.3196 Y45.2165 
G01 X-23.2557 Y45.0623 
G01 X-23.1377 Y44.9443 
G01 X-22.9835 Y44.8804 
G01 X-21.0165 Y44.8804 
G01 X-20.8623 Y44.9443 
G01 X-20.7443 Y45.0623 
G01 X-20.6804 Y45.2165 
G01 X-20.6804 Y47.1803 
G01 X-20.6828 Y47.1892 
G01 X-20.6943 Y47.2170 
G01 X-20.7060 Y47.2761 
G01 X-20.7216 Y47.3342 
G01 X-20.7236 Y47.3642 
G01 X-20.7295 Y47.3938 
G01 X-20.7295 Y47.4540 
G01 X-20.7334 Y47.5140 
G01 X-20.7295 Y47.5439 
G01 X-20.7295 Y47.5741 
G01 X-20.7177 Y47.6331 
G01 X-20.7099 Y47.6927 
G01 X-20.7002 Y47.7213 
G01 X-20.6943 Y47.7508 
G01 X-20.6713 Y47.8064 
G01 X-20.6519 Y47.8634 
G01 X-20.6369 Y47.8895 
G01 X-20.6253 Y47.9173 
G01 X-20.5919 Y47.9674 
G01 X-20.5618 Y48.0195 
G01 X-20.5419 Y48.0422 
G01 X-20.5252 Y48.0672 
G01 X-20.4827 Y48.1098 
G01 X-20.4430 Y48.1550 
G01 X-20.4191 Y48.1734 
G01 X-20.3978 Y48.1947 
G01 X-20.3550 Y48.2232 
G01 X-20.3550 Y48.7073 
G01 X-20.4063 Y48.7779 
G01 X-20.4870 Y48.9363 
G01 X-20.5420 Y49.1054 
G01 X-20.5698 Y49.2811 
G01 X-20.5698 Y49.4589 
G01 X-20.5420 Y49.6346 
G01 X-20.4870 Y49.8037 
G01 X-20.4063 Y49.9621 
G01 X-20.3018 Y50.1060 
G01 X-20.1760 Y50.2318 
G01 X-20.0321 Y50.3363 
G01 X-19.8737 Y50.4170 
G01 X-19.7046 Y50.4720 
G01 X-19.5289 Y50.4998 
G01 X-19.3511 Y50.4998 
G01 X-19.1754 Y50.4720 
G01 X-19.0063 Y50.4170 
G01 X-18.8479 Y50.3363 
G01 X-18.7040 Y50.2318 
G01 X-18.5782 Y50.1060 
G01 X-18.4737 Y49.9621 
G01 X-18.3930 Y49.8037 
G01 X-18.3380 Y49.6346 
G01 X-18.3102 Y49.4589 
G01 X-18.3102 Y49.2811 
G01 X-18.3380 Y49.1054 
G01 X-18.3930 Y48.9363 
G01 X-18.4737 Y48.7779 
G01 X-18.5250 Y48.7073 
G01 X-18.5250 Y48.4035 
G01 X-18.5185 Y48.4008 
G01 X-18.4616 Y48.3815 
G01 X-18.4354 Y48.3664 
G01 X-18.4076 Y48.3549 
G01 X-18.3576 Y48.3214 
G01 X-18.3055 Y48.2914 
G01 X-18.2828 Y48.2715 
G01 X-18.2577 Y48.2547 
G01 X-18.2152 Y48.2122 
G01 X-18.1700 Y48.1725 
G01 X-18.1516 Y48.1486 
G01 X-18.0775 Y48.0745 
G01 X-17.9233 Y48.0106 
G01 X-16.3445 Y48.0106 
G01 X-16.1677 Y47.9754 
G01 X-16.0012 Y47.9065 
G01 X-15.8513 Y47.8063 
G01 X-15.7239 Y47.6789 
G01 X-15.6237 Y47.5290 
G01 X-15.5548 Y47.3625 
G01 X-15.5196 Y47.1857 
G01 X-15.5196 Y47.1165 
G01 X-15.4557 Y46.9623 
G01 X-15.3377 Y46.8443 
G01 X-15.1835 Y46.7804 
G01 X-13.2165 Y46.7804 
G01 X-13.0623 Y46.8443 
G01 X-12.9443 Y46.9623 
G01 X-12.8804 Y47.1165 
G01 X-12.8804 Y49.0835 
G01 X-12.9443 Y49.2377 
G01 X-13.0423 Y49.3357 
G01 X-13.1425 Y49.4856 
G01 X-13.2114 Y49.6521 
G01 X-13.2252 Y49.7214 
G01 X-13.2466 Y49.8289 
G01 X-13.2466 Y50.0091 
G01 X-13.2294 Y50.0954 
G01 X-13.2114 Y50.1859 
G01 X-13.1425 Y50.3524 
G01 X-13.1101 Y50.4008 
G01 X-13.0423 Y50.5023 
G01 X-12.9149 Y50.6297 
G01 X-12.7650 Y50.7299 
G01 X-12.5985 Y50.7988 
G01 X-12.5292 Y50.8126 
G01 X-12.4217 Y50.8340 
G01 X-2.0509 Y50.8340 
G01 X-1.8741 Y50.7988 
G01 X-1.7076 Y50.7299 
G01 X-1.5577 Y50.6297 
G01 X-1.4303 Y50.5023 
G01 X-1.3301 Y50.3524 
G01 X-1.2612 Y50.1859 
G01 X-1.2260 Y50.0091 
G01 X-1.2260 Y49.2649 
G01 X-1.2612 Y49.0881 
G01 X-1.3301 Y48.9216 
G01 X-1.3957 Y48.8235 
G01 X-1.4303 Y48.7718 
G01 X-1.5577 Y48.6443 
G01 X-1.7076 Y48.5442 
G01 X-1.8031 Y48.5046 
G01 X-1.8741 Y48.4752 
G01 X-2.0509 Y48.4400 
G01 X-2.2311 Y48.4400 
G01 X-2.4079 Y48.4752 
G01 X-2.5744 Y48.5442 
G01 X-2.6726 Y48.6098 
G01 X-2.7243 Y48.6443 
G01 X-2.8517 Y48.7718 
G01 X-2.8891 Y48.8091 
G01 X-4.1309 Y48.8091 
G01 X-4.2437 Y48.6963 
G01 X-4.3712 Y48.5689 
G01 X-4.5210 Y48.4687 
G01 X-4.6876 Y48.3998 
G01 X-4.8643 Y48.3646 
G01 X-6.0098 Y48.3646 
G01 X-6.3974 Y48.2040 
G01 X-6.8865 Y47.7150 
G01 X-8.5940 Y46.0074 
G01 X-8.7546 Y45.6198 
G01 X-8.7546 Y39.7902 
G01 X-8.5940 Y39.4026 
G01 X-8.2212 Y39.0298 
G01 X-6.7987 Y37.6073 
G01 X-6.6986 Y37.4574 
G01 X-6.6296 Y37.2909 
G01 X-6.5944 Y37.1141 
G01 X-6.5944 Y36.9339 
G01 X-6.6296 Y36.7571 
G01 X-6.6986 Y36.5906 
G01 X-6.7472 Y36.5178 
G01 X-6.7472 Y35.2398 
G01 X-5.8616 Y34.3542 
G01 X-4.6092 Y34.3542 
G01 X-3.7236 Y35.2398 
G01 X-3.7236 Y36.4922 
G01 X-4.0465 Y36.8151 
G01 X-4.1467 Y36.9650 
G01 X-4.2156 Y37.1315 
G01 X-4.2508 Y37.3083 
G01 X-4.2508 Y37.8152 
G01 X-4.4113 Y38.2028 
G01 X-4.9004 Y38.6919 
G01 X-6.4411 Y40.2326 
G01 X-6.5413 Y40.3824 
G01 X-6.6102 Y40.5489 
G01 X-6.6454 Y40.7257 
G01 X-6.6454 Y44.6843 
G01 X-6.6102 Y44.8611 
G01 X-6.5413 Y45.0276 
G01 X-6.4411 Y45.1774 
G01 X-6.3137 Y45.3049 
G01 X-5.5674 Y46.0511 
G01 X-5.4176 Y46.1513 
G01 X-5.2511 Y46.2202 
G01 X-5.0743 Y46.2554 
G01 X-4.8643 Y46.2554 
G01 X-4.7454 Y46.2317 
G01 X-4.6876 Y46.2202 
G01 X-4.6452 Y46.2027 
G01 X-4.5210 Y46.1513 
G01 X-4.5170 Y46.1486 
G01 X-4.3712 Y46.0511 
G01 X-4.3673 Y46.0472 
G01 X-4.2493 Y45.9293 
G01 X-4.1258 Y45.8057 
G01 X-4.1219 Y45.8018 
G01 X-4.0629 Y45.7136 
G01 X-4.0217 Y45.6520 
G01 X-3.9989 Y45.5968 
G01 X-3.9528 Y45.4855 
G01 X-3.9460 Y45.4513 
G01 X-3.9176 Y45.3087 
G01 X-3.9176 Y45.1284 
G01 X-3.9406 Y45.0128 
G01 X-3.9528 Y44.9517 
G01 X-3.9687 Y44.9133 
G01 X-3.9744 Y44.8995 
G01 X-2.9842 Y44.8995 
G01 X-2.2405 Y44.1558 
G01 X-2.2405 Y43.1042 
G01 X-2.3693 Y42.9754 
G01 X-2.2311 Y43.0028 
G01 X-2.0509 Y43.0028 
G01 X-1.8741 Y42.9677 
G01 X-1.8267 Y42.9481 
G01 X-1.7076 Y42.8987 
G01 X-1.5577 Y42.7986 
G01 X-1.4303 Y42.6711 
G01 X-1.3984 Y42.6234 
G01 X-1.3301 Y42.5213 
G01 X-1.2612 Y42.3547 
G01 X-1.2260 Y42.1780 
G01 X-1.2260 Y6.2886  
G01 X-1.2221 Y6.2588  
G01 X-1.2260 Y6.1987  
G01 X-1.2260 Y6.1386  
G01 X-1.2319 Y6.1090  
G01 X-1.2338 Y6.0789  
G01 X-1.2494 Y6.0208  
G01 X-1.2612 Y5.9618  
G01 X-1.2727 Y5.9339  
G01 X-1.2805 Y5.9048  
G01 X-1.3071 Y5.8509  
G01 X-1.3301 Y5.7953  
G01 X-1.3469 Y5.7702  
G01 X-1.3602 Y5.7432  
G01 X-1.3968 Y5.6954  
G01 X-1.4303 Y5.6454  
G01 X-1.4516 Y5.6241  
G01 X-1.4699 Y5.6002  
G01 X-1.5152 Y5.5605  
G01 X-1.5577 Y5.5180  
G01 X-1.5828 Y5.5012  
G01 X-1.6055 Y5.4813  
G01 X-1.6576 Y5.4512  
G01 X-1.7076 Y5.4178  
G01 X-1.7354 Y5.4063  
G01 X-1.7615 Y5.3912  
G01 X-1.8185 Y5.3719  
G01 X-1.8741 Y5.3488  
G01 X-1.9037 Y5.3430  
G01 X-1.9322 Y5.3333  
G01 X-1.9919 Y5.3254  
G01 X-2.0509 Y5.3137  
G01 X-2.0810 Y5.3137  
G01 X-2.1109 Y5.3098  
G01 X-2.1709 Y5.3137  
G01 X-2.2311 Y5.3137  
G01 X-2.2607 Y5.3196  
G01 X-2.2908 Y5.3215  
G01 X-2.3489 Y5.3371  
G01 X-2.4079 Y5.3488  
G01 X-2.4357 Y5.3604  
G01 X-2.6806 Y5.4260  
G01 X-3.3194 Y5.4260  
G01 X-3.9364 Y5.2607  
G01 X-4.4896 Y4.9413  
G01 X-4.9413 Y4.4896  
G01 X-5.2607 Y3.9364  
G01 X-5.4260 Y3.3194  
G01 X-5.4260 Y2.6806  
G01 X-5.2607 Y2.0636  
G01 X-5.0032 Y1.6176  
G01 X-4.9700 Y1.5681  
G01 X-4.9582 Y1.5397  
G01 X-4.9428 Y1.5130  
G01 X-4.9237 Y1.4567  
G01 X-4.9008 Y1.4017  
G01 X-4.8948 Y1.3715  
G01 X-4.8849 Y1.3424  
G01 X-4.8771 Y1.2833  
G01 X-4.8654 Y1.2250  
G01 X-4.8654 Y1.1942  
G01 X-4.8613 Y1.1637  
G01 X-4.8652 Y1.1043  
G01 X-4.8652 Y1.0447  
G01 X-4.8711 Y1.0145  
G01 X-4.8731 Y0.9838  
G01 X-4.8885 Y0.9263  
G01 X-4.9001 Y0.8679  
G01 X-4.9118 Y0.8395  
G01 X-4.9198 Y0.8097  
G01 X-4.9461 Y0.7563  
G01 X-4.9688 Y0.7013  
G01 X-4.9859 Y0.6757  
G01 X-4.9995 Y0.6481  
G01 X-5.0357 Y0.6008  
G01 X-5.0687 Y0.5513  
G01 X-5.0905 Y0.5295  
G01 X-5.1092 Y0.5051  
G00 Z2.5400  
G00 X-5.2902 Y8.9542  
G01 Z-0.1000 F127   
G01 X-4.6092 Y8.9542  F127   
G01 X-3.7236 Y9.8398  
G01 X-3.7236 Y11.0922 
G01 X-4.6092 Y11.9778 
G01 X-5.8616 Y11.9778 
G01 X-6.7472 Y11.0922 
G01 X-6.7472 Y10.4112 
G01 X-6.7824 Y10.2344 
G01 X-6.8513 Y10.0679 
G01 X-6.8533 Y10.0649 
G01 X-6.9515 Y9.9181  
G01 X-10.2393 Y6.6303  
G01 X-10.3891 Y6.5301  
G01 X-10.5556 Y6.4612  
G01 X-10.7324 Y6.4260  
G01 X-10.9127 Y6.4260  
G01 X-28.2221 Y6.4260  
G01 X-28.3989 Y6.4612  
G01 X-28.5654 Y6.5301  
G01 X-28.7153 Y6.6303  
