(.../Documents/eagle/pcb-gcode/pcb-gcode.ulp)
(Copyright 2005 - 2012 by John Johnson)
(See readme.txt for licensing terms.)
(This file generated from the board:)
(.../GPS-Disciplined-Oscillator-GPSOXCO-/GPSPLLOCXO.brd)
(Current profile is .../eagle/pcb-gcode/profiles/mach.pp  )
(This file generated 13/08/2014 11:47 pm)
(Settings from pcb-machine.h)
(spindle on time = 2.0000)
(spindle speed = 15000.0000)
(milling depth = -2.0000)
(tool change at 0.0000  0.0000  25.4000 )
(feed rate xy = F127   )
(feed rate z  = F127   )
(Z Axis Settings)
(  High     Up        Down     Drill)
(30.0000 	2.5400  	-0.1000 	-1.6500 )
(Settings from pcb-defaults.h)
(isolate min = 0.1000)
(isolate max = 0.4000)
(isolate step = 0.0500)
(Generated top outlines, top drill, bottom outlines, )
(Unit of measure: mm)
(Metric Mode)
G21
(Absolute Coordinates)
G90
S15000
G00 Z30.0000 
G00 X0.0000  Y0.0000  
M03
G04 P2.000000
G00 Z2.5400  
G00 X-0.4000 Y-1.4000 
G01 Z-2.0000 F127   
G01 X73.7000 Y-1.4000 F127   
G01 X73.9000 Y52.4000 
G01 X0.3000  Y52.5000 
G00 Z2.5400  
G00 X-0.3000 Y52.3000 
G01 Z-2.0000 F127   
G01 X-0.4000 Y-1.4000 F127   
G00 Z30.0000 
M05
M02
