(.../Documents/eagle/pcb-gcode/pcb-gcode.ulp)
(Copyright 2005 - 2012 by John Johnson)
(See readme.txt for licensing terms.)
(This file generated from the board:)
(.../GPS-Disciplined-Oscillator-GPSOXCO-/GPSPLLOCXO.brd)
(Current profile is .../eagle/pcb-gcode/profiles/mach.pp  )
(This file generated 13/08/2014 11:45 pm)
(Settings from pcb-machine.h)
(spindle on time = 2.0000)
(  Tool Size)
(0.0800  )
(spindle speed = 30000.0000)
(tool change at 0.0000  0.0000  25.4000 )
(feed rate xy = F127   )
(feed rate z  = F127   )
(Z Axis Settings)
(  High     Up        Down     Drill)
(30.0000 	2.5400  	-0.1000 	-1.6500 )
(Settings from pcb-defaults.h)
(isolate min = 0.1000)
(isolate max = 0.4000)
(isolate step = 0.0500)
(Generated top outlines, top drill, bottom outlines, )
(Unit of measure: mm)
(Metric Mode)
G21
(Absolute Coordinates)
G90
S30000
G00 Z30.0000 
G00 X0.0000  Y0.0000  
M03
G04 P2.000000
G00 Z2.5400  
G00 X5.1459  Y0.5394  
G01 Z-0.1000 F127   
G01 X5.1282  Y0.5625  F127   
G01 X5.1076  Y0.5831  
G01 X5.0764  Y0.6300  
G01 X5.0422  Y0.6746  
G01 X5.0293  Y0.7007  
G01 X5.0132  Y0.7249  
G01 X4.9917  Y0.7769  
G01 X4.9668  Y0.8274  
G01 X4.9593  Y0.8555  
G01 X4.9482  Y0.8824  
G01 X4.9373  Y0.9376  
G01 X4.9227  Y0.9920  
G01 X4.9208  Y1.0210  
G01 X4.9152  Y1.0496  
G01 X4.9152  Y1.1059  
G01 X4.9116  Y1.1620  
G01 X4.9154  Y1.1909  
G01 X4.9154  Y1.2200  
G01 X4.9265  Y1.2752  
G01 X4.9338  Y1.3310  
G01 X4.9432  Y1.3585  
G01 X4.9489  Y1.3870  
G01 X4.9705  Y1.4390  
G01 X4.9886  Y1.4923  
G01 X5.0031  Y1.5175  
G01 X5.0143  Y1.5444  
G01 X5.0456  Y1.5911  
G01 X5.3073  Y2.0443  
G01 X5.4760  Y2.6740  
G01 X5.4760  Y3.3260  
G01 X5.3073  Y3.9557  
G01 X4.9813  Y4.5203  
G01 X4.5203  Y4.9813  
G01 X3.9557  Y5.3073  
G01 X3.3260  Y5.4760  
G01 X2.6740  Y5.4760  
G01 X2.4196  Y5.4078  
G01 X2.3933  Y5.3969  
G01 X2.3375  Y5.3858  
G01 X2.2826  Y5.3711  
G01 X2.2542  Y5.3692  
G01 X2.2262  Y5.3637  
G01 X2.1693  Y5.3637  
G01 X2.1126  Y5.3600  
G01 X2.0843  Y5.3637  
G01 X2.0558  Y5.3637  
G01 X2.0000  Y5.3748  
G01 X1.9436  Y5.3822  
G01 X1.9166  Y5.3914  
G01 X1.8887  Y5.3969  
G01 X1.8362  Y5.4187  
G01 X1.7823  Y5.4370  
G01 X1.7576  Y5.4512  
G01 X1.7313  Y5.4621  
G01 X1.6840  Y5.4937  
G01 X1.6347  Y5.5222  
G01 X1.6133  Y5.5410  
G01 X1.5896  Y5.5568  
G01 X1.5494  Y5.5970  
G01 X1.5066  Y5.6345  
G01 X1.4893  Y5.6571  
G01 X1.4691  Y5.6773  
G01 X1.4375  Y5.7246  
G01 X1.4029  Y5.7697  
G01 X1.3903  Y5.7953  
G01 X1.3744  Y5.8190  
G01 X1.3527  Y5.8715  
G01 X1.3275  Y5.9225  
G01 X1.3201  Y5.9500  
G01 X1.3092  Y5.9764  
G01 X1.2981  Y6.0322  
G01 X1.2834  Y6.0871  
G01 X1.2816  Y6.1155  
G01 X1.2760  Y6.1435  
G01 X1.2760  Y6.2004  
G01 X1.2723  Y6.2571  
G01 X1.2760  Y6.2854  
G01 X1.2760  Y42.1730 
G01 X1.3092  Y42.3402 
G01 X1.3744  Y42.4976 
G01 X1.4390  Y42.5941 
G01 X1.4691  Y42.6392 
G01 X1.5896  Y42.7597 
G01 X1.7284  Y42.8525 
G01 X1.7313  Y42.8544 
G01 X1.7358  Y42.8563 
G01 X1.8887  Y42.9196 
G01 X2.0558  Y42.9528 
G01 X2.2262  Y42.9528 
G01 X2.3933  Y42.9196 
G01 X2.5507  Y42.8544 
G01 X2.5816  Y42.8338 
G01 X2.2905  Y43.1249 
G01 X2.2905  Y44.1351 
G01 X3.0049  Y44.8495 
G01 X4.0151  Y44.8495 
G01 X4.2304  Y44.6343 
G01 X4.2097  Y44.6651 
G01 X4.1445  Y44.8226 
G01 X4.1113  Y44.9897 
G01 X4.1113  Y45.1601 
G01 X4.1445  Y45.3272 
G01 X4.2097  Y45.4846 
G01 X4.3044  Y45.6263 
G01 X4.3342  Y45.6561 
G01 X4.3954  Y45.7173 
G01 X4.4547  Y45.7766 
G01 X4.5030  Y45.8089 
G01 X4.5964  Y45.8713 
G01 X4.6359  Y45.8876 
G01 X4.7538  Y45.9365 
G01 X4.7566  Y45.9370 
G01 X4.9209  Y45.9697 
G01 X5.0913  Y45.9697 
G01 X5.1754  Y45.9530 
G01 X5.2584  Y45.9365 
G01 X5.2973  Y45.9204 
G01 X5.3412  Y45.9022 
G01 X6.8788  Y45.9022 
G01 X7.1261  Y46.0046 
G01 X7.3154  Y46.1939 
G01 X7.4934  Y46.6238 
G01 X7.5494  Y46.7076 
G01 X7.5881  Y46.7655 
G01 X7.7086  Y46.8860 
G01 X7.8503  Y46.9806 
G01 X8.0077  Y47.0458 
G01 X8.1748  Y47.0791 
G01 X8.3452  Y47.0791 
G01 X8.5123  Y47.0458 
G01 X8.5597  Y47.0262 
G01 X8.6697  Y46.9806 
G01 X8.7535  Y46.9246 
G01 X8.8114  Y46.8860 
G01 X8.9319  Y46.7655 
G01 X9.0265  Y46.6238 
G01 X9.0301  Y46.6151 
G01 X9.0918  Y46.4664 
G01 X9.2046  Y46.1939 
G01 X9.3939  Y46.0046 
G01 X9.6412  Y45.9022 
G01 X9.6605  Y45.9022 
G01 X9.7467  Y45.9022 
G01 X9.8309  Y45.9022 
G01 X9.9149  Y45.8855 
G01 X9.9980  Y45.8690 
G01 X10.1415 Y45.8095 
G01 X10.1554 Y45.8038 
G01 X10.2452 Y45.7438 
G01 X10.2971 Y45.7091 
G01 X10.3583 Y45.6479 
G01 X10.4176 Y45.5886 
G01 X10.5123 Y45.4469 
G01 X10.5535 Y45.3474 
G01 X10.5775 Y45.2895 
G01 X10.5980 Y45.1861 
G01 X10.6107 Y45.1224 
G01 X10.6107 Y45.0362 
G01 X10.6107 Y44.9520 
G01 X10.5940 Y44.8680 
G01 X10.5775 Y44.7849 
G01 X10.5180 Y44.6414 
G01 X10.5123 Y44.6275 
G01 X10.4523 Y44.5377 
G01 X10.4176 Y44.4858 
G01 X10.3564 Y44.4246 
G01 X10.2971 Y44.3653 
G01 X10.2143 Y44.3100 
G01 X11.6378 Y44.3100 
G01 X11.6893 Y44.2887 
G01 X11.7287 Y44.2493 
G01 X11.7500 Y44.1978 
G01 X11.7500 Y43.5809 
G01 X11.7750 Y43.4552 
G01 X11.7750 Y42.4739 
G01 X11.7973 Y42.4739 
G01 X11.8815 Y42.4739 
G01 X11.9319 Y42.4639 
G01 X12.0486 Y42.4406 
G01 X12.0849 Y42.4256 
G01 X12.2060 Y42.3754 
G01 X12.2647 Y42.3363 
G01 X12.3477 Y42.2808 
G01 X12.4019 Y42.2266 
G01 X12.4682 Y42.1603 
G01 X12.6289 Y41.9996 
G01 X12.8762 Y41.8972 
G01 X14.5438 Y41.8972 
G01 X14.7911 Y41.9996 
G01 X15.0332 Y42.2418 
G01 X15.1537 Y42.3623 
G01 X15.2954 Y42.4569 
G01 X15.4528 Y42.5221 
G01 X15.5544 Y42.5423 
G01 X15.6199 Y42.5554 
G01 X15.7903 Y42.5554 
G01 X15.9305 Y42.5275 
G01 X15.9574 Y42.5221 
G01 X16.0319 Y42.4913 
G01 X16.1149 Y42.4569 
G01 X16.2565 Y42.3622 
G01 X16.3200 Y42.2988 
G01 X16.3200 Y43.7478 
G01 X16.3413 Y43.7993 
G01 X16.3807 Y43.8387 
G01 X16.4322 Y43.8600 
G01 X17.0493 Y43.8600 
G01 X17.1748 Y43.8850 
G01 X17.3452 Y43.8850 
G01 X17.4707 Y43.8600 
G01 X18.0878 Y43.8600 
G01 X18.1393 Y43.8387 
G01 X18.1787 Y43.7993 
G01 X18.2000 Y43.7478 
G01 X18.2000 Y43.6880 
G01 X18.5200 Y44.1377 
G01 X18.5200 Y44.4878 
G01 X18.5413 Y44.5393 
G01 X18.5807 Y44.5787 
G01 X18.6321 Y44.6000 
G01 X18.9014 Y44.6000 
G01 X18.9701 Y44.6430 
G01 X19.0894 Y44.6884 
G01 X19.2152 Y44.7096 
G01 X19.3428 Y44.7058 
G01 X19.4672 Y44.6773 
G01 X19.5837 Y44.6250 
G01 X19.6188 Y44.6000 
G01 X19.8878 Y44.6000 
G01 X19.9393 Y44.5787 
G01 X19.9787 Y44.5393 
G01 X20.0000 Y44.4878 
G01 X20.0000 Y43.6322 
G01 X19.9787 Y43.5807 
G01 X19.9393 Y43.5413 
G01 X19.8878 Y43.5200 
G01 X19.6711 Y43.5200 
G01 X19.0859 Y42.6976 
G01 X19.1745 Y42.6800 
G01 X19.2298 Y42.6571 
G01 X19.3319 Y42.6148 
G01 X19.3821 Y42.5813 
G01 X19.4736 Y42.5201 
G01 X19.5348 Y42.4589 
G01 X19.5941 Y42.3996 
G01 X19.6322 Y42.3425 
G01 X19.6887 Y42.2580 
G01 X19.7130 Y42.1994 
G01 X19.7539 Y42.1006 
G01 X19.7745 Y41.9971 
G01 X19.7872 Y41.9334 
G01 X19.7872 Y41.8662 
G01 X19.8896 Y41.6189 
G01 X20.0789 Y41.4296 
G01 X20.3262 Y41.3272 
G01 X21.7938 Y41.3272 
G01 X22.0411 Y41.4296 
G01 X22.1086 Y41.4971 
G01 X22.2503 Y41.5918 
G01 X22.4077 Y41.6570 
G01 X22.4437 Y41.6641 
G01 X22.5748 Y41.6902 
G01 X22.7452 Y41.6902 
G01 X22.8468 Y41.6700 
G01 X22.9123 Y41.6570 
G01 X22.9406 Y41.6452 
G01 X23.0697 Y41.5918 
G01 X23.2076 Y41.4996 
G01 X23.2114 Y41.4971 
G01 X23.2726 Y41.4359 
G01 X23.2789 Y41.4296 
G01 X23.5262 Y41.3272 
G01 X24.9938 Y41.3272 
G01 X25.0012 Y41.3303 
G01 X25.5353 Y41.8644 
G01 X25.5445 Y41.8781 
G01 X25.5589 Y41.9067 
G01 X25.5917 Y41.9487 
G01 X25.6214 Y41.9931 
G01 X25.6440 Y42.0158 
G01 X25.6637 Y42.0410 
G01 X25.7041 Y42.0759 
G01 X25.7419 Y42.1136 
G01 X25.7685 Y42.1314 
G01 X25.7927 Y42.1523 
G01 X25.8391 Y42.1786 
G01 X25.8594 Y42.1921 
G01 X25.8704 Y42.2063 
G01 X25.9008 Y42.2326 
G01 X25.9284 Y42.2619 
G01 X25.9438 Y42.2728 
G01 X25.9483 Y42.2773 
G01 X25.9937 Y42.3500 
G01 X26.0140 Y42.3904 
G01 X26.0387 Y42.4221 
G01 X26.0600 Y42.4561 
G01 X26.0877 Y42.4855 
G01 X26.1140 Y42.5249 
G01 X26.1366 Y42.5475 
G01 X26.1563 Y42.5727 
G01 X26.1967 Y42.6076 
G01 X26.2345 Y42.6454 
G01 X26.2611 Y42.6631 
G01 X26.2853 Y42.6840 
G01 X26.3317 Y42.7103 
G01 X26.4939 Y42.8724 
G01 X26.5404 Y42.9189 
G01 X26.5666 Y42.9823 
G01 X26.5933 Y43.0515 
G01 X26.5992 Y43.0609 
G01 X26.6035 Y43.0712 
G01 X26.6446 Y43.1329 
G01 X26.6614 Y43.1594 
G01 X26.8070 Y43.6069 
G01 X26.7232 Y43.6854 
G01 X26.6613 Y43.7849 
G01 X26.6273 Y43.8970 
G01 X26.6235 Y44.0140 
G01 X26.6501 Y44.1281 
G01 X26.7054 Y44.2314 
G01 X26.7854 Y44.3168 
G01 X26.8300 Y44.3445 
G01 X26.8300 Y44.4590 
G01 X26.8186 Y44.4666 
G01 X26.8107 Y44.4745 
G01 X26.8016 Y44.4809 
G01 X26.7506 Y44.5346 
G01 X26.6981 Y44.5871 
G01 X26.6919 Y44.5964 
G01 X26.6843 Y44.6044 
G01 X26.6446 Y44.6671 
G01 X26.6035 Y44.7288 
G01 X26.5992 Y44.7391 
G01 X26.5933 Y44.7485 
G01 X26.5666 Y44.8177 
G01 X26.5404 Y44.8811 
G01 X26.4939 Y44.9276 
G01 X26.3511 Y45.0704 
G01 X26.1038 Y45.1728 
G01 X24.9458 Y45.1728 
G01 X24.7787 Y45.2060 
G01 X24.6213 Y45.2712 
G01 X24.4796 Y45.3659 
G01 X24.3591 Y45.4864 
G01 X24.2644 Y45.6281 
G01 X24.1992 Y45.7855 
G01 X24.1660 Y45.9526 
G01 X24.1660 Y46.1230 
G01 X24.1992 Y46.2901 
G01 X24.2644 Y46.4475 
G01 X24.3591 Y46.5892 
G01 X24.3894 Y46.6195 
G01 X24.4796 Y46.7097 
G01 X26.2657 Y48.4958 
G01 X26.2960 Y48.5261 
G01 X26.4377 Y48.6208 
G01 X26.5951 Y48.6860 
G01 X26.7622 Y48.7192 
G01 X30.0145 Y48.7192 
G01 X30.0829 Y48.7056 
G01 X30.1816 Y48.6860 
G01 X30.3390 Y48.6208 
G01 X30.3886 Y48.5876 
G01 X30.4807 Y48.5261 
G01 X30.6012 Y48.4056 
G01 X30.6470 Y48.3371 
G01 X30.6959 Y48.2639 
G01 X30.7234 Y48.1974 
G01 X30.7611 Y48.1065 
G01 X30.7943 Y47.9394 
G01 X30.7943 Y47.7690 
G01 X30.7807 Y47.7006 
G01 X30.7611 Y47.6019 
G01 X30.6959 Y47.4445 
G01 X30.6628 Y47.3949 
G01 X30.6012 Y47.3028 
G01 X30.5987 Y47.3003 
G01 X30.4807 Y47.1823 
G01 X30.4187 Y47.1203 
G01 X30.0927 Y46.5557 
G01 X29.9240 Y45.9260 
G01 X29.9240 Y45.2740 
G01 X30.0927 Y44.6443 
G01 X30.4187 Y44.0797 
G01 X30.8797 Y43.6187 
G01 X31.4443 Y43.2927 
G01 X32.1167 Y43.1126 
G01 X32.1725 Y43.1015 
G01 X32.1988 Y43.0906 
G01 X32.2264 Y43.0832 
G01 X32.2774 Y43.0580 
G01 X32.3299 Y43.0363 
G01 X32.3536 Y43.0204 
G01 X32.3792 Y43.0078 
G01 X32.4243 Y42.9732 
G01 X32.4716 Y42.9416 
G01 X32.4918 Y42.9214 
G01 X32.5144 Y42.9041 
G01 X32.5519 Y42.8613 
G01 X32.5921 Y42.8211 
G01 X32.6079 Y42.7974 
G01 X32.6267 Y42.7760 
G01 X32.6552 Y42.7267 
G01 X32.6868 Y42.6794 
G01 X32.6977 Y42.6531 
G01 X32.7119 Y42.6284 
G01 X32.7302 Y42.5746 
G01 X32.7520 Y42.5220 
G01 X32.7575 Y42.4941 
G01 X32.7667 Y42.4671 
G01 X32.7741 Y42.4107 
G01 X32.7852 Y42.3549 
G01 X32.7852 Y42.3264 
G01 X32.7889 Y42.2981 
G01 X32.7852 Y42.2414 
G01 X32.7852 Y42.1845 
G01 X32.7796 Y42.1566 
G01 X32.7778 Y42.1281 
G01 X32.7630 Y42.0732 
G01 X32.7520 Y42.0174 
G01 X32.7410 Y41.9911 
G01 X32.7337 Y41.9635 
G01 X32.7085 Y41.9125 
G01 X32.6867 Y41.8600 
G01 X32.6709 Y41.8363 
G01 X32.6583 Y41.8107 
G01 X32.6237 Y41.7656 
G01 X32.5921 Y41.7183 
G01 X32.5719 Y41.6981 
G01 X32.5546 Y41.6755 
G01 X32.5118 Y41.6380 
G01 X32.2851 Y41.4113 
G01 X32.1208 Y41.0147 
G01 X32.1208 Y39.3401 
G01 X32.0876 Y39.1730 
G01 X32.0224 Y39.0156 
G01 X31.9277 Y38.8739 
G01 X31.0402 Y37.9864 
G01 X30.9197 Y37.8659 
G01 X30.9169 Y37.8640 
G01 X30.7780 Y37.7712 
G01 X30.6206 Y37.7060 
G01 X30.4535 Y37.6728 
G01 X29.6462 Y37.6728 
G01 X29.3989 Y37.5704 
G01 X29.2096 Y37.3811 
G01 X29.1072 Y37.1338 
G01 X29.1072 Y35.0662 
G01 X29.2096 Y34.8189 
G01 X29.3989 Y34.6296 
G01 X29.6462 Y34.5272 
G01 X30.4535 Y34.5272 
G01 X30.6206 Y34.4940 
G01 X30.7780 Y34.4288 
G01 X30.9197 Y34.3341 
G01 X30.9687 Y34.2851 
G01 X31.3653 Y34.1208 
G01 X31.6202 Y34.1208 
G01 X31.6616 Y34.1250 
G01 X31.7052 Y34.1208 
G01 X31.7490 Y34.1208 
G01 X31.7898 Y34.1127 
G01 X31.8312 Y34.1087 
G01 X31.8731 Y34.0961 
G01 X31.9161 Y34.0876 
G01 X31.9545 Y34.0716 
G01 X31.9944 Y34.0596 
G01 X32.0330 Y34.0391 
G01 X32.0735 Y34.0224 
G01 X32.1081 Y33.9992 
G01 X32.1448 Y33.9797 
G01 X32.1787 Y33.9520 
G01 X32.2152 Y33.9277 
G01 X32.2446 Y33.8982 
G01 X32.2768 Y33.8719 
G01 X32.3047 Y33.8382 
G01 X32.3356 Y33.8072 
G01 X32.3588 Y33.7726 
G01 X32.3852 Y33.7405 
G01 X32.4060 Y33.7019 
G01 X32.4303 Y33.6655 
G01 X32.4462 Y33.6271 
G01 X32.4659 Y33.5904 
G01 X32.4788 Y33.5486 
G01 X32.4955 Y33.5081 
G01 X32.5036 Y33.4673 
G01 X32.5158 Y33.4275 
G01 X32.5202 Y33.3839 
G01 X32.5288 Y33.3410 
G01 X32.5288 Y33.2994 
G01 X32.5329 Y33.2580 
G01 X32.5288 Y33.2144 
G01 X32.5288 Y33.1706 
G01 X32.5206 Y33.1298 
G01 X32.5167 Y33.0884 
G01 X32.5041 Y33.0464 
G01 X32.4955 Y33.0035 
G01 X32.4796 Y32.9650 
G01 X32.4676 Y32.9252 
G01 X32.4471 Y32.8865 
G01 X32.4303 Y32.8461 
G01 X32.4072 Y32.8115 
G01 X32.3877 Y32.7747 
G01 X32.3600 Y32.7408 
G01 X32.3356 Y32.7044 
G01 X32.3062 Y32.6750 
G01 X30.7077 Y30.7172 
G01 X30.6788 Y30.6755 
G01 X30.6539 Y30.6513 
G01 X30.6319 Y30.6244 
G01 X30.5928 Y30.5922 
G01 X30.5449 Y30.5458 
G01 X30.5331 Y30.5185 
G01 X30.5134 Y30.4899 
G01 X30.4971 Y30.4593 
G01 X30.4783 Y30.4363 
G01 X30.4591 Y30.3724 
G01 X30.4484 Y30.3229 
G01 X30.4346 Y30.2910 
G01 X30.4246 Y30.2578 
G01 X30.4008 Y30.2130 
G01 X30.3743 Y30.1518 
G01 X30.3739 Y30.1221 
G01 X30.3666 Y30.0881 
G01 X30.3632 Y30.0536 
G01 X30.3547 Y30.0251 
G01 X30.3614 Y29.9588 
G01 X30.3705 Y29.9089 
G01 X30.3699 Y29.8742 
G01 X30.3734 Y29.8396 
G01 X30.3686 Y29.7892 
G01 X30.2985 Y25.3813 
G01 X30.2985 Y25.3031 
G01 X30.2971 Y25.2963 
G01 X30.2970 Y25.2893 
G01 X30.2805 Y25.2127 
G01 X30.2653 Y25.1360 
G01 X30.2626 Y25.1296 
G01 X30.2611 Y25.1228 
G01 X30.2300 Y25.0509 
G01 X30.2001 Y24.9785 
G01 X30.1962 Y24.9728 
G01 X30.1934 Y24.9664 
G01 X30.1489 Y24.9019 
G01 X30.1054 Y24.8369 
G01 X30.1005 Y24.8320 
G01 X30.0965 Y24.8263 
G01 X30.0402 Y24.7717 
G01 X29.9796 Y24.7111 
G01 X29.8772 Y24.4638 
G01 X29.8772 Y22.7962 
G01 X29.9796 Y22.5489 
G01 X30.1403 Y22.3882 
G01 X30.2083 Y22.3202 
G01 X30.2608 Y22.2677 
G01 X30.3178 Y22.1824 
G01 X30.3554 Y22.1261 
G01 X30.4067 Y22.0022 
G01 X30.4206 Y21.9687 
G01 X30.4442 Y21.8500 
G01 X30.4539 Y21.8015 
G01 X30.4539 Y21.7154 
G01 X30.4539 Y21.6950 
G01 X32.2461 Y21.6950 
G01 X32.2461 Y21.7173 
G01 X32.2461 Y21.8015 
G01 X32.2561 Y21.8519 
G01 X32.2793 Y21.9686 
G01 X32.2944 Y22.0049 
G01 X32.3445 Y22.1260 
G01 X32.3837 Y22.1847 
G01 X32.4392 Y22.2677 
G01 X32.4933 Y22.3219 
G01 X32.5597 Y22.3882 
G01 X32.7204 Y22.5489 
G01 X32.8228 Y22.7962 
G01 X32.8228 Y24.4638 
G01 X32.7207 Y24.7102 
G01 X32.7051 Y24.7264 
G01 X32.6496 Y24.7818 
G01 X32.6458 Y24.7876 
G01 X32.6410 Y24.7926 
G01 X32.5985 Y24.8583 
G01 X32.5550 Y24.9235 
G01 X32.5523 Y24.9299 
G01 X32.5486 Y24.9357 
G01 X32.5197 Y25.0086 
G01 X32.4898 Y25.0809 
G01 X32.4884 Y25.0877 
G01 X32.4859 Y25.0942 
G01 X32.4718 Y25.1712 
G01 X32.4565 Y25.2480 
G01 X32.4565 Y25.2550 
G01 X32.4553 Y25.2618 
G01 X32.4565 Y25.3401 
G01 X32.4565 Y25.4184 
G01 X32.4579 Y25.4252 
G01 X32.4641 Y25.8149 
G01 X32.4641 Y25.8932 
G01 X32.4654 Y25.9000 
G01 X32.4655 Y25.9069 
G01 X32.4820 Y25.9835 
G01 X32.4973 Y26.0603 
G01 X32.5000 Y26.0667 
G01 X32.5014 Y26.0735 
G01 X32.5326 Y26.1454 
G01 X32.5625 Y26.2177 
G01 X32.5664 Y26.2235 
G01 X32.5691 Y26.2298 
G01 X32.6137 Y26.2943 
G01 X32.6572 Y26.3594 
G01 X32.6621 Y26.3643 
G01 X32.6660 Y26.3700 
G01 X32.7223 Y26.4245 
G01 X32.7777 Y26.4799 
G01 X32.7834 Y26.4837 
G01 X32.7884 Y26.4885 
G01 X32.8542 Y26.5310 
G01 X32.9193 Y26.5745 
G01 X32.9258 Y26.5772 
G01 X32.9316 Y26.5809 
G01 X33.0044 Y26.6098 
G01 X33.0768 Y26.6397 
G01 X33.0836 Y26.6411 
G01 X33.0900 Y26.6436 
G01 X33.1671 Y26.6577 
G01 X33.2439 Y26.6730 
G01 X33.2508 Y26.6730 
G01 X33.2576 Y26.6742 
G01 X33.3359 Y26.6730 
G01 X33.4143 Y26.6730 
G01 X33.4211 Y26.6716 
G01 X33.4280 Y26.6715 
G01 X33.5046 Y26.6550 
G01 X33.5814 Y26.6397 
G01 X33.5878 Y26.6371 
G01 X33.5946 Y26.6356 
G01 X33.6665 Y26.6045 
G01 X33.7388 Y26.5745 
G01 X33.7446 Y26.5707 
G01 X33.7509 Y26.5679 
G01 X33.8154 Y26.5234 
G01 X33.8805 Y26.4799 
G01 X33.8854 Y26.4750 
G01 X33.8911 Y26.4710 
G01 X33.9456 Y26.4148 
G01 X34.0010 Y26.3594 
G01 X34.0048 Y26.3536 
G01 X34.0096 Y26.3486 
G01 X34.0521 Y26.2828 
G01 X34.0956 Y26.2177 
G01 X34.0983 Y26.2113 
G01 X34.1020 Y26.2055 
G01 X34.1112 Y26.1823 
G01 X34.2989 Y25.9946 
G01 X34.5462 Y25.8922 
G01 X37.5138 Y25.8922 
G01 X37.7611 Y25.9946 
G01 X37.9504 Y26.1839 
G01 X37.9513 Y26.1861 
G01 X38.0165 Y26.3436 
G01 X38.1112 Y26.4852 
G01 X38.2317 Y26.6057 
G01 X38.3733 Y26.7004 
G01 X38.3779 Y26.7023 
G01 X38.5307 Y26.7656 
G01 X38.6979 Y26.7988 
G01 X38.8683 Y26.7988 
G01 X39.0354 Y26.7656 
G01 X39.1928 Y26.7004 
G01 X39.3345 Y26.6057 
G01 X39.4549 Y26.4852 
G01 X39.5496 Y26.3436 
G01 X39.5515 Y26.3389 
G01 X39.6148 Y26.1861 
G01 X39.7267 Y25.9160 
G01 X40.1160 Y25.5267 
G01 X40.4210 Y25.4004 
G01 X40.5132 Y25.3622 
G01 X40.5784 Y25.3352 
G01 X40.6525 Y25.2857 
G01 X40.7200 Y25.2405 
G01 X40.8405 Y25.1200 
G01 X40.8894 Y25.0469 
G01 X40.9352 Y24.9784 
G01 X40.9491 Y24.9448 
G01 X41.0004 Y24.8210 
G01 X41.0570 Y24.6842 
G01 X41.0903 Y24.5171 
G01 X41.0903 Y24.3467 
G01 X41.0570 Y24.1796 
G01 X40.9918 Y24.0222 
G01 X40.9273 Y23.9256 
G01 X40.8972 Y23.8805 
G01 X40.7767 Y23.7600 
G01 X40.6475 Y23.6737 
G01 X40.6059 Y23.6321 
G01 X40.5849 Y23.6181 
G01 X40.5659 Y23.6012 
G01 X40.5142 Y23.5708 
G01 X40.4642 Y23.5375 
G01 X40.4408 Y23.5278 
G01 X40.2501 Y23.4158 
G01 X40.2002 Y23.3824 
G01 X40.1768 Y23.3728 
G01 X40.1550 Y23.3599 
G01 X40.0983 Y23.3402 
G01 X40.0428 Y23.3172 
G01 X40.0180 Y23.3123 
G01 X39.9941 Y23.3040 
G01 X39.9346 Y23.2957 
G01 X39.8757 Y23.2840 
G01 X39.8504 Y23.2840 
G01 X39.8253 Y23.2805 
G01 X39.7654 Y23.2840 
G01 X38.9550 Y23.2840 
G01 X38.7077 Y23.1816 
G01 X38.5766 Y23.0505 
G01 X38.4561 Y22.9300 
G01 X38.3144 Y22.8353 
G01 X38.1570 Y22.7701 
G01 X37.9899 Y22.7369 
G01 X37.8195 Y22.7369 
G01 X37.6524 Y22.7701 
G01 X37.5090 Y22.8295 
G01 X37.5200 Y22.8028 
G01 X37.5200 Y20.2651 
G01 X37.6151 Y20.4078 
G01 X37.6763 Y20.4690 
G01 X37.7356 Y20.5283 
G01 X37.7838 Y20.5605 
G01 X37.8772 Y20.6230 
G01 X37.9168 Y20.6393 
G01 X38.0347 Y20.6882 
G01 X38.0375 Y20.6887 
G01 X38.2018 Y20.7214 
G01 X38.3722 Y20.7214 
G01 X38.4562 Y20.7047 
G01 X38.5393 Y20.6882 
G01 X38.5484 Y20.6844 
G01 X38.6967 Y20.6230 
G01 X38.9550 Y20.5160 
G01 X40.6450 Y20.5160 
G01 X40.8923 Y20.6184 
G01 X41.0249 Y20.7510 
G01 X41.1454 Y20.8715 
G01 X41.2185 Y20.9204 
G01 X41.2870 Y20.9661 
G01 X41.4445 Y21.0314 
G01 X41.5470 Y21.0517 
G01 X41.6116 Y21.0646 
G01 X43.7356 Y21.0646 
G01 X44.3623 Y21.6914 
G01 X44.3548 Y21.7096 
G01 X44.3548 Y23.7972 
G01 X44.3761 Y23.8487 
G01 X44.4155 Y23.8881 
G01 X44.4669 Y23.9094 
G01 X45.1830 Y23.9094 
G01 X45.2345 Y23.8881 
G01 X45.2739 Y23.8487 
G01 X45.2952 Y23.7972 
G01 X45.2952 Y21.7096 
G01 X45.2739 Y21.6581 
G01 X45.2698 Y21.6540 
G01 X45.2698 Y21.4664 
G01 X45.2395 Y21.3533 
G01 X45.1809 Y21.2519 
G01 X44.4832 Y20.5541 
G01 X44.5255 Y20.4519 
G01 X44.5588 Y20.2848 
G01 X44.5588 Y20.1144 
G01 X44.5255 Y19.9473 
G01 X44.4603 Y19.7899 
G01 X44.3657 Y19.6482 
G01 X44.2452 Y19.5277 
G01 X44.1758 Y19.4583 
G01 X44.1708 Y19.4512 
G01 X44.1156 Y19.3981 
G01 X44.0614 Y19.3440 
G01 X44.0542 Y19.3391 
G01 X43.9998 Y19.2868 
G01 X43.9998 Y17.7060 
G01 X44.0039 Y17.7019 
G01 X44.0252 Y17.6504 
G01 X44.0252 Y15.5627 
G01 X44.0039 Y15.5113 
G01 X43.9645 Y15.4719 
G01 X43.9130 Y15.4506 
G01 X43.1970 Y15.4506 
G01 X43.1455 Y15.4719 
G01 X43.1061 Y15.5113 
G01 X43.0848 Y15.5627 
G01 X43.0848 Y17.6504 
G01 X43.1061 Y17.7019 
G01 X43.1102 Y17.7060 
G01 X43.1102 Y18.2802 
G01 X43.0647 Y18.2712 
G01 X43.0560 Y18.2712 
G01 X43.0475 Y18.2697 
G01 X42.9710 Y18.2712 
G01 X42.8943 Y18.2712 
G01 X42.8858 Y18.2729 
G01 X42.8772 Y18.2730 
G01 X42.8023 Y18.2895 
G01 X42.7726 Y18.2954 
G01 X41.9020 Y18.2954 
G01 X41.7349 Y18.3286 
G01 X41.5774 Y18.3938 
G01 X41.5630 Y18.4035 
G01 X40.9128 Y18.6728 
G01 X40.2871 Y18.6728 
G01 X39.7091 Y18.4334 
G01 X39.2666 Y17.9909 
G01 X39.1307 Y17.6627 
G01 X39.1124 Y17.6088 
G01 X39.0981 Y17.5841 
G01 X39.0872 Y17.5578 
G01 X39.0556 Y17.5105 
G01 X39.0272 Y17.4613 
G01 X39.0084 Y17.4398 
G01 X38.9926 Y17.4161 
G01 X38.9524 Y17.3759 
G01 X38.9149 Y17.3332 
G01 X38.8922 Y17.3158 
G01 X38.8721 Y17.2957 
G01 X38.8248 Y17.2641 
G01 X38.7797 Y17.2294 
G01 X38.7541 Y17.2168 
G01 X38.7304 Y17.2010 
G01 X38.6779 Y17.1792 
G01 X38.6269 Y17.1541 
G01 X38.5993 Y17.1467 
G01 X38.5730 Y17.1358 
G01 X38.5172 Y17.1247 
G01 X38.2187 Y17.0447 
G01 X37.8163 Y16.8124 
G01 X37.4876 Y16.4837 
G01 X37.2553 Y16.0813 
G01 X37.1350 Y15.6324 
G01 X37.1350 Y15.1676 
G01 X37.2538 Y14.7244 
G01 X37.2582 Y14.7137 
G01 X37.2724 Y14.6890 
G01 X37.2907 Y14.6351 
G01 X37.3125 Y14.5826 
G01 X37.3181 Y14.5546 
G01 X37.3272 Y14.5277 
G01 X37.3347 Y14.4712 
G01 X37.3458 Y14.4155 
G01 X37.3458 Y14.3870 
G01 X37.3495 Y14.3587 
G01 X37.3458 Y14.3020 
G01 X37.3458 Y14.2451 
G01 X37.3402 Y14.2171 
G01 X37.3383 Y14.1887 
G01 X37.3236 Y14.1337 
G01 X37.3125 Y14.0779 
G01 X37.3016 Y14.0516 
G01 X37.2942 Y14.0241 
G01 X37.2691 Y13.9731 
G01 X37.2473 Y13.9205 
G01 X37.2315 Y13.8969 
G01 X37.2189 Y13.8713 
G01 X37.1842 Y13.8262 
G01 X37.1526 Y13.7789 
G01 X37.1325 Y13.7587 
G01 X37.1152 Y13.7361 
G01 X37.0724 Y13.6986 
G01 X31.0524 Y7.6786  
G01 X30.9319 Y7.5581  
G01 X30.7902 Y7.4634  
G01 X30.6328 Y7.3982  
G01 X30.4657 Y7.3650  
G01 X29.1740 Y7.3650  
G01 X28.9267 Y7.2626  
G01 X28.7374 Y7.0733  
G01 X28.6350 Y6.8260  
G01 X28.6350 Y4.3740  
G01 X28.7374 Y4.1267  
G01 X28.9267 Y3.9374  
G01 X29.1740 Y3.8350  
G01 X31.6260 Y3.8350  
G01 X31.8733 Y3.9374  
G01 X32.0626 Y4.1267  
G01 X32.1650 Y4.3740  
G01 X32.1650 Y5.4657  
G01 X32.1982 Y5.6328  
G01 X32.2634 Y5.7902  
G01 X32.2922 Y5.8332  
G01 X32.3581 Y5.9319  
G01 X32.4786 Y6.0524  
G01 X38.3602 Y11.9339 
G01 X38.4555 Y12.0293 
G01 X38.5972 Y12.1240 
G01 X38.7546 Y12.1892 
G01 X38.9217 Y12.2224 
G01 X40.3667 Y12.2224 
G01 X40.4067 Y12.2775 
G01 X40.5225 Y12.3933 
G01 X40.6549 Y12.4895 
G01 X40.8008 Y12.5638 
G01 X40.9565 Y12.6144 
G01 X41.1181 Y12.6400 
G01 X41.2818 Y12.6400 
G01 X41.4435 Y12.6144 
G01 X41.5992 Y12.5638 
G01 X41.7451 Y12.4895 
G01 X41.8775 Y12.3933 
G01 X41.9933 Y12.2775 
G01 X42.0895 Y12.1451 
G01 X42.1638 Y11.9992 
G01 X42.1831 Y11.9398 
G01 X42.3498 Y11.9398 
G01 X42.3498 Y12.4372 
G01 X42.3711 Y12.4887 
G01 X42.4105 Y12.5281 
G01 X42.4620 Y12.5494 
G01 X43.1780 Y12.5494 
G01 X43.2295 Y12.5281 
G01 X43.2689 Y12.4887 
G01 X43.2902 Y12.4372 
G01 X43.2902 Y11.6718 
G01 X43.3292 Y11.6043 
G01 X43.3664 Y11.4653 
G01 X43.3664 Y11.3215 
G01 X43.3292 Y11.1825 
G01 X43.2902 Y11.1150 
G01 X43.2902 Y10.3496 
G01 X43.2689 Y10.2981 
G01 X43.2295 Y10.2587 
G01 X43.1780 Y10.2374 
G01 X42.6030 Y10.2374 
G01 X42.7295 Y10.1850 
G01 X42.7546 Y10.1746 
G01 X42.8288 Y10.1251 
G01 X42.8963 Y10.0799 
G01 X43.0168 Y9.9594  
G01 X43.0657 Y9.8863  
G01 X43.1115 Y9.8178  
G01 X43.1455 Y9.7356  
G01 X43.1767 Y9.6604  
G01 X43.2612 Y9.4562  
G01 X43.4456 Y9.2719  
G01 X43.5661 Y9.1514  
G01 X43.5856 Y9.1221  
G01 X43.6607 Y9.0097  
G01 X43.6984 Y8.9188  
G01 X43.7259 Y8.8523  
G01 X43.7484 Y8.7391  
G01 X43.7592 Y8.6852  
G01 X43.7592 Y8.5148  
G01 X43.7259 Y8.3477  
G01 X43.6981 Y8.2806  
G01 X43.6607 Y8.1903  
G01 X43.5661 Y8.0486  
G01 X43.2612 Y7.7438  
G01 X43.1150 Y7.3907  
G01 X43.0222 Y7.2518  
G01 X43.0203 Y7.2490  
G01 X42.8998 Y7.1285  
G01 X42.7581 Y7.0338  
G01 X42.6007 Y6.9686  
G01 X42.4336 Y6.9354  
G01 X42.3560 Y6.9354  
G01 X42.1087 Y6.8330  
G01 X41.9194 Y6.6437  
G01 X41.8170 Y6.3964  
G01 X41.8170 Y4.0763  
G01 X41.8424 Y3.9486  
G01 X41.8424 Y3.2396  
G01 X41.8453 Y3.1735  
G01 X41.8424 Y3.1545  
G01 X41.8424 Y3.1353  
G01 X41.8295 Y3.0705  
G01 X41.8242 Y3.0360  
G01 X41.8378 Y2.9806  
G01 X41.8386 Y2.9614  
G01 X41.8424 Y2.9425  
G01 X41.8424 Y2.8855  
G01 X41.8557 Y2.8533  
G01 X41.8837 Y2.7934  
G01 X41.8883 Y2.7747  
G01 X41.8957 Y2.7570  
G01 X41.9085 Y2.6921  
G01 X41.9169 Y2.6583  
G01 X41.9506 Y2.6123  
G01 X41.9587 Y2.5949  
G01 X41.9694 Y2.5789  
G01 X41.9912 Y2.5262  
G01 X42.0159 Y2.5016  
G01 X42.0646 Y2.4569  
G01 X42.0760 Y2.4414  
G01 X42.0896 Y2.4278  
G01 X42.1263 Y2.3729  
G01 X42.6583 Y1.6482  
G01 X42.6723 Y1.6342  
G01 X42.7086 Y1.5797  
G01 X42.7474 Y1.5269  
G01 X42.7558 Y1.5089  
G01 X42.7668 Y1.4924  
G01 X42.7917 Y1.4318  
G01 X42.8195 Y1.3725  
G01 X42.8242 Y1.3532  
G01 X42.8317 Y1.3349  
G01 X42.8444 Y1.2706  
G01 X42.8600 Y1.2070  
G01 X42.8609 Y1.1872  
G01 X42.8648 Y1.1677  
G01 X42.8647 Y1.1022  
G01 X42.8676 Y1.0368  
G01 X42.8646 Y1.0171  
G01 X42.8645 Y0.9973  
G01 X42.8517 Y0.9331  
G01 X42.8417 Y0.8683  
G01 X42.8349 Y0.8497  
G01 X42.8310 Y0.8302  
G01 X42.8059 Y0.7698  
G01 X42.7835 Y0.7082  
G01 X42.7732 Y0.6912  
G01 X42.7656 Y0.6729  
G01 X42.7292 Y0.6185  
G01 X42.6952 Y0.5625  
G01 X42.6818 Y0.5479  
G01 X42.6708 Y0.5314  
G01 X42.6244 Y0.4851  
G01 X42.5802 Y0.4368  
G01 X42.5642 Y0.4251  
G01 X42.5501 Y0.4110  
G01 X42.4956 Y0.3747  
G01 X42.4428 Y0.3360  
G01 X42.4248 Y0.3276  
G01 X42.4083 Y0.3166  
G01 X42.3478 Y0.2916  
G01 X42.2884 Y0.2639  
G01 X42.2692 Y0.2592  
G01 X42.2508 Y0.2516  
G01 X42.1866 Y0.2389  
G01 X42.1229 Y0.2233  
G01 X42.1031 Y0.2224  
G01 X42.0836 Y0.2186  
G01 X42.0182 Y0.2187  
G01 X41.9527 Y0.2158  
G01 X41.9331 Y0.2188  
G01 X5.8080  Y0.2685  
G01 X5.7518  Y0.2649  
G01 X5.7230  Y0.2687  
G01 X5.6939  Y0.2687  
G01 X5.6387  Y0.2798  
G01 X5.5829  Y0.2871  
G01 X5.5553  Y0.2965  
G01 X5.5268  Y0.3022  
G01 X5.4749  Y0.3238  
G01 X5.4216  Y0.3419  
G01 X5.3963  Y0.3564  
G01 X5.3695  Y0.3676  
G01 X5.3227  Y0.3989  
G01 X5.2740  Y0.4271  
G01 X5.2521  Y0.4462  
G01 X5.2279  Y0.4625  
G01 X5.1882  Y0.5023  
G01 X5.1459  Y0.5394  
G00 Z2.5400  
G00 X4.5043  Y8.7010  
G01 Z-0.1000 F127   
G01 X5.9665  Y8.7010  F127   
G01 X7.0004  Y9.7349  
G01 X7.0004  Y11.1971 
G01 X5.9665  Y12.2310 
G01 X4.5043  Y12.2310 
G01 X3.4704  Y11.1971 
G01 X3.4704  Y9.7349  
G01 X4.5043  Y8.7010  
G00 Z2.5400  
G00 X4.7250  Y9.2338  
G01 Z-0.1000 F127   
G01 X4.0032  Y9.9556  F127   
G01 X4.0032  Y10.9764 
G01 X4.7250  Y11.6982 
G01 X5.7458  Y11.6982 
G01 X6.4676  Y10.9764 
G01 X6.4676  Y9.9556  
G01 X5.7458  Y9.2338  
G01 X4.7250  Y9.2338  
G00 Z2.5400  
G00 X4.5043  Y34.1010 
G01 Z-0.1000 F127   
G01 X5.9665  Y34.1010 F127   
G01 X7.0004  Y35.1349 
G01 X7.0004  Y36.5971 
G01 X5.9665  Y37.6310 
G01 X4.5043  Y37.6310 
G01 X3.4704  Y36.5971 
G01 X3.4704  Y35.1349 
G01 X4.5043  Y34.1010 
G00 Z2.5400  
G00 X4.7250  Y34.6338 
G01 Z-0.1000 F127   
G01 X4.0032  Y35.3556 F127   
G01 X4.0032  Y36.3764 
G01 X4.7250  Y37.0982 
G01 X5.7458  Y37.0982 
G01 X6.4676  Y36.3764 
G01 X6.4676  Y35.3556 
G01 X5.7458  Y34.6338 
G01 X4.7250  Y34.6338 
G00 Z2.5400  
G00 X12.5890 Y35.1349 
G01 Z-0.1000 F127   
G01 X13.6229 Y34.1010 F127   
G01 X15.0851 Y34.1010 
G01 X16.1190 Y35.1349 
G01 X16.1190 Y36.5971 
G01 X15.0851 Y37.6310 
G01 X13.6229 Y37.6310 
G01 X12.5890 Y36.5971 
G01 X12.5890 Y35.1349 
G00 Z2.5400  
G00 X13.1218 Y35.3556 
G01 Z-0.1000 F127   
G01 X13.1218 Y36.3764 F127   
G01 X13.8436 Y37.0982 
G01 X14.8644 Y37.0982 
G01 X15.5862 Y36.3764 
G01 X15.5862 Y35.3556 
G01 X14.8644 Y34.6338 
G01 X13.8436 Y34.6338 
G01 X13.1218 Y35.3556 
G00 Z2.5400  
G00 X12.9822 Y42.4300 
G01 Z-0.1000 F127   
G01 X12.9307 Y42.4513 F127   
G01 X12.8913 Y42.4907 
G01 X12.8700 Y42.5421 
G01 X12.8700 Y44.1978 
G01 X12.8913 Y44.2493 
G01 X12.9230 Y44.2810 
G01 X12.6936 Y44.5104 
G01 X10.2662 Y46.4350 
G01 X9.7471  Y46.4350 
G01 X9.6957  Y46.4563 
G01 X9.6563  Y46.4957 
G01 X9.6350  Y46.5472 
G01 X9.6350  Y47.2654 
G01 X9.6314  Y47.2969 
G01 X9.6332  Y47.3194 
G01 X9.6319  Y47.3420 
G01 X9.6350  Y47.3641 
G01 X9.6350  Y48.0728 
G01 X9.6563  Y48.1243 
G01 X9.6957  Y48.1637 
G01 X9.7471  Y48.1850 
G01 X11.0728 Y48.1850 
G01 X11.1243 Y48.1637 
G01 X11.1589 Y48.1291 
G01 X13.0015 Y48.2343 
G01 X13.1600 Y48.3160 
G01 X13.1600 Y49.0278 
G01 X13.1813 Y49.0793 
G01 X13.2207 Y49.1187 
G01 X13.2721 Y49.1400 
G01 X15.1278 Y49.1400 
G01 X15.1793 Y49.1187 
G01 X15.2187 Y49.0793 
G01 X15.2400 Y49.0278 
G01 X15.2400 Y47.1722 
G01 X15.2187 Y47.1207 
G01 X15.1793 Y47.0813 
G01 X15.1278 Y47.0600 
G01 X14.1067 Y47.0600 
G01 X13.6237 Y46.8113 
G01 X13.6157 Y46.8053 
G01 X13.5560 Y46.7765 
G01 X13.4969 Y46.7460 
G01 X13.4872 Y46.7433 
G01 X13.4782 Y46.7389 
G01 X13.4140 Y46.7223 
G01 X13.3502 Y46.7040 
G01 X13.3402 Y46.7031 
G01 X13.3304 Y46.7006 
G01 X13.2641 Y46.6968 
G01 X13.1980 Y46.6913 
G01 X13.1880 Y46.6925 
G01 X12.4868 Y46.6524 
G01 X13.6668 Y45.7169 
G01 X13.7040 Y45.6920 
G01 X13.7264 Y45.6696 
G01 X13.7513 Y45.6499 
G01 X13.7803 Y45.6157 
G01 X14.2940 Y45.1020 
G01 X14.4020 Y44.9940 
G01 X14.4868 Y44.8671 
G01 X14.5452 Y44.7261 
G01 X14.5750 Y44.5763 
G01 X14.5750 Y43.3837 
G01 X14.5500 Y43.2580 
G01 X14.5500 Y42.5421 
G01 X14.5287 Y42.4907 
G01 X14.4893 Y42.4513 
G01 X14.4378 Y42.4300 
G01 X12.9822 Y42.4300 
G00 Z2.5400  
G00 X18.2000 Y42.3720 
G01 Z-0.1000 F127   
G01 X18.2000 Y42.3243 F127   
G01 X18.2318 Y42.3720 
G01 X18.2000 Y42.3720 
G00 Z2.5400  
G00 X20.3200 Y41.9721 
G01 Z-0.1000 F127   
G01 X20.3200 Y44.0278 F127   
G01 X20.3413 Y44.0793 
G01 X20.3807 Y44.1187 
G01 X20.4120 Y44.1317 
G01 X20.4120 Y44.8028 
G01 X20.4108 Y44.8094 
G01 X20.4120 Y44.8666 
G01 X20.4120 Y45.0238 
G01 X20.4369 Y45.1490 
G01 X20.4748 Y45.2405 
G01 X19.2115 Y45.2107 
G01 X19.1904 Y45.2144 
G01 X18.2000 Y45.1925 
G01 X18.2000 Y45.0921 
G01 X18.1787 Y45.0407 
G01 X18.1393 Y45.0013 
G01 X18.0878 Y44.9800 
G01 X16.4322 Y44.9800 
G01 X16.3807 Y45.0013 
G01 X16.3413 Y45.0407 
G01 X16.3200 Y45.0921 
G01 X16.3200 Y46.5478 
G01 X16.3413 Y46.5993 
G01 X16.3807 Y46.6387 
G01 X16.4322 Y46.6600 
G01 X18.0878 Y46.6600 
G01 X18.1393 Y46.6387 
G01 X18.1787 Y46.5993 
G01 X18.2000 Y46.5478 
G01 X18.2000 Y46.4889 
G01 X20.9600 Y46.5496 
G01 X20.9600 Y47.1278 
G01 X20.9813 Y47.1793 
G01 X21.0207 Y47.2187 
G01 X21.0722 Y47.2400 
G01 X22.4236 Y47.2400 
G01 X25.4967 Y50.3131 
G01 X25.5869 Y50.4033 
G01 X25.6931 Y50.4742 
G01 X25.8110 Y50.5231 
G01 X25.9362 Y50.5480 
G01 X41.8638 Y50.5480 
G01 X41.9890 Y50.5231 
G01 X42.1069 Y50.4742 
G01 X42.2131 Y50.4033 
G01 X43.5131 Y49.1033 
G01 X43.6033 Y49.0131 
G01 X43.6742 Y48.9069 
G01 X43.7231 Y48.7890 
G01 X43.7480 Y48.6638 
G01 X43.7480 Y45.0396 
G01 X43.7231 Y44.9144 
G01 X43.6742 Y44.7965 
G01 X43.6033 Y44.6903 
G01 X43.5602 Y44.6472 
G01 X43.5602 Y44.3496 
G01 X43.5389 Y44.2981 
G01 X43.4995 Y44.2587 
G01 X43.4480 Y44.2374 
G01 X42.7319 Y44.2374 
G01 X42.6805 Y44.2587 
G01 X42.6411 Y44.2981 
G01 X42.6198 Y44.3496 
G01 X42.6198 Y44.6195 
G01 X42.1203 Y44.5039 
G01 X41.6400 Y44.0236 
G01 X41.6400 Y42.9721 
G01 X41.6187 Y42.9207 
G01 X41.5793 Y42.8813 
G01 X41.5278 Y42.8600 
G01 X39.6722 Y42.8600 
G01 X39.6207 Y42.8813 
G01 X39.5813 Y42.9207 
G01 X39.5600 Y42.9721 
G01 X39.5600 Y44.8278 
G01 X39.5813 Y44.8793 
G01 X39.6207 Y44.9187 
G01 X39.6722 Y44.9400 
G01 X40.7236 Y44.9400 
G01 X41.3281 Y45.5445 
G01 X41.3649 Y45.5837 
G01 X41.3732 Y45.5896 
G01 X41.3803 Y45.5967 
G01 X41.4250 Y45.6266 
G01 X41.4688 Y45.6579 
G01 X41.4780 Y45.6620 
G01 X41.4865 Y45.6676 
G01 X41.5361 Y45.6882 
G01 X41.5851 Y45.7103 
G01 X41.5950 Y45.7126 
G01 X41.6044 Y45.7165 
G01 X41.6571 Y45.7270 
G01 X42.4520 Y45.9109 
G01 X42.4520 Y48.3316 
G01 X41.5316 Y49.2520 
G01 X26.2684 Y49.2520 
G01 X23.0400 Y46.0236 
G01 X23.0400 Y45.2722 
G01 X23.0187 Y45.2207 
G01 X22.9793 Y45.1813 
G01 X22.9278 Y45.1600 
G01 X22.1764 Y45.1600 
G01 X21.7899 Y44.7735 
G01 X21.7080 Y44.6562 
G01 X21.7080 Y44.1317 
G01 X21.7393 Y44.1187 
G01 X21.7787 Y44.0793 
G01 X21.8000 Y44.0278 
G01 X21.8000 Y41.9721 
G01 X21.7787 Y41.9207 
G01 X21.7393 Y41.8813 
G01 X21.6878 Y41.8600 
G01 X20.4322 Y41.8600 
G01 X20.3807 Y41.8813 
G01 X20.3413 Y41.9207 
G01 X20.3200 Y41.9721 
G00 Z2.5400  
G00 X23.5200 Y41.9721 
G01 Z-0.1000 F127   
G01 X23.5200 Y44.0278 F127   
G01 X23.5413 Y44.0793 
G01 X23.5807 Y44.1187 
G01 X23.6321 Y44.1400 
G01 X24.8878 Y44.1400 
G01 X24.9393 Y44.1187 
G01 X25.0300 Y44.2586 
G01 X25.0300 Y44.5278 
G01 X25.0513 Y44.5793 
G01 X25.0907 Y44.6187 
G01 X25.1422 Y44.6400 
G01 X25.9978 Y44.6400 
G01 X26.0493 Y44.6187 
G01 X26.0887 Y44.5793 
G01 X26.1100 Y44.5278 
G01 X26.1100 Y44.2588 
G01 X26.1346 Y44.2243 
G01 X26.1870 Y44.1079 
G01 X26.2158 Y43.9835 
G01 X26.2196 Y43.8559 
G01 X26.1986 Y43.7300 
G01 X26.1533 Y43.6107 
G01 X26.1100 Y43.5414 
G01 X26.1100 Y43.2722 
G01 X26.0887 Y43.2207 
G01 X26.0493 Y43.1813 
G01 X25.9978 Y43.1600 
G01 X25.8716 Y43.1600 
G01 X25.6354 Y42.7820 
G01 X25.6202 Y42.7517 
G01 X25.6016 Y42.7280 
G01 X25.5857 Y42.7024 
G01 X25.5625 Y42.6778 
G01 X25.5416 Y42.6511 
G01 X25.5188 Y42.6314 
G01 X25.4982 Y42.6095 
G01 X25.4706 Y42.5898 
G01 X25.4450 Y42.5677 
G01 X25.4188 Y42.5528 
G01 X25.3943 Y42.5354 
G01 X25.3634 Y42.5215 
G01 X25.3339 Y42.5048 
G01 X25.3053 Y42.4953 
G01 X25.2779 Y42.4829 
G01 X25.2449 Y42.4753 
G01 X25.2127 Y42.4647 
G01 X25.1829 Y42.4610 
G01 X25.1535 Y42.4542 
G01 X25.1197 Y42.4532 
G01 X25.0000 Y42.4384 
G01 X25.0000 Y41.9721 
G01 X24.9787 Y41.9207 
G01 X24.9393 Y41.8813 
G01 X24.8878 Y41.8600 
G01 X23.6321 Y41.8600 
G01 X23.5807 Y41.8813 
G01 X23.5413 Y41.9207 
G01 X23.5200 Y41.9721 
G00 Z2.5400  
G00 X23.7465 Y37.6310 
G01 Z-0.1000 F127   
G01 X22.2843 Y37.6310 F127   
G01 X21.2504 Y36.5971 
G01 X21.2504 Y35.1349 
G01 X22.2843 Y34.1010 
G01 X23.7465 Y34.1010 
G01 X24.7804 Y35.1349 
G01 X24.7804 Y36.5971 
G01 X23.7465 Y37.6310 
G00 Z2.5400  
G00 X23.5258 Y37.0982 
G01 Z-0.1000 F127   
G01 X24.2476 Y36.3764 F127   
G01 X24.2476 Y35.3556 
G01 X23.5258 Y34.6338 
G01 X22.5050 Y34.6338 
G01 X21.7832 Y35.3556 
G01 X21.7832 Y36.3764 
G01 X22.5050 Y37.0982 
G01 X23.5258 Y37.0982 
G00 Z2.5400  
G00 X29.6613 Y37.0793 
G01 Z-0.1000 F127   
G01 X29.7007 Y37.1187 F127   
G01 X29.7522 Y37.1400 
G01 X30.9473 Y37.1400 
G01 X32.6536 Y38.8463 
G01 X32.6536 Y40.8719 
G01 X32.6908 Y41.0109 
G01 X32.7628 Y41.1355 
G01 X32.8645 Y41.2372 
G01 X33.4645 Y41.8372 
G01 X33.5891 Y41.9092 
G01 X33.7281 Y41.9464 
G01 X35.9737 Y41.9464 
G01 X36.6645 Y42.6372 
G01 X36.7891 Y42.7092 
G01 X36.9281 Y42.7464 
G01 X51.9719 Y42.7464 
G01 X52.1109 Y42.7092 
G01 X52.2355 Y42.6372 
G01 X52.3372 Y42.5355 
G01 X54.1372 Y40.7355 
G01 X54.2092 Y40.6109 
G01 X54.2464 Y40.4719 
G01 X54.2464 Y40.0383 
G01 X55.3146 Y39.0464 
G01 X59.1600 Y39.0464 
G01 X59.1600 Y39.4278 
G01 X59.1813 Y39.4793 
G01 X59.2207 Y39.5187 
G01 X59.2722 Y39.5400 
G01 X61.1278 Y39.5400 
G01 X61.1793 Y39.5187 
G01 X61.2187 Y39.4793 
G01 X61.2400 Y39.4278 
G01 X61.2400 Y37.5722 
G01 X61.2187 Y37.5207 
G01 X61.1793 Y37.4813 
G01 X61.1278 Y37.4600 
G01 X59.2722 Y37.4600 
G01 X59.2207 Y37.4813 
G01 X59.1813 Y37.5207 
G01 X59.1600 Y37.5722 
G01 X59.1600 Y37.9536 
G01 X55.1101 Y37.9536 
G01 X55.0483 Y37.9513 
G01 X55.0383 Y37.9536 
G01 X55.0281 Y37.9536 
G01 X54.9684 Y37.9696 
G01 X54.9081 Y37.9834 
G01 X54.8990 Y37.9882 
G01 X54.8891 Y37.9908 
G01 X54.8356 Y38.0217 
G01 X54.7809 Y38.0507 
G01 X54.7734 Y38.0576 
G01 X54.7645 Y38.0628 
G01 X54.7208 Y38.1065 
G01 X53.3734 Y39.3576 
G01 X53.3645 Y39.3628 
G01 X53.3208 Y39.4065 
G01 X53.2755 Y39.4485 
G01 X53.2700 Y39.4572 
G01 X53.2628 Y39.4645 
G01 X53.2319 Y39.5180 
G01 X53.1990 Y39.5704 
G01 X53.1960 Y39.5802 
G01 X53.1908 Y39.5891 
G01 X53.1748 Y39.6488 
G01 X53.1566 Y39.7079 
G01 X53.1563 Y39.7181 
G01 X53.1536 Y39.7281 
G01 X53.1536 Y39.7899 
G01 X53.1513 Y39.8517 
G01 X53.1536 Y39.8617 
G01 X53.1536 Y40.1737 
G01 X51.6737 Y41.6536 
G01 X37.2263 Y41.6536 
G01 X36.6372 Y41.0645 
G01 X36.5355 Y40.9628 
G01 X36.4109 Y40.8908 
G01 X36.2719 Y40.8536 
G01 X34.0263 Y40.8536 
G01 X33.7464 Y40.5737 
G01 X33.7464 Y38.5481 
G01 X33.7092 Y38.4091 
G01 X33.6372 Y38.2845 
G01 X31.7200 Y36.3673 
G01 X31.7200 Y35.8327 
G01 X31.8063 Y35.7464 
G01 X35.7019 Y35.7464 
G01 X35.7258 Y35.7400 
G01 X36.2578 Y35.7400 
G01 X36.3093 Y35.7187 
G01 X36.3487 Y35.6793 
G01 X36.3700 Y35.6278 
G01 X36.3700 Y34.7722 
G01 X36.3487 Y34.7207 
G01 X36.3093 Y34.6813 
G01 X36.2578 Y34.6600 
G01 X36.0748 Y34.6600 
G01 X36.0748 Y33.7300 
G01 X36.2578 Y33.7300 
G01 X36.3093 Y33.7087 
G01 X36.3487 Y33.6693 
G01 X36.3700 Y33.6178 
G01 X36.3700 Y32.7621 
G01 X36.3487 Y32.7107 
G01 X36.3093 Y32.6713 
G01 X36.2578 Y32.6500 
G01 X35.7258 Y32.6500 
G01 X35.7019 Y32.6436 
G01 X34.3793 Y32.6436 
G01 X31.9933 Y29.7215 
G01 X31.9098 Y24.4700 
G01 X32.1778 Y24.4700 
G01 X32.2293 Y24.4487 
G01 X32.2687 Y24.4093 
G01 X32.2900 Y24.3578 
G01 X32.2900 Y22.9021 
G01 X32.2687 Y22.8507 
G01 X32.2293 Y22.8113 
G01 X32.1778 Y22.7900 
G01 X30.5221 Y22.7900 
G01 X30.4707 Y22.8113 
G01 X30.4313 Y22.8507 
G01 X30.4100 Y22.9021 
G01 X30.4100 Y24.3578 
G01 X30.4313 Y24.4093 
G01 X30.4707 Y24.4487 
G01 X30.5221 Y24.4700 
G01 X30.8169 Y24.4700 
G01 X30.9032 Y29.8968 
G01 X30.8991 Y29.9367 
G01 X30.9043 Y29.9684 
G01 X30.9048 Y30.0006 
G01 X30.9158 Y30.0391 
G01 X30.9222 Y30.0787 
G01 X30.9354 Y30.1080 
G01 X30.9443 Y30.1390 
G01 X30.9648 Y30.1733 
G01 X30.9813 Y30.2099 
G01 X31.0016 Y30.2348 
G01 X31.0182 Y30.2624 
G01 X31.0469 Y30.2903 
G01 X33.6689 Y33.5014 
G01 X33.6828 Y33.5255 
G01 X33.7142 Y33.5569 
G01 X33.7423 Y33.5913 
G01 X33.7648 Y33.6076 
G01 X33.7845 Y33.6272 
G01 X33.8230 Y33.6494 
G01 X33.8590 Y33.6754 
G01 X33.8850 Y33.6853 
G01 X33.9091 Y33.6992 
G01 X33.9520 Y33.7107 
G01 X33.9935 Y33.7264 
G01 X34.0212 Y33.7292 
G01 X34.0481 Y33.7364 
G01 X34.0925 Y33.7364 
G01 X34.1367 Y33.7409 
G01 X34.1641 Y33.7364 
G01 X35.1852 Y33.7364 
G01 X35.1852 Y34.6536 
G01 X31.5081 Y34.6536 
G01 X31.3691 Y34.6908 
G01 X31.2445 Y34.7628 
G01 X30.9473 Y35.0600 
G01 X29.7522 Y35.0600 
G01 X29.7007 Y35.0813 
G01 X29.6613 Y35.1207 
G01 X29.6400 Y35.1722 
G01 X29.6400 Y37.0278 
G01 X29.6613 Y37.0793 
G00 Z2.5400  
G00 X34.8900 Y37.4278 
G01 Z-0.1000 F127   
G01 X34.9113 Y37.4793 F127   
G01 X34.9507 Y37.5187 
G01 X35.0022 Y37.5400 
G01 X36.2578 Y37.5400 
G01 X36.3011 Y37.5221 
G01 X36.4474 Y37.5384 
G01 X36.4714 Y37.5448 
G01 X36.5054 Y37.5448 
G01 X36.5391 Y37.5485 
G01 X36.5637 Y37.5448 
G01 X37.6586 Y37.5448 
G01 X37.7717 Y37.5145 
G01 X37.8731 Y37.4559 
G01 X37.9559 Y37.3731 
G01 X38.1842 Y37.1448 
G01 X42.4586 Y37.1448 
G01 X42.5717 Y37.1145 
G01 X42.6731 Y37.0559 
G01 X42.7559 Y36.9731 
G01 X43.5842 Y36.1448 
G01 X45.1603 Y36.1448 
G01 X45.1852 Y36.1622 
G01 X45.1852 Y38.1472 
G01 X45.1811 Y38.1513 
G01 X45.1598 Y38.2028 
G01 X45.1598 Y40.2904 
G01 X45.1811 Y40.3419 
G01 X45.2205 Y40.3813 
G01 X45.2719 Y40.4026 
G01 X45.9880 Y40.4026 
G01 X46.0395 Y40.3813 
G01 X46.0789 Y40.3419 
G01 X46.1002 Y40.2904 
G01 X46.1002 Y38.2028 
G01 X46.0789 Y38.1513 
G01 X46.0748 Y38.1472 
G01 X46.0748 Y35.9489 
G01 X46.0782 Y35.9095 
G01 X46.0748 Y35.8906 
G01 X46.0748 Y35.8714 
G01 X46.0645 Y35.8332 
G01 X46.0576 Y35.7942 
G01 X46.0494 Y35.7768 
G01 X46.0445 Y35.7583 
G01 X46.0247 Y35.7240 
G01 X46.0078 Y35.6881 
G01 X45.9955 Y35.6735 
G01 X45.9859 Y35.6569 
G01 X45.9579 Y35.6289 
G01 X45.9324 Y35.5986 
G01 X45.9167 Y35.5876 
G01 X45.9031 Y35.5741 
G01 X45.8688 Y35.5543 
G01 X45.5867 Y35.3576 
G01 X45.5731 Y35.3441 
G01 X45.5388 Y35.3243 
G01 X45.5063 Y35.3016 
G01 X45.4883 Y35.2951 
G01 X45.4717 Y35.2855 
G01 X45.4334 Y35.2753 
G01 X45.3961 Y35.2618 
G01 X45.3771 Y35.2602 
G01 X45.3586 Y35.2552 
G01 X45.3189 Y35.2552 
G01 X45.2795 Y35.2518 
G01 X45.2606 Y35.2552 
G01 X43.3414 Y35.2552 
G01 X43.2283 Y35.2855 
G01 X43.1269 Y35.3441 
G01 X42.2158 Y36.2552 
G01 X37.9414 Y36.2552 
G01 X37.8283 Y36.2855 
G01 X37.7269 Y36.3441 
G01 X37.4158 Y36.6552 
G01 X36.5546 Y36.6552 
G01 X36.3700 Y36.6347 
G01 X36.3700 Y36.5722 
G01 X36.3487 Y36.5207 
G01 X36.3093 Y36.4813 
G01 X36.2578 Y36.4600 
G01 X35.0022 Y36.4600 
G01 X34.9507 Y36.4813 
G01 X34.9113 Y36.5207 
G01 X34.8900 Y36.5722 
G01 X34.8900 Y37.4278 
G00 Z2.5400  
G00 X36.6207 Y35.9187 
G01 Z-0.1000 F127   
G01 X36.6722 Y35.9400 F127   
G01 X38.5278 Y35.9400 
G01 X38.5793 Y35.9187 
G01 X38.6187 Y35.8793 
G01 X38.6400 Y35.8278 
G01 X38.6400 Y35.5029 
G01 X38.7341 Y35.4088 
G01 X38.8287 Y35.2671 
G01 X38.8940 Y35.1097 
G01 X38.9272 Y34.9426 
G01 X38.9272 Y33.3455 
G01 X39.5455 Y32.7272 
G01 X40.4043 Y32.7272 
G01 X40.5715 Y32.6940 
G01 X40.7289 Y32.6287 
G01 X40.8254 Y32.5642 
G01 X40.8706 Y32.5341 
G01 X40.9910 Y32.4136 
G01 X41.0282 Y32.3580 
G01 X41.0857 Y32.2719 
G01 X41.3262 Y31.6912 
G01 X41.4893 Y31.5281 
G01 X41.9675 Y31.0500 
G01 X42.0057 Y31.0245 
G01 X42.0601 Y30.9881 
G01 X42.1411 Y30.9071 
G01 X42.1806 Y30.8676 
G01 X42.2398 Y30.7790 
G01 X42.2753 Y30.7259 
G01 X42.3100 Y30.6422 
G01 X42.3405 Y30.5685 
G01 X42.3575 Y30.4831 
G01 X42.3737 Y30.4014 
G01 X42.3737 Y30.3464 
G01 X42.9787 Y30.3464 
G01 X42.9855 Y30.3717 
G01 X43.0441 Y30.4731 
G01 X43.1269 Y30.5559 
G01 X43.2283 Y30.6145 
G01 X43.3414 Y30.6448 
G01 X43.4586 Y30.6448 
G01 X43.5717 Y30.6145 
G01 X43.6731 Y30.5559 
G01 X43.7809 Y30.4481 
G01 X43.8395 Y30.3467 
G01 X43.8698 Y30.2336 
G01 X43.8698 Y30.1224 
G01 X43.9342 Y30.0109 
G01 X43.9714 Y29.8719 
G01 X43.9714 Y29.7281 
G01 X43.9342 Y29.5891 
G01 X43.8698 Y29.4776 
G01 X43.8698 Y28.8660 
G01 X43.8739 Y28.8619 
G01 X43.8952 Y28.8104 
G01 X43.8952 Y26.7228 
G01 X43.8739 Y26.6713 
G01 X43.8345 Y26.6319 
G01 X43.7830 Y26.6106 
G01 X43.0669 Y26.6106 
G01 X43.0155 Y26.6319 
G01 X42.9761 Y26.6713 
G01 X42.9548 Y26.7228 
G01 X42.9548 Y28.8104 
G01 X42.9761 Y28.8619 
G01 X42.9802 Y28.8660 
G01 X42.9802 Y29.2536 
G01 X41.6281 Y29.2536 
G01 X41.4891 Y29.2908 
G01 X41.4209 Y29.3302 
G01 X41.2544 Y29.1637 
G01 X41.1520 Y28.9164 
G01 X41.1520 Y28.7952 
G01 X41.1188 Y28.6281 
G01 X41.0536 Y28.4707 
G01 X40.9589 Y28.3290 
G01 X40.8384 Y28.2085 
G01 X40.6967 Y28.1138 
G01 X40.1160 Y27.8733 
G01 X39.7267 Y27.4840 
G01 X39.7184 Y27.4640 
G01 X39.6844 Y27.3817 
G01 X39.5897 Y27.2400 
G01 X39.4692 Y27.1196 
G01 X39.3275 Y27.0249 
G01 X39.1701 Y26.9597 
G01 X39.0676 Y26.9393 
G01 X39.0030 Y26.9264 
G01 X38.8326 Y26.9264 
G01 X38.6655 Y26.9597 
G01 X38.5719 Y26.9984 
G01 X38.5081 Y27.0249 
G01 X38.3664 Y27.1196 
G01 X38.2459 Y27.2400 
G01 X38.1512 Y27.3817 
G01 X38.0860 Y27.5391 
G01 X38.0656 Y27.6416 
G01 X38.0528 Y27.7062 
G01 X38.0528 Y29.2488 
G01 X37.9504 Y29.4961 
G01 X37.7611 Y29.6854 
G01 X37.4924 Y29.7967 
G01 X37.3636 Y29.8500 
G01 X37.3350 Y29.8619 
G01 X37.2489 Y29.9194 
G01 X37.1933 Y29.9565 
G01 X37.1321 Y30.0177 
G01 X37.0728 Y30.0770 
G01 X37.0136 Y30.1656 
G01 X36.9782 Y30.2187 
G01 X36.9435 Y30.3024 
G01 X36.9130 Y30.3761 
G01 X36.8960 Y30.4615 
G01 X36.8797 Y30.5432 
G01 X36.8797 Y30.6294 
G01 X36.8797 Y30.7136 
G01 X36.8949 Y30.7897 
G01 X36.9028 Y30.8296 
G01 X36.9028 Y31.9238 
G01 X36.8981 Y31.9352 
G01 X36.8556 Y32.0377 
G01 X36.8433 Y32.0998 
G01 X36.8224 Y32.2048 
G01 X36.8224 Y32.3752 
G01 X36.8457 Y32.4925 
G01 X36.8556 Y32.5423 
G01 X36.8950 Y32.6374 
G01 X36.9028 Y32.6562 
G01 X36.9028 Y33.7238 
G01 X36.8464 Y33.8600 
G01 X36.6722 Y33.8600 
G01 X36.6207 Y33.8813 
G01 X36.5813 Y33.9207 
G01 X36.5600 Y33.9721 
G01 X36.5600 Y35.8278 
G01 X36.5813 Y35.8793 
G01 X36.6207 Y35.9187 
G00 Z2.5400  
G00 X39.5207 Y35.3187 
G01 Z-0.1000 F127   
G01 X39.5722 Y35.3400 F127   
G01 X41.4278 Y35.3400 
G01 X41.4793 Y35.3187 
G01 X41.5187 Y35.2793 
G01 X41.5400 Y35.2278 
G01 X41.5400 Y34.4954 
G01 X41.6848 Y34.4873 
G01 X41.6848 Y34.9572 
G01 X41.7061 Y35.0087 
G01 X41.7455 Y35.0481 
G01 X41.7970 Y35.0694 
G01 X42.5130 Y35.0694 
G01 X42.5645 Y35.0481 
G01 X42.6039 Y35.0087 
G01 X42.6252 Y34.9572 
G01 X42.6252 Y34.1945 
G01 X42.6753 Y34.0952 
G01 X42.7046 Y33.9544 
G01 X42.6965 Y33.8107 
G01 X42.6514 Y33.6741 
G01 X42.6252 Y33.6340 
G01 X42.6252 Y32.8695 
G01 X42.6039 Y32.8181 
G01 X42.5998 Y32.8140 
G01 X42.5998 Y32.4292 
G01 X42.6842 Y32.3448 
G01 X53.5586 Y32.3448 
G01 X53.6717 Y32.3145 
G01 X53.7731 Y32.2559 
G01 X54.6968 Y31.3322 
G01 X56.7200 Y31.3322 
G01 X56.7715 Y31.3109 
G01 X56.8109 Y31.2715 
G01 X56.8322 Y31.2200 
G01 X56.8322 Y28.9799 
G01 X56.8109 Y28.9285 
G01 X56.7715 Y28.8891 
G01 X56.7200 Y28.8678 
G01 X54.4800 Y28.8678 
G01 X54.4285 Y28.8891 
G01 X54.3891 Y28.9285 
G01 X54.3678 Y28.9799 
G01 X54.3678 Y30.4032 
G01 X53.3158 Y31.4552 
G01 X42.4414 Y31.4552 
G01 X42.3283 Y31.4855 
G01 X42.2269 Y31.5441 
G01 X42.1441 Y31.6269 
G01 X41.7991 Y31.9719 
G01 X41.7405 Y32.0733 
G01 X41.7102 Y32.1864 
G01 X41.7102 Y32.8140 
G01 X41.7061 Y32.8181 
G01 X41.6848 Y32.8695 
G01 X41.6848 Y33.3927 
G01 X41.5400 Y33.4009 
G01 X41.5400 Y33.3721 
G01 X41.5187 Y33.3207 
G01 X41.4793 Y33.2813 
G01 X41.4278 Y33.2600 
G01 X39.5722 Y33.2600 
G01 X39.5207 Y33.2813 
G01 X39.4813 Y33.3207 
G01 X39.4600 Y33.3721 
G01 X39.4600 Y35.2278 
G01 X39.4813 Y35.2793 
G01 X39.5207 Y35.3187 
G00 Z2.5400  
G00 X43.0155 Y35.0481 
G01 Z-0.1000 F127   
G01 X43.0669 Y35.0694 F127   
G01 X43.7830 Y35.0694 
G01 X43.8345 Y35.0481 
G01 X43.8739 Y35.0087 
G01 X43.8952 Y34.9572 
G01 X43.8952 Y32.8695 
G01 X43.8739 Y32.8181 
G01 X43.8345 Y32.7787 
G01 X43.7830 Y32.7574 
G01 X43.0669 Y32.7574 
G01 X43.0155 Y32.7787 
G01 X42.9761 Y32.8181 
G01 X42.9548 Y32.8695 
G01 X42.9548 Y34.9572 
G01 X42.9761 Y35.0087 
G01 X43.0155 Y35.0481 
G00 Z2.5400  
G00 X44.2855 Y35.0481 
G01 Z-0.1000 F127   
G01 X44.3370 Y35.0694 F127   
G01 X45.0530 Y35.0694 
G01 X45.1045 Y35.0481 
G01 X45.1439 Y35.0087 
G01 X45.1652 Y34.9572 
G01 X45.1652 Y32.8695 
G01 X45.1439 Y32.8181 
G01 X45.1045 Y32.7787 
G01 X45.0530 Y32.7574 
G01 X44.3370 Y32.7574 
G01 X44.2855 Y32.7787 
G01 X44.2461 Y32.8181 
G01 X44.2248 Y32.8695 
G01 X44.2248 Y34.9572 
G01 X44.2461 Y35.0087 
G01 X44.2855 Y35.0481 
G00 Z2.5400  
G00 X45.5555 Y35.0481 
G01 Z-0.1000 F127   
G01 X45.6069 Y35.0694 F127   
G01 X46.3230 Y35.0694 
G01 X46.3745 Y35.0481 
G01 X46.4139 Y35.0087 
G01 X46.4352 Y34.9572 
G01 X46.4352 Y32.8695 
G01 X46.4139 Y32.8181 
G01 X46.3745 Y32.7787 
G01 X46.3230 Y32.7574 
G01 X45.6069 Y32.7574 
G01 X45.5555 Y32.7787 
G01 X45.5161 Y32.8181 
G01 X45.4948 Y32.8695 
G01 X45.4948 Y34.9572 
G01 X45.5161 Y35.0087 
G01 X45.5555 Y35.0481 
G00 Z2.5400  
G00 X46.8255 Y35.0481 
G01 Z-0.1000 F127   
G01 X46.8770 Y35.0694 F127   
G01 X47.5930 Y35.0694 
G01 X47.6445 Y35.0481 
G01 X47.6839 Y35.0087 
G01 X47.7052 Y34.9572 
G01 X47.7052 Y32.8695 
G01 X47.6839 Y32.8181 
G01 X47.6445 Y32.7787 
G01 X47.5930 Y32.7574 
G01 X46.8770 Y32.7574 
G01 X46.8255 Y32.7787 
G01 X46.7861 Y32.8181 
G01 X46.7648 Y32.8695 
G01 X46.7648 Y34.9572 
G01 X46.7861 Y35.0087 
G01 X46.8255 Y35.0481 
G00 Z2.5400  
G00 X46.9212 Y35.7953 
G01 Z-0.1000 F127   
G01 X46.8007 Y35.9158 F127   
G01 X46.7060 Y36.0575 
G01 X46.6408 Y36.2149 
G01 X46.6076 Y36.3820 
G01 X46.6076 Y36.7780 
G01 X46.6408 Y36.9451 
G01 X46.7060 Y37.1025 
G01 X46.8007 Y37.2442 
G01 X46.9212 Y37.3647 
G01 X47.0629 Y37.4594 
G01 X47.2203 Y37.5246 
G01 X47.3424 Y37.5489 
G01 X47.6113 Y37.6602 
G01 X47.6186 Y37.6675 
G01 X47.6757 Y37.7057 
G01 X47.7252 Y37.7387 
G01 X47.7252 Y38.1472 
G01 X47.7211 Y38.1513 
G01 X47.6998 Y38.2028 
G01 X47.6998 Y40.2904 
G01 X47.7211 Y40.3419 
G01 X47.7605 Y40.3813 
G01 X47.8120 Y40.4026 
G01 X48.5280 Y40.4026 
G01 X48.5795 Y40.3813 
G01 X48.6189 Y40.3419 
G01 X48.6402 Y40.2904 
G01 X48.6402 Y38.2028 
G01 X48.6189 Y38.1513 
G01 X48.6148 Y38.1472 
G01 X48.6148 Y37.7387 
G01 X48.6299 Y37.7287 
G01 X48.7214 Y37.6675 
G01 X48.7287 Y37.6602 
G01 X48.9760 Y37.5578 
G01 X49.9040 Y37.5578 
G01 X50.1513 Y37.6602 
G01 X50.2941 Y37.8030 
G01 X50.4146 Y37.9235 
G01 X50.4877 Y37.9724 
G01 X50.5562 Y38.0181 
G01 X50.7137 Y38.0834 
G01 X50.7501 Y38.0906 
G01 X50.3520 Y38.0906 
G01 X50.3005 Y38.1119 
G01 X50.2611 Y38.1513 
G01 X50.2398 Y38.2028 
G01 X50.2398 Y38.9682 
G01 X50.2008 Y39.0357 
G01 X50.1636 Y39.1747 
G01 X50.1636 Y39.3185 
G01 X50.2008 Y39.4575 
G01 X50.2398 Y39.5250 
G01 X50.2398 Y40.2904 
G01 X50.2611 Y40.3419 
G01 X50.3005 Y40.3813 
G01 X50.3520 Y40.4026 
G01 X51.0680 Y40.4026 
G01 X51.1195 Y40.3813 
G01 X51.1589 Y40.3419 
G01 X51.1802 Y40.2904 
G01 X51.1802 Y39.5491 
G01 X51.3739 Y39.3554 
G01 X51.4678 Y39.4493 
G01 X51.5535 Y39.5065 
G01 X51.6095 Y39.5439 
G01 X51.7444 Y39.5998 
G01 X51.7669 Y39.6091 
G01 X51.8518 Y39.6260 
G01 X51.9340 Y39.6424 
G01 X52.1044 Y39.6424 
G01 X52.2392 Y39.6156 
G01 X52.2715 Y39.6091 
G01 X52.3768 Y39.5655 
G01 X52.4289 Y39.5439 
G01 X52.4872 Y39.5050 
G01 X52.5706 Y39.4493 
G01 X52.6911 Y39.3288 
G01 X52.7483 Y39.2431 
G01 X52.7857 Y39.1871 
G01 X52.7931 Y39.1694 
G01 X52.8887 Y39.0806 
G01 X52.9021 Y39.0717 
G01 X52.9510 Y39.0228 
G01 X53.0017 Y38.9757 
G01 X53.0112 Y38.9626 
G01 X53.1206 Y38.8532 
G01 X53.1593 Y38.8294 
G01 X53.1711 Y38.8184 
G01 X53.1845 Y38.8094 
G01 X53.2334 Y38.7605 
G01 X53.6646 Y38.3601 
G01 X53.7043 Y38.3437 
G01 X53.7437 Y38.3043 
G01 X53.7555 Y38.2757 
G01 X54.2886 Y37.7807 
G01 X54.3021 Y37.7717 
G01 X54.3510 Y37.7228 
G01 X54.4017 Y37.6757 
G01 X54.4111 Y37.6626 
G01 X54.5034 Y37.5704 
G01 X54.6257 Y37.5249 
G01 X54.6415 Y37.5218 
G01 X54.7054 Y37.4953 
G01 X54.7703 Y37.4712 
G01 X54.7841 Y37.4627 
G01 X54.9046 Y37.4128 
G01 X55.0349 Y37.4176 
G01 X55.0508 Y37.4208 
G01 X55.1200 Y37.4208 
G01 X55.1891 Y37.4234 
G01 X55.2050 Y37.4208 
G01 X58.2546 Y37.4208 
G01 X58.3230 Y37.4072 
G01 X58.4217 Y37.3876 
G01 X58.5792 Y37.3224 
G01 X58.6533 Y37.2728 
G01 X58.7208 Y37.2277 
G01 X58.7268 Y37.2217 
G01 X58.8413 Y37.1072 
G01 X58.9189 Y37.0296 
G01 X59.1662 Y36.9272 
G01 X61.2338 Y36.9272 
G01 X61.4811 Y37.0296 
G01 X61.6704 Y37.2189 
G01 X61.7728 Y37.4662 
G01 X61.7728 Y39.5338 
G01 X61.6704 Y39.7811 
G01 X61.4811 Y39.9704 
G01 X61.2338 Y40.0728 
G01 X59.1662 Y40.0728 
G01 X58.9189 Y39.9704 
G01 X58.8413 Y39.8928 
G01 X58.7208 Y39.7723 
G01 X58.6477 Y39.7234 
G01 X58.5792 Y39.6776 
G01 X58.4217 Y39.6124 
G01 X58.3192 Y39.5920 
G01 X58.2546 Y39.5792 
G01 X55.8794 Y39.5792 
G01 X55.8103 Y39.5766 
G01 X55.7944 Y39.5792 
G01 X55.7783 Y39.5792 
G01 X55.7104 Y39.5927 
G01 X55.6421 Y39.6037 
G01 X55.6270 Y39.6093 
G01 X55.6112 Y39.6124 
G01 X55.5473 Y39.6389 
G01 X55.4824 Y39.6630 
G01 X55.4686 Y39.6715 
G01 X55.4537 Y39.6776 
G01 X55.3962 Y39.7161 
G01 X55.3373 Y39.7524 
G01 X55.3255 Y39.7633 
G01 X55.3121 Y39.7723 
G01 X55.2631 Y39.8212 
G01 X55.1062 Y39.9669 
G01 X55.0928 Y39.9759 
G01 X55.0439 Y40.0248 
G01 X54.9932 Y40.0719 
G01 X54.9837 Y40.0850 
G01 X54.9723 Y40.0964 
G01 X54.9339 Y40.1539 
G01 X54.8933 Y40.2100 
G01 X54.8866 Y40.2247 
G01 X54.8776 Y40.2381 
G01 X54.8512 Y40.3020 
G01 X54.8223 Y40.3649 
G01 X54.8186 Y40.3806 
G01 X54.8124 Y40.3955 
G01 X54.7989 Y40.4634 
G01 X54.7829 Y40.5306 
G01 X54.7823 Y40.5468 
G01 X54.7792 Y40.5626 
G01 X54.7792 Y40.6147 
G01 X54.6149 Y41.0113 
G01 X52.9968 Y42.6294 
G01 X52.5113 Y43.1149 
G01 X52.3087 Y43.1988 
G01 X52.2189 Y43.2360 
G01 X52.1513 Y43.2640 
G01 X52.0791 Y43.3123 
G01 X52.0096 Y43.3587 
G01 X51.9489 Y43.4194 
G01 X51.8891 Y43.4792 
G01 X51.8419 Y43.5498 
G01 X51.7945 Y43.6208 
G01 X51.7634 Y43.6959 
G01 X51.7293 Y43.7783 
G01 X51.7157 Y43.8466 
G01 X51.6960 Y43.9454 
G01 X51.6960 Y44.0316 
G01 X51.6960 Y44.1158 
G01 X51.7130 Y44.2010 
G01 X51.7130 Y46.5432 
G01 X51.6106 Y46.7905 
G01 X51.4213 Y46.9798 
G01 X51.1740 Y47.0822 
G01 X48.9760 Y47.0822 
G01 X48.7287 Y46.9798 
G01 X48.7214 Y46.9725 
G01 X48.6261 Y46.9088 
G01 X48.6148 Y46.9013 
G01 X48.6148 Y46.4928 
G01 X48.6189 Y46.4887 
G01 X48.6402 Y46.4372 
G01 X48.6402 Y44.3496 
G01 X48.6189 Y44.2981 
G01 X48.5795 Y44.2587 
G01 X48.5280 Y44.2374 
G01 X47.8120 Y44.2374 
G01 X47.7605 Y44.2587 
G01 X47.7211 Y44.2981 
G01 X47.6998 Y44.3496 
G01 X47.6998 Y46.4372 
G01 X47.7211 Y46.4887 
G01 X47.7252 Y46.4928 
G01 X47.7252 Y46.9012 
G01 X47.6734 Y46.9358 
G01 X47.6186 Y46.9725 
G01 X47.6113 Y46.9798 
G01 X47.3640 Y47.0822 
G01 X46.4360 Y47.0822 
G01 X46.1887 Y46.9798 
G01 X46.0748 Y46.8659 
G01 X46.0748 Y46.4928 
G01 X46.0789 Y46.4887 
G01 X46.1002 Y46.4372 
G01 X46.1002 Y44.3496 
G01 X46.0789 Y44.2981 
G01 X46.0395 Y44.2587 
G01 X45.9880 Y44.2374 
G01 X45.2719 Y44.2374 
G01 X45.2205 Y44.2587 
G01 X45.1811 Y44.2981 
G01 X45.1598 Y44.3496 
G01 X45.1598 Y46.4372 
G01 X45.1811 Y46.4887 
G01 X45.1852 Y46.4928 
G01 X45.1852 Y46.5119 
G01 X45.0606 Y46.5119 
G01 X44.9858 Y46.5268 
G01 X44.8302 Y46.3712 
G01 X44.8302 Y44.3496 
G01 X44.8089 Y44.2981 
G01 X44.7695 Y44.2587 
G01 X44.7180 Y44.2374 
G01 X44.0020 Y44.2374 
G01 X43.9505 Y44.2587 
G01 X43.9111 Y44.2981 
G01 X43.8898 Y44.3496 
G01 X43.8898 Y46.4372 
G01 X43.9111 Y46.4887 
G01 X43.9152 Y46.4928 
G01 X43.9152 Y46.5886 
G01 X43.9455 Y46.7017 
G01 X44.0041 Y46.8031 
G01 X44.3174 Y47.1165 
G01 X44.3140 Y47.1246 
G01 X44.2808 Y47.2917 
G01 X44.2808 Y48.8349 
G01 X44.1010 Y49.2689 
G01 X44.0023 Y49.3676 
G01 X43.9639 Y49.4251 
G01 X43.9076 Y49.5093 
G01 X43.8424 Y49.6667 
G01 X43.8287 Y49.7360 
G01 X43.8092 Y49.8338 
G01 X43.8092 Y50.0042 
G01 X43.8228 Y50.0725 
G01 X43.8424 Y50.1713 
G01 X43.9076 Y50.3287 
G01 X43.9407 Y50.3783 
G01 X44.0023 Y50.4704 
G01 X44.1228 Y50.5909 
G01 X44.1803 Y50.6293 
G01 X44.2644 Y50.6855 
G01 X44.4219 Y50.7508 
G01 X44.4911 Y50.7645 
G01 X44.5890 Y50.7840 
G01 X59.8442 Y50.7840 
G01 X60.0113 Y50.7508 
G01 X60.1687 Y50.6855 
G01 X60.3104 Y50.5909 
G01 X60.4309 Y50.4704 
G01 X60.5256 Y50.3287 
G01 X60.5908 Y50.1713 
G01 X60.6240 Y50.0042 
G01 X60.6240 Y49.2740 
G01 X60.7927 Y48.6443 
G01 X61.1187 Y48.0797 
G01 X61.5797 Y47.6187 
G01 X62.1443 Y47.2927 
G01 X62.7740 Y47.1240 
G01 X63.4260 Y47.1240 
G01 X64.0557 Y47.2927 
G01 X64.6203 Y47.6187 
G01 X65.0813 Y48.0797 
G01 X65.4073 Y48.6443 
G01 X65.5760 Y49.2740 
G01 X65.5760 Y50.0042 
G01 X65.6092 Y50.1713 
G01 X65.6744 Y50.3287 
G01 X65.7691 Y50.4704 
G01 X65.8896 Y50.5909 
G01 X66.0313 Y50.6855 
G01 X66.1887 Y50.7508 
G01 X66.3558 Y50.7840 
G01 X71.2712 Y50.7840 
G01 X71.3564 Y50.7840 
G01 X71.4408 Y50.7840 
G01 X71.5251 Y50.7672 
G01 X71.6079 Y50.7508 
G01 X71.6874 Y50.7178 
G01 X71.7653 Y50.6855 
G01 X71.8370 Y50.6377 
G01 X71.9070 Y50.5909 
G01 X71.9676 Y50.5303 
G01 X72.0275 Y50.4704 
G01 X72.0754 Y50.3987 
G01 X72.1221 Y50.3287 
G01 X72.1550 Y50.2495 
G01 X72.1874 Y50.1713 
G01 X72.2040 Y50.0874 
G01 X72.2206 Y50.0042 
G01 X72.2206 Y49.9187 
G01 X72.2206 Y49.8338 
G01 X72.2195 Y49.3402 
G01 X72.2195 Y49.2564 
G01 X72.2027 Y49.1721 
G01 X72.1863 Y49.0893 
G01 X72.1534 Y49.0099 
G01 X72.1210 Y48.9319 
G01 X72.0732 Y48.8602 
G01 X72.0264 Y48.7902 
G01 X71.9658 Y48.7296 
G01 X71.9059 Y48.6697 
G01 X71.8343 Y48.6218 
G01 X71.7642 Y48.5750 
G01 X71.6850 Y48.5422 
G01 X71.6068 Y48.5098 
G01 X71.5709 Y48.5026 
G01 X73.0024 Y48.5026 
G01 X73.0539 Y48.4813 
G01 X73.0933 Y48.4419 
G01 X73.1146 Y48.3904 
G01 X73.1146 Y46.0487 
G01 X73.0933 Y45.9973 
G01 X73.0539 Y45.9579 
G01 X73.0024 Y45.9366 
G01 X67.8734 Y45.9366 
G01 X67.9192 Y45.8908 
G01 X68.0139 Y45.7491 
G01 X68.0640 Y45.6280 
G01 X68.0791 Y45.5917 
G01 X68.0928 Y45.5224 
G01 X68.1123 Y45.4246 
G01 X68.1123 Y45.2542 
G01 X68.0899 Y45.1417 
G01 X68.0791 Y45.0871 
G01 X68.0625 Y45.0470 
G01 X68.0139 Y44.9297 
G01 X67.9192 Y44.7880 
G01 X67.7987 Y44.6675 
G01 X67.6570 Y44.5728 
G01 X67.5560 Y44.5310 
G01 X67.5135 Y44.5134 
G01 X67.3839 Y44.3838 
G01 X67.3235 Y44.3233 
G01 X67.2635 Y44.2633 
G01 X67.1931 Y44.2163 
G01 X67.1218 Y44.1687 
G01 X67.0416 Y44.1355 
G01 X66.9644 Y44.1035 
G01 X66.8796 Y44.0866 
G01 X66.7973 Y44.0702 
G01 X66.7117 Y44.0702 
G01 X66.6269 Y44.0702 
G01 X66.6139 Y44.0728 
G01 X64.4662 Y44.0728 
G01 X64.2189 Y43.9704 
G01 X64.0296 Y43.7811 
G01 X63.9272 Y43.5338 
G01 X63.9272 Y41.4662 
G01 X64.0296 Y41.2189 
G01 X64.2189 Y41.0296 
G01 X64.4662 Y40.9272 
G01 X66.5338 Y40.9272 
G01 X66.8064 Y41.0401 
G01 X66.9143 Y41.0848 
G01 X66.9638 Y41.1053 
G01 X67.0543 Y41.1233 
G01 X67.1309 Y41.1385 
G01 X67.2171 Y41.1385 
G01 X67.3013 Y41.1385 
G01 X67.3848 Y41.1219 
G01 X67.4684 Y41.1053 
G01 X67.5281 Y41.0806 
G01 X67.6258 Y41.0401 
G01 X67.6570 Y41.0272 
G01 X67.7454 Y40.9681 
G01 X67.7987 Y40.9325 
G01 X67.8580 Y40.8732 
G01 X67.9192 Y40.8120 
G01 X67.9747 Y40.7290 
G01 X68.0139 Y40.6703 
G01 X68.0433 Y40.5993 
G01 X68.0791 Y40.5129 
G01 X68.0956 Y40.4299 
G01 X68.1123 Y40.3458 
G01 X68.1123 Y40.2615 
G01 X68.1123 Y40.1754 
G01 X68.1035 Y40.1313 
G01 X68.0791 Y40.0083 
G01 X68.0138 Y39.8509 
G01 X67.9548 Y39.7625 
G01 X67.9192 Y39.7092 
G01 X67.8734 Y39.6634 
G01 X73.0024 Y39.6634 
G01 X73.0539 Y39.6421 
G01 X73.0933 Y39.6027 
G01 X73.1146 Y39.5512 
G01 X73.1146 Y37.2096 
G01 X73.0933 Y37.1581 
G01 X73.0539 Y37.1187 
G01 X73.0024 Y37.0974 
G01 X71.5454 Y37.0974 
G01 X71.5818 Y37.0902 
G01 X71.6609 Y37.0574 
G01 X71.7393 Y37.0249 
G01 X71.8107 Y36.9772 
G01 X71.8809 Y36.9303 
G01 X71.9419 Y36.8693 
G01 X72.0014 Y36.8098 
G01 X72.0494 Y36.7379 
G01 X72.0961 Y36.6681 
G01 X72.1290 Y36.5888 
G01 X72.1613 Y36.5107 
G01 X72.1781 Y36.4264 
G01 X72.1945 Y36.3436 
G01 X72.1945 Y36.2568 
G01 X72.1945 Y36.1732 
G01 X72.1884 Y33.0415 
G01 X72.1884 Y32.9564 
G01 X72.1718 Y32.8728 
G01 X72.1551 Y32.7893 
G01 X72.1224 Y32.7103 
G01 X72.0899 Y32.6319 
G01 X72.0422 Y32.5604 
G01 X71.9953 Y32.4902 
G01 X71.9343 Y32.4292 
G01 X71.8748 Y32.3697 
G01 X71.8030 Y32.3217 
G01 X71.7331 Y32.2750 
G01 X71.6538 Y32.2422 
G01 X71.5757 Y32.2098 
G01 X71.5398 Y32.2026 
G01 X73.1024 Y32.2026 
G01 X73.1539 Y32.1813 
G01 X73.1933 Y32.1419 
G01 X73.2146 Y32.0904 
G01 X73.2146 Y29.7488 
G01 X73.1933 Y29.6973 
G01 X73.1539 Y29.6579 
G01 X73.1024 Y29.6366 
G01 X67.9734 Y29.6366 
G01 X68.0192 Y29.5908 
G01 X68.0953 Y29.4769 
G01 X68.1138 Y29.4491 
G01 X68.1445 Y29.3751 
G01 X68.1791 Y29.2917 
G01 X68.1796 Y29.2889 
G01 X68.2123 Y29.1246 
G01 X68.2123 Y28.9542 
G01 X68.1941 Y28.8626 
G01 X68.1791 Y28.7871 
G01 X68.1736 Y28.7740 
G01 X68.1139 Y28.6297 
G01 X68.0637 Y28.5546 
G01 X68.0192 Y28.4880 
G01 X67.8987 Y28.3675 
G01 X67.7849 Y28.2914 
G01 X67.7570 Y28.2728 
G01 X67.6818 Y28.2416 
G01 X67.5996 Y28.2076 
G01 X67.5770 Y28.1982 
G01 X67.4098 Y28.1650 
G01 X65.4740 Y28.1650 
G01 X65.3052 Y28.0951 
G01 X65.2224 Y28.0608 
G01 X65.1478 Y28.0299 
G01 X65.0624 Y28.0129 
G01 X64.9807 Y27.9967 
G01 X64.8945 Y27.9967 
G01 X64.8103 Y27.9967 
G01 X64.7343 Y28.0118 
G01 X64.6432 Y28.0299 
G01 X64.5849 Y28.0540 
G01 X64.4858 Y28.0951 
G01 X64.3986 Y28.1534 
G01 X64.3441 Y28.1898 
G01 X64.2631 Y28.2707 
G01 X64.2236 Y28.3102 
G01 X64.1695 Y28.3913 
G01 X64.1290 Y28.4519 
G01 X64.0943 Y28.5357 
G01 X64.0637 Y28.6093 
G01 X64.0468 Y28.6948 
G01 X64.0305 Y28.7765 
G01 X64.0305 Y28.8626 
G01 X64.0305 Y28.9468 
G01 X64.0456 Y29.0229 
G01 X64.0637 Y29.1140 
G01 X64.0826 Y29.1595 
G01 X64.0826 Y30.6080 
G01 X64.0320 Y30.6586 
G01 X63.9831 Y30.7318 
G01 X63.9373 Y30.8003 
G01 X63.8721 Y30.9577 
G01 X63.8517 Y31.0602 
G01 X63.8389 Y31.1248 
G01 X63.8389 Y31.2952 
G01 X63.8721 Y31.4623 
G01 X63.8999 Y31.5294 
G01 X63.9373 Y31.6197 
G01 X64.0320 Y31.7614 
G01 X64.0826 Y31.8120 
G01 X64.0826 Y33.1480 
G01 X63.1380 Y34.0926 
G01 X61.8020 Y34.0926 
G01 X61.4768 Y33.7673 
G01 X61.3563 Y33.6468 
G01 X61.3074 Y33.6142 
G01 X61.2146 Y33.5522 
G01 X61.0572 Y33.4870 
G01 X60.8901 Y33.4537 
G01 X60.7950 Y33.4537 
G01 X60.7950 Y33.1420 
G01 X61.0098 Y32.9273 
G01 X61.0098 Y32.0327 
G01 X60.3773 Y31.4002 
G01 X59.4827 Y31.4002 
G01 X59.2680 Y31.6150 
G01 X58.7767 Y31.6150 
G01 X58.7265 Y31.5398 
G01 X58.6831 Y31.4749 
G01 X58.6225 Y31.4143 
G01 X58.5626 Y31.3544 
G01 X58.4867 Y31.3037 
G01 X58.4209 Y31.2597 
G01 X58.3375 Y31.2252 
G01 X58.2635 Y31.1945 
G01 X58.1825 Y31.1784 
G01 X58.0964 Y31.1613 
G01 X58.0107 Y31.1613 
G01 X57.9260 Y31.1613 
G01 X57.8388 Y31.1786 
G01 X57.7589 Y31.1945 
G01 X57.6769 Y31.2285 
G01 X57.6015 Y31.2597 
G01 X57.5247 Y31.3110 
G01 X57.4598 Y31.3544 
G01 X57.3992 Y31.4150 
G01 X57.3393 Y31.4749 
G01 X57.2957 Y31.5402 
G01 X57.0733 Y31.7626 
G01 X56.8260 Y31.8650 
G01 X55.1906 Y31.8650 
G01 X55.0235 Y31.8982 
G01 X54.8661 Y31.9634 
G01 X54.7244 Y32.0581 
G01 X54.3475 Y32.4350 
G01 X54.2471 Y32.4350 
G01 X54.1957 Y32.4563 
G01 X54.1563 Y32.4957 
G01 X54.1350 Y32.5472 
G01 X54.1350 Y32.6475 
G01 X54.0538 Y32.7288 
G01 X53.6945 Y32.8776 
G01 X52.8278 Y32.8776 
G01 X52.6607 Y32.9108 
G01 X52.5033 Y32.9760 
G01 X52.3616 Y33.0707 
G01 X52.2411 Y33.1912 
G01 X52.1464 Y33.3329 
G01 X52.0812 Y33.4903 
G01 X52.0480 Y33.6574 
G01 X52.0480 Y35.0632 
G01 X51.9456 Y35.3105 
G01 X51.7563 Y35.4998 
G01 X51.5090 Y35.6022 
G01 X47.3874 Y35.6022 
G01 X47.2203 Y35.6354 
G01 X47.0629 Y35.7006 
G01 X46.9212 Y35.7953 
G00 Z2.5400  
G00 X48.0955 Y35.0481 
G01 Z-0.1000 F127   
G01 X48.1469 Y35.0694 F127   
G01 X48.8630 Y35.0694 
G01 X48.9145 Y35.0481 
G01 X48.9539 Y35.0087 
G01 X48.9752 Y34.9572 
G01 X48.9752 Y32.8695 
G01 X48.9539 Y32.8181 
G01 X48.9145 Y32.7787 
G01 X48.8630 Y32.7574 
G01 X48.1469 Y32.7574 
G01 X48.0955 Y32.7787 
G01 X48.0561 Y32.8181 
G01 X48.0348 Y32.8695 
G01 X48.0348 Y34.9572 
G01 X48.0561 Y35.0087 
G01 X48.0955 Y35.0481 
G00 Z2.5400  
G00 X49.3655 Y35.0481 
G01 Z-0.1000 F127   
G01 X49.4169 Y35.0694 F127   
G01 X50.1330 Y35.0694 
G01 X50.1845 Y35.0481 
G01 X50.2239 Y35.0087 
G01 X50.2452 Y34.9572 
G01 X50.2452 Y32.8695 
G01 X50.2239 Y32.8181 
G01 X50.1845 Y32.7787 
G01 X50.1330 Y32.7574 
G01 X49.4169 Y32.7574 
G01 X49.3655 Y32.7787 
G01 X49.3261 Y32.8181 
G01 X49.3048 Y32.8695 
G01 X49.3048 Y34.9572 
G01 X49.3261 Y35.0087 
G01 X49.3655 Y35.0481 
G00 Z2.5400  
G00 X50.6355 Y35.0481 
G01 Z-0.1000 F127   
G01 X50.6870 Y35.0694 F127   
G01 X51.4030 Y35.0694 
G01 X51.4545 Y35.0481 
G01 X51.4939 Y35.0087 
G01 X51.5152 Y34.9572 
G01 X51.5152 Y32.8695 
G01 X51.4939 Y32.8181 
G01 X51.4545 Y32.7787 
G01 X51.4030 Y32.7574 
G01 X50.6870 Y32.7574 
G01 X50.6355 Y32.7787 
G01 X50.5961 Y32.8181 
G01 X50.5748 Y32.8695 
G01 X50.5748 Y34.9572 
G01 X50.5961 Y35.0087 
G01 X50.6355 Y35.0481 
G00 Z2.5400  
G00 X49.8495 Y38.1119 
G01 Z-0.1000 F127   
G01 X49.7980 Y38.0906 F127   
G01 X49.0819 Y38.0906 
G01 X49.0305 Y38.1119 
G01 X48.9911 Y38.1513 
G01 X48.9698 Y38.2028 
G01 X48.9698 Y40.2904 
G01 X48.9911 Y40.3419 
G01 X49.0305 Y40.3813 
G01 X49.0819 Y40.4026 
G01 X49.7980 Y40.4026 
G01 X49.8495 Y40.3813 
G01 X49.8889 Y40.3419 
G01 X49.9102 Y40.2904 
G01 X49.9102 Y38.2028 
G01 X49.8889 Y38.1513 
G01 X49.8495 Y38.1119 
G00 Z2.5400  
G00 X47.3095 Y38.1119 
G01 Z-0.1000 F127   
G01 X47.2580 Y38.0906 F127   
G01 X46.5419 Y38.0906 
G01 X46.4905 Y38.1119 
G01 X46.4511 Y38.1513 
G01 X46.4298 Y38.2028 
G01 X46.4298 Y40.2904 
G01 X46.4511 Y40.3419 
G01 X46.4905 Y40.3813 
G01 X46.5419 Y40.4026 
G01 X47.2580 Y40.4026 
G01 X47.3095 Y40.3813 
G01 X47.3489 Y40.3419 
G01 X47.3702 Y40.2904 
G01 X47.3702 Y38.2028 
G01 X47.3489 Y38.1513 
G01 X47.3095 Y38.1119 
G00 Z2.5400  
G00 X44.8048 Y38.1472 
G01 Z-0.1000 F127   
G01 X44.8048 Y37.6773 F127   
G01 X44.8543 Y37.6032 
G01 X44.9185 Y37.4483 
G01 X44.9512 Y37.2838 
G01 X44.9512 Y37.1162 
G01 X44.9185 Y36.9517 
G01 X44.8543 Y36.7968 
G01 X44.7612 Y36.6574 
G01 X44.6426 Y36.5388 
G01 X44.5032 Y36.4457 
G01 X44.3483 Y36.3815 
G01 X44.1838 Y36.3488 
G01 X44.0162 Y36.3488 
G01 X43.8517 Y36.3815 
G01 X43.6968 Y36.4457 
G01 X43.5574 Y36.5388 
G01 X43.4388 Y36.6574 
G01 X43.3457 Y36.7968 
G01 X43.2815 Y36.9517 
G01 X43.2488 Y37.1162 
G01 X43.2488 Y37.2838 
G01 X43.2815 Y37.4483 
G01 X43.3457 Y37.6032 
G01 X43.4388 Y37.7426 
G01 X43.5574 Y37.8612 
G01 X43.6968 Y37.9543 
G01 X43.8517 Y38.0185 
G01 X43.9152 Y38.0311 
G01 X43.9152 Y38.1472 
G01 X43.9111 Y38.1513 
G01 X43.8898 Y38.2028 
G01 X43.8898 Y40.2904 
G01 X43.9111 Y40.3419 
G01 X43.9505 Y40.3813 
G01 X44.0020 Y40.4026 
G01 X44.7180 Y40.4026 
G01 X44.7695 Y40.3813 
G01 X44.8089 Y40.3419 
G01 X44.8302 Y40.2904 
G01 X44.8302 Y38.2028 
G01 X44.8089 Y38.1513 
G01 X44.8048 Y38.1472 
G00 Z2.5400  
G00 X43.5389 Y38.1513 
G01 Z-0.1000 F127   
G01 X43.4995 Y38.1119 F127   
G01 X43.4480 Y38.0906 
G01 X42.7319 Y38.0906 
G01 X42.6805 Y38.1119 
G01 X42.6411 Y38.1513 
G01 X42.6198 Y38.2028 
G01 X42.6198 Y38.5046 
G01 X42.6058 Y38.5010 
G01 X42.5973 Y38.5012 
G01 X42.5889 Y38.4994 
G01 X42.5388 Y38.5020 
G01 X42.4887 Y38.5027 
G01 X42.4805 Y38.5050 
G01 X42.4719 Y38.5054 
G01 X42.4242 Y38.5209 
G01 X42.3760 Y38.5345 
G01 X42.3687 Y38.5389 
G01 X42.3605 Y38.5415 
G01 X42.3185 Y38.5688 
G01 X42.2754 Y38.5945 
G01 X42.2694 Y38.6006 
G01 X42.1076 Y38.7055 
G01 X41.9596 Y38.6442 
G01 X41.7877 Y38.6100 
G01 X41.6123 Y38.6100 
G01 X41.4404 Y38.6442 
G01 X41.2784 Y38.7113 
G01 X41.1327 Y38.8087 
G01 X41.0087 Y38.9327 
G01 X40.9113 Y39.0784 
G01 X40.8442 Y39.2404 
G01 X40.8100 Y39.4123 
G01 X40.8100 Y39.5877 
G01 X40.8442 Y39.7596 
G01 X40.9113 Y39.9216 
G01 X41.0087 Y40.0673 
G01 X41.1327 Y40.1913 
G01 X41.2784 Y40.2887 
G01 X41.4404 Y40.3558 
G01 X41.6123 Y40.3900 
G01 X41.7877 Y40.3900 
G01 X41.9596 Y40.3558 
G01 X42.1216 Y40.2887 
G01 X42.2673 Y40.1913 
G01 X42.3913 Y40.0673 
G01 X42.4887 Y39.9216 
G01 X42.5558 Y39.7596 
G01 X42.5900 Y39.5877 
G01 X42.5900 Y39.4766 
G01 X42.6198 Y39.4933 
G01 X42.6198 Y40.2904 
G01 X42.6411 Y40.3419 
G01 X42.6805 Y40.3813 
G01 X42.7319 Y40.4026 
G01 X43.4480 Y40.4026 
G01 X43.4995 Y40.3813 
G01 X43.5389 Y40.3419 
G01 X43.5602 Y40.2904 
G01 X43.5602 Y38.2028 
G01 X43.5389 Y38.1513 
G00 Z2.5400  
G00 X46.4511 Y44.2981 
G01 Z-0.1000 F127   
G01 X46.4298 Y44.3496 F127   
G01 X46.4298 Y46.4372 
G01 X46.4511 Y46.4887 
G01 X46.4905 Y46.5281 
G01 X46.5419 Y46.5494 
G01 X47.2580 Y46.5494 
G01 X47.3095 Y46.5281 
G01 X47.3489 Y46.4887 
G01 X47.3702 Y46.4372 
G01 X47.3702 Y44.3496 
G01 X47.3489 Y44.2981 
G01 X47.3095 Y44.2587 
G01 X47.2580 Y44.2374 
G01 X46.5419 Y44.2374 
G01 X46.4905 Y44.2587 
G01 X46.4511 Y44.2981 
G00 Z2.5400  
G00 X48.9911 Y44.2981 
G01 Z-0.1000 F127   
G01 X48.9698 Y44.3496 F127   
G01 X48.9698 Y46.4372 
G01 X48.9911 Y46.4887 
G01 X49.0305 Y46.5281 
G01 X49.0819 Y46.5494 
G01 X49.7980 Y46.5494 
G01 X49.8495 Y46.5281 
G01 X49.8889 Y46.4887 
G01 X49.9102 Y46.4372 
G01 X49.9102 Y44.3496 
G01 X49.8889 Y44.2981 
G01 X49.8495 Y44.2587 
G01 X49.7980 Y44.2374 
G01 X49.0819 Y44.2374 
G01 X49.0305 Y44.2587 
G01 X48.9911 Y44.2981 
G00 Z2.5400  
G00 X50.2611 Y44.2981 
G01 Z-0.1000 F127   
G01 X50.2398 Y44.3496 F127   
G01 X50.2398 Y46.4372 
G01 X50.2611 Y46.4887 
G01 X50.3005 Y46.5281 
G01 X50.3520 Y46.5494 
G01 X51.0680 Y46.5494 
G01 X51.1195 Y46.5281 
G01 X51.1589 Y46.4887 
G01 X51.1802 Y46.4372 
G01 X51.1802 Y44.3496 
G01 X51.1589 Y44.2981 
G01 X51.1195 Y44.2587 
G01 X51.0680 Y44.2374 
G01 X50.3520 Y44.2374 
G01 X50.3005 Y44.2587 
G01 X50.2611 Y44.2981 
G00 Z2.5400  
G00 X41.6262 Y46.3677 
G01 Z-0.1000 F127   
G01 X41.6152 Y46.3599 F127   
G01 X41.6056 Y46.3503 
G01 X41.5459 Y46.3105 
G01 X41.4875 Y46.2687 
G01 X41.4752 Y46.2632 
G01 X41.4639 Y46.2557 
G01 X41.3976 Y46.2282 
G01 X41.3322 Y46.1987 
G01 X41.3190 Y46.1956 
G01 X41.3065 Y46.1905 
G01 X41.2953 Y46.1882 
G01 X41.2864 Y46.1823 
G01 X41.2280 Y46.1406 
G01 X41.2157 Y46.1350 
G01 X41.2044 Y46.1275 
G01 X41.1381 Y46.1001 
G01 X41.1236 Y46.0935 
G01 X41.0878 Y46.0577 
G01 X41.0386 Y46.0054 
G01 X41.0276 Y45.9975 
G01 X41.0181 Y45.9880 
G01 X40.9584 Y45.9481 
G01 X40.9171 Y45.9186 
G01 X40.9083 Y45.9054 
G01 X40.8703 Y45.8445 
G01 X40.8610 Y45.8347 
G01 X40.8535 Y45.8234 
G01 X40.8165 Y45.7864 
G01 X40.8028 Y45.7727 
G01 X40.7536 Y45.7204 
G01 X40.7426 Y45.7125 
G01 X40.6960 Y45.6659 
G01 X40.5543 Y45.5712 
G01 X40.3969 Y45.5060 
G01 X40.2298 Y45.4728 
G01 X39.5662 Y45.4728 
G01 X39.3189 Y45.3704 
G01 X39.1296 Y45.1811 
G01 X39.0272 Y44.9338 
G01 X39.0272 Y44.0590 
G01 X38.9940 Y43.8919 
G01 X38.9288 Y43.7345 
G01 X38.8341 Y43.5928 
G01 X38.7136 Y43.4723 
G01 X38.5719 Y43.3776 
G01 X38.4145 Y43.3124 
G01 X38.2474 Y43.2792 
G01 X36.7853 Y43.2792 
G01 X36.3887 Y43.1149 
G01 X36.0666 Y42.7928 
G01 X35.9461 Y42.6723 
G01 X35.8044 Y42.5776 
G01 X35.6470 Y42.5124 
G01 X35.4799 Y42.4792 
G01 X34.7839 Y42.4792 
G01 X34.7155 Y42.4928 
G01 X34.6168 Y42.5124 
G01 X34.4593 Y42.5776 
G01 X34.4098 Y42.6107 
G01 X34.3177 Y42.6723 
G01 X34.1972 Y42.7928 
G01 X34.1514 Y42.8613 
G01 X34.1025 Y42.9345 
G01 X34.0750 Y43.0010 
G01 X34.0373 Y43.0919 
G01 X34.0041 Y43.2590 
G01 X34.0041 Y43.4294 
G01 X34.0177 Y43.4978 
G01 X34.0373 Y43.5965 
G01 X34.1025 Y43.7539 
G01 X34.1356 Y43.8035 
G01 X34.1972 Y43.8956 
G01 X34.1997 Y43.8981 
G01 X34.3177 Y44.0161 
G01 X34.3813 Y44.0797 
G01 X34.7073 Y44.6443 
G01 X34.8760 Y45.2740 
G01 X34.8760 Y45.9260 
G01 X34.7073 Y46.5557 
G01 X34.3813 Y47.1203 
G01 X34.3193 Y47.1823 
G01 X34.1988 Y47.3028 
G01 X34.1347 Y47.3987 
G01 X34.1041 Y47.4445 
G01 X34.0389 Y47.6019 
G01 X34.0185 Y47.7044 
G01 X34.0057 Y47.7690 
G01 X34.0057 Y47.9394 
G01 X34.0389 Y48.1065 
G01 X34.0777 Y48.2000 
G01 X34.1041 Y48.2639 
G01 X34.1493 Y48.3315 
G01 X34.1988 Y48.4056 
G01 X34.3193 Y48.5261 
G01 X34.4152 Y48.5902 
G01 X34.4609 Y48.6207 
G01 X34.6184 Y48.6860 
G01 X34.7209 Y48.7063 
G01 X34.7855 Y48.7192 
G01 X41.0378 Y48.7192 
G01 X41.2049 Y48.6860 
G01 X41.3623 Y48.6208 
G01 X41.5040 Y48.5261 
G01 X41.6056 Y48.4245 
G01 X41.7261 Y48.3040 
G01 X41.8207 Y48.1623 
G01 X41.8860 Y48.0049 
G01 X41.9192 Y47.8378 
G01 X41.9192 Y47.0356 
G01 X41.9214 Y46.9639 
G01 X41.9192 Y46.9505 
G01 X41.9192 Y46.9370 
G01 X41.9052 Y46.8666 
G01 X41.8934 Y46.7958 
G01 X41.8886 Y46.7832 
G01 X41.8860 Y46.7699 
G01 X41.8585 Y46.7036 
G01 X41.8331 Y46.6365 
G01 X41.8259 Y46.6250 
G01 X41.8207 Y46.6125 
G01 X41.7809 Y46.5528 
G01 X41.7429 Y46.4919 
G01 X41.7336 Y46.4821 
G01 X41.7261 Y46.4708 
G01 X41.6753 Y46.4200 
G01 X41.6262 Y46.3677 
G00 Z2.5400  
G00 X41.7455 Y28.9013 
G01 Z-0.1000 F127   
G01 X41.7970 Y28.9226 F127   
G01 X42.5130 Y28.9226 
G01 X42.5645 Y28.9013 
G01 X42.6039 Y28.8619 
G01 X42.6252 Y28.8104 
G01 X42.6252 Y26.7228 
G01 X42.6039 Y26.6713 
G01 X42.5645 Y26.6319 
G01 X42.5130 Y26.6106 
G01 X41.7970 Y26.6106 
G01 X41.7512 Y26.6296 
G01 X41.7512 Y26.6162 
G01 X41.7185 Y26.4517 
G01 X41.6543 Y26.2968 
G01 X41.5612 Y26.1574 
G01 X41.4426 Y26.0388 
G01 X41.3032 Y25.9457 
G01 X41.1483 Y25.8815 
G01 X40.9838 Y25.8488 
G01 X40.8162 Y25.8488 
G01 X40.6517 Y25.8815 
G01 X40.4968 Y25.9457 
G01 X40.3574 Y26.0388 
G01 X40.2388 Y26.1574 
G01 X40.1457 Y26.2968 
G01 X40.0815 Y26.4517 
G01 X40.0488 Y26.6162 
G01 X40.0488 Y26.7838 
G01 X40.0815 Y26.9483 
G01 X40.1457 Y27.1032 
G01 X40.2388 Y27.2426 
G01 X40.3574 Y27.3612 
G01 X40.4968 Y27.4543 
G01 X40.6517 Y27.5185 
G01 X40.8162 Y27.5512 
G01 X40.9785 Y27.5512 
G01 X41.6848 Y28.2575 
G01 X41.6848 Y28.8104 
G01 X41.7061 Y28.8619 
G01 X41.7455 Y28.9013 
G00 Z2.5400  
G00 X44.2855 Y28.9013 
G01 Z-0.1000 F127   
G01 X44.3370 Y28.9226 F127   
G01 X45.0530 Y28.9226 
G01 X45.1045 Y28.9013 
G01 X45.1439 Y28.8619 
G01 X45.1652 Y28.8104 
G01 X45.1652 Y26.7228 
G01 X45.1439 Y26.6713 
G01 X45.1398 Y26.6672 
G01 X45.1398 Y26.2630 
G01 X45.1426 Y26.2612 
G01 X45.2612 Y26.1426 
G01 X45.3543 Y26.0032 
G01 X45.4185 Y25.8483 
G01 X45.4512 Y25.6838 
G01 X45.4512 Y25.5162 
G01 X45.4185 Y25.3517 
G01 X45.3543 Y25.1968 
G01 X45.2612 Y25.0574 
G01 X45.1426 Y24.9388 
G01 X45.0032 Y24.8457 
G01 X44.8483 Y24.7815 
G01 X44.6838 Y24.7488 
G01 X44.5162 Y24.7488 
G01 X44.3517 Y24.7815 
G01 X44.1968 Y24.8457 
G01 X44.0574 Y24.9388 
G01 X43.9388 Y25.0574 
G01 X43.8457 Y25.1968 
G01 X43.7815 Y25.3517 
G01 X43.7488 Y25.5162 
G01 X43.7488 Y25.6838 
G01 X43.7815 Y25.8483 
G01 X43.8457 Y26.0032 
G01 X43.9388 Y26.1426 
G01 X44.0574 Y26.2612 
G01 X44.1968 Y26.3543 
G01 X44.2502 Y26.3764 
G01 X44.2502 Y26.6672 
G01 X44.2461 Y26.6713 
G01 X44.2248 Y26.7228 
G01 X44.2248 Y28.8104 
G01 X44.2461 Y28.8619 
G01 X44.2855 Y28.9013 
G00 Z2.5400  
G00 X45.5161 Y28.8619 
G01 Z-0.1000 F127   
G01 X45.5202 Y28.8660 F127   
G01 X45.5202 Y29.3362 
G01 X45.5164 Y29.3658 
G01 X45.5202 Y29.3945 
G01 X45.5202 Y29.4236 
G01 X45.5279 Y29.4523 
G01 X45.5319 Y29.4819 
G01 X45.5430 Y29.5087 
G01 X45.5505 Y29.5367 
G01 X45.5654 Y29.5625 
G01 X45.5769 Y29.5900 
G01 X45.5946 Y29.6130 
G01 X45.6091 Y29.6381 
G01 X45.6302 Y29.6592 
G01 X45.9358 Y30.0561 
G01 X45.9570 Y30.0892 
G01 X45.9714 Y30.1024 
G01 X45.9833 Y30.1178 
G01 X46.0145 Y30.1416 
G01 X46.0436 Y30.1681 
G01 X46.0609 Y30.1771 
G01 X46.0764 Y30.1889 
G01 X46.1127 Y30.2039 
G01 X46.1476 Y30.2220 
G01 X46.1666 Y30.2261 
G01 X46.1846 Y30.2336 
G01 X46.2236 Y30.2386 
G01 X46.2620 Y30.2470 
G01 X46.2815 Y30.2461 
G01 X46.3008 Y30.2486 
G01 X46.3397 Y30.2434 
G01 X52.7867 Y29.9459 
G01 X52.8112 Y29.9485 
G01 X52.8449 Y29.9432 
G01 X52.8790 Y29.9416 
G01 X52.9025 Y29.9341 
G01 X52.9269 Y29.9303 
G01 X52.9581 Y29.9165 
G01 X52.9906 Y29.9061 
G01 X53.0114 Y29.8928 
G01 X53.0339 Y29.8828 
G01 X53.0605 Y29.8614 
G01 X53.0892 Y29.8430 
G01 X53.1058 Y29.8247 
G01 X55.0776 Y28.2322 
G01 X57.0200 Y28.2322 
G01 X57.0715 Y28.2109 
G01 X57.1109 Y28.1715 
G01 X57.1322 Y28.1200 
G01 X57.1322 Y25.8800 
G01 X57.1109 Y25.8285 
G01 X57.0715 Y25.7891 
G01 X57.0200 Y25.7678 
G01 X56.5612 Y25.7678 
G01 X58.7842 Y23.5448 
G01 X59.2086 Y23.5448 
G01 X59.3217 Y23.5145 
G01 X59.4231 Y23.4559 
G01 X59.4810 Y23.3981 
G01 X60.3773 Y23.3998 
G01 X61.0098 Y22.7673 
G01 X61.0098 Y21.8727 
G01 X60.3773 Y21.2402 
G01 X59.4827 Y21.2402 
G01 X58.8502 Y21.8727 
G01 X58.8502 Y22.6552 
G01 X58.5414 Y22.6552 
G01 X58.4283 Y22.6855 
G01 X58.3269 Y22.7441 
G01 X55.5125 Y25.5585 
G01 X55.4958 Y25.5703 
G01 X55.4712 Y25.5998 
G01 X55.4441 Y25.6269 
G01 X55.4339 Y25.6446 
G01 X55.4208 Y25.6602 
G01 X55.4047 Y25.6951 
G01 X55.3855 Y25.7283 
G01 X55.3802 Y25.7480 
G01 X55.3717 Y25.7665 
G01 X54.7799 Y25.7678 
G01 X54.7285 Y25.7891 
G01 X54.6891 Y25.8285 
G01 X54.6678 Y25.8800 
G01 X54.6678 Y27.4196 
G01 X52.6339 Y29.0624 
G01 X46.5110 Y29.3450 
G01 X46.4098 Y29.2136 
G01 X46.4098 Y28.8660 
G01 X46.4139 Y28.8619 
G01 X46.4352 Y28.8104 
G01 X46.4352 Y27.1839 
G01 X46.5074 Y25.5011 
G01 X46.5301 Y25.4132 
G01 X46.5448 Y25.3586 
G01 X46.5453 Y25.3549 
G01 X46.5448 Y25.2981 
G01 X46.5448 Y23.8465 
G01 X46.5652 Y23.7972 
G01 X46.5652 Y21.7096 
G01 X46.5439 Y21.6581 
G01 X46.5045 Y21.6187 
G01 X46.4530 Y21.5974 
G01 X45.7370 Y21.5974 
G01 X45.6855 Y21.6187 
G01 X45.6461 Y21.6581 
G01 X45.6248 Y21.7096 
G01 X45.6248 Y23.7972 
G01 X45.6461 Y23.8487 
G01 X45.6552 Y23.8578 
G01 X45.6552 Y25.2433 
G01 X45.6373 Y25.3124 
G01 X45.6231 Y25.3574 
G01 X45.6226 Y25.3689 
G01 X45.6197 Y25.3801 
G01 X45.6201 Y25.4273 
G01 X45.5687 Y26.6264 
G01 X45.5555 Y26.6319 
G01 X45.5161 Y26.6713 
G01 X45.4948 Y26.7228 
G01 X45.4948 Y28.8104 
G01 X45.5161 Y28.8619 
G00 Z2.5400  
G00 X46.7861 Y28.8619 
G01 Z-0.1000 F127   
G01 X46.8255 Y28.9013 F127   
G01 X46.8770 Y28.9226 
G01 X47.5930 Y28.9226 
G01 X47.6445 Y28.9013 
G01 X47.6839 Y28.8619 
G01 X47.7052 Y28.8104 
G01 X47.7052 Y26.7228 
G01 X47.6839 Y26.6713 
G01 X47.6445 Y26.6319 
G01 X47.5930 Y26.6106 
G01 X46.8770 Y26.6106 
G01 X46.8255 Y26.6319 
G01 X46.7861 Y26.6713 
G01 X46.7648 Y26.7228 
G01 X46.7648 Y28.8104 
G01 X46.7861 Y28.8619 
G00 Z2.5400  
G00 X48.0561 Y28.8619 
G01 Z-0.1000 F127   
G01 X48.0955 Y28.9013 F127   
G01 X48.1469 Y28.9226 
G01 X48.8630 Y28.9226 
G01 X48.9145 Y28.9013 
G01 X48.9539 Y28.8619 
G01 X48.9752 Y28.8104 
G01 X48.9752 Y26.7228 
G01 X48.9539 Y26.6713 
G01 X48.9145 Y26.6319 
G01 X48.8630 Y26.6106 
G01 X48.1469 Y26.6106 
G01 X48.0955 Y26.6319 
G01 X48.0561 Y26.6713 
G01 X48.0348 Y26.7228 
G01 X48.0348 Y28.8104 
G01 X48.0561 Y28.8619 
G00 Z2.5400  
G00 X49.3261 Y28.8619 
G01 Z-0.1000 F127   
G01 X49.3655 Y28.9013 F127   
G01 X49.4169 Y28.9226 
G01 X50.1330 Y28.9226 
G01 X50.1845 Y28.9013 
G01 X50.2239 Y28.8619 
G01 X50.2452 Y28.8104 
G01 X50.2452 Y26.7228 
G01 X50.2239 Y26.6713 
G01 X50.2234 Y26.6621 
G01 X50.2198 Y26.6394 
G01 X50.2198 Y26.6164 
G01 X50.2105 Y26.5818 
G01 X50.2048 Y26.5465 
G01 X50.1954 Y26.5255 
G01 X50.1895 Y26.5033 
G01 X50.1716 Y26.4723 
G01 X50.1569 Y26.4396 
G01 X50.1424 Y26.4218 
G01 X50.1309 Y26.4019 
G01 X50.1056 Y26.3766 
G01 X49.7040 Y25.8832 
G01 X49.7185 Y25.8483 
G01 X49.7512 Y25.6838 
G01 X49.7512 Y25.5162 
G01 X49.7185 Y25.3517 
G01 X49.6543 Y25.1968 
G01 X49.5612 Y25.0574 
G01 X49.4426 Y24.9388 
G01 X49.3032 Y24.8457 
G01 X49.1483 Y24.7815 
G01 X48.9838 Y24.7488 
G01 X48.8162 Y24.7488 
G01 X48.6517 Y24.7815 
G01 X48.4968 Y24.8457 
G01 X48.3574 Y24.9388 
G01 X48.2388 Y25.0574 
G01 X48.1457 Y25.1968 
G01 X48.0815 Y25.3517 
G01 X48.0488 Y25.5162 
G01 X48.0488 Y25.6838 
G01 X48.0815 Y25.8483 
G01 X48.1457 Y26.0032 
G01 X48.2388 Y26.1426 
G01 X48.3574 Y26.2612 
G01 X48.4968 Y26.3543 
G01 X48.6517 Y26.4185 
G01 X48.8162 Y26.4512 
G01 X48.9838 Y26.4512 
G01 X49.0144 Y26.4451 
G01 X49.3048 Y26.8019 
G01 X49.3048 Y28.8104 
G01 X49.3261 Y28.8619 
G00 Z2.5400  
G00 X50.5961 Y28.8619 
G01 Z-0.1000 F127   
G01 X50.6355 Y28.9013 F127   
G01 X50.6870 Y28.9226 
G01 X51.4030 Y28.9226 
G01 X51.4545 Y28.9013 
G01 X51.4939 Y28.8619 
G01 X51.5152 Y28.8104 
G01 X51.5152 Y28.0691 
G01 X51.6236 Y27.9608 
G01 X51.6277 Y27.9688 
G01 X51.6567 Y28.0046 
G01 X51.6823 Y28.0429 
G01 X51.7101 Y28.0707 
G01 X51.7348 Y28.1013 
G01 X51.7702 Y28.1308 
G01 X51.8028 Y28.1634 
G01 X51.8355 Y28.1852 
G01 X51.8657 Y28.2104 
G01 X51.9061 Y28.2325 
G01 X51.9445 Y28.2581 
G01 X51.9808 Y28.2731 
G01 X52.0153 Y28.2919 
G01 X52.0593 Y28.3056 
G01 X52.1019 Y28.3233 
G01 X52.1404 Y28.3309 
G01 X52.1780 Y28.3426 
G01 X52.2238 Y28.3475 
G01 X52.2690 Y28.3565 
G01 X52.3083 Y28.3565 
G01 X52.3474 Y28.3607 
G01 X52.3933 Y28.3565 
G01 X52.4394 Y28.3565 
G01 X52.4779 Y28.3488 
G01 X52.5171 Y28.3453 
G01 X52.5613 Y28.3323 
G01 X52.6065 Y28.3233 
G01 X52.6428 Y28.3082 
G01 X52.6805 Y28.2971 
G01 X52.7214 Y28.2757 
G01 X52.7639 Y28.2581 
G01 X52.7966 Y28.2362 
G01 X52.8314 Y28.2180 
G01 X52.8673 Y28.1890 
G01 X52.9056 Y28.1634 
G01 X52.9334 Y28.1356 
G01 X53.7831 Y27.4493 
G01 X53.8214 Y27.4237 
G01 X53.8492 Y27.3959 
G01 X53.8798 Y27.3712 
G01 X53.9093 Y27.3358 
G01 X53.9419 Y27.3032 
G01 X53.9637 Y27.2705 
G01 X53.9889 Y27.2403 
G01 X54.0110 Y27.1999 
G01 X54.0365 Y27.1616 
G01 X54.0516 Y27.1252 
G01 X54.0704 Y27.0907 
G01 X54.0841 Y27.0467 
G01 X54.1018 Y27.0041 
G01 X54.1094 Y26.9656 
G01 X54.1211 Y26.9280 
G01 X54.1260 Y26.8822 
G01 X54.1350 Y26.8370 
G01 X54.1350 Y26.7977 
G01 X54.1392 Y26.7586 
G01 X54.1350 Y26.7127 
G01 X54.1350 Y25.7740 
G01 X54.2374 Y25.5267 
G01 X54.4267 Y25.3374 
G01 X54.6740 Y25.2350 
G01 X54.8094 Y25.2350 
G01 X54.9765 Y25.2018 
G01 X55.1339 Y25.1365 
G01 X55.2756 Y25.0419 
G01 X58.0038 Y22.3137 
G01 X58.1243 Y22.1932 
G01 X58.2189 Y22.0515 
G01 X58.2842 Y21.8941 
G01 X58.3174 Y21.7270 
G01 X58.3174 Y21.2682 
G01 X58.2842 Y21.1011 
G01 X58.2189 Y20.9437 
G01 X58.1243 Y20.8020 
G01 X58.0038 Y20.6815 
G01 X57.8621 Y20.5869 
G01 X57.7047 Y20.5217 
G01 X57.5376 Y20.4884 
G01 X57.3672 Y20.4884 
G01 X57.2001 Y20.5217 
G01 X57.0427 Y20.5869 
G01 X56.9010 Y20.6815 
G01 X56.8833 Y20.6992 
G01 X56.7805 Y20.8020 
G01 X55.9538 Y21.6288 
G01 X55.5945 Y21.7776 
G01 X54.7805 Y21.7776 
G01 X54.6992 Y21.7362 
G01 X54.5435 Y21.6856 
G01 X54.3819 Y21.6600 
G01 X54.2181 Y21.6600 
G01 X54.0565 Y21.6856 
G01 X53.9008 Y21.7362 
G01 X53.8195 Y21.7776 
G01 X52.9578 Y21.7776 
G01 X52.7907 Y21.8108 
G01 X52.6333 Y21.8760 
G01 X52.4916 Y21.9707 
G01 X52.3711 Y22.0912 
G01 X52.2764 Y22.2329 
G01 X52.2112 Y22.3903 
G01 X52.1780 Y22.5574 
G01 X52.1780 Y23.9237 
G01 X52.1526 Y24.0514 
G01 X52.1526 Y24.9195 
G01 X52.1172 Y25.0048 
G01 X52.0968 Y25.1073 
G01 X52.0840 Y25.1719 
G01 X52.0840 Y25.4753 
G01 X51.8733 Y25.9840 
G01 X51.8028 Y26.0545 
G01 X51.6823 Y26.1750 
G01 X51.6522 Y26.2201 
G01 X51.5876 Y26.3166 
G01 X51.5599 Y26.3837 
G01 X51.5224 Y26.4740 
G01 X51.5119 Y26.5270 
G01 X51.4209 Y26.6180 
G01 X51.4030 Y26.6106 
G01 X50.6870 Y26.6106 
G01 X50.6355 Y26.6319 
G01 X50.5961 Y26.6713 
G01 X50.5748 Y26.7228 
G01 X50.5748 Y27.4882 
G01 X50.5358 Y27.5557 
G01 X50.4986 Y27.6947 
G01 X50.4986 Y27.8385 
G01 X50.5358 Y27.9775 
G01 X50.5748 Y28.0450 
G01 X50.5748 Y28.8104 
G01 X50.5961 Y28.8619 
G00 Z2.5400  
G00 X50.6162 Y26.0512 
G01 Z-0.1000 F127   
G01 X50.7838 Y26.0512 F127   
G01 X50.9483 Y26.0185 
G01 X51.1032 Y25.9543 
G01 X51.2426 Y25.8612 
G01 X51.3612 Y25.7426 
G01 X51.4543 Y25.6032 
G01 X51.5185 Y25.4483 
G01 X51.5512 Y25.2838 
G01 X51.5512 Y25.1162 
G01 X51.5282 Y25.0008 
G01 X51.5309 Y24.9981 
G01 X51.5895 Y24.8967 
G01 X51.6198 Y24.7836 
G01 X51.6198 Y23.8528 
G01 X51.6239 Y23.8487 
G01 X51.6452 Y23.7972 
G01 X51.6452 Y21.7096 
G01 X51.6239 Y21.6581 
G01 X51.5845 Y21.6187 
G01 X51.5330 Y21.5974 
G01 X50.8169 Y21.5974 
G01 X50.7655 Y21.6187 
G01 X50.7261 Y21.6581 
G01 X50.7048 Y21.7096 
G01 X50.7048 Y23.7972 
G01 X50.7261 Y23.8487 
G01 X50.7302 Y23.8528 
G01 X50.7302 Y24.3488 
G01 X50.6162 Y24.3488 
G01 X50.4517 Y24.3815 
G01 X50.2968 Y24.4457 
G01 X50.1574 Y24.5388 
G01 X50.0388 Y24.6574 
G01 X49.9457 Y24.7968 
G01 X49.8815 Y24.9517 
G01 X49.8488 Y25.1162 
G01 X49.8488 Y25.2838 
G01 X49.8815 Y25.4483 
G01 X49.9457 Y25.6032 
G01 X50.0388 Y25.7426 
G01 X50.1574 Y25.8612 
G01 X50.2968 Y25.9543 
G01 X50.4517 Y26.0185 
G01 X50.6162 Y26.0512 
G00 Z2.5400  
G00 X50.3539 Y23.8487 
G01 Z-0.1000 F127   
G01 X50.3752 Y23.7972 F127   
G01 X50.3752 Y21.7096 
G01 X50.3539 Y21.6581 
G01 X50.3145 Y21.6187 
G01 X50.2630 Y21.5974 
G01 X49.5470 Y21.5974 
G01 X49.4955 Y21.6187 
G01 X49.4561 Y21.6581 
G01 X49.4348 Y21.7096 
G01 X49.4348 Y23.7972 
G01 X49.4561 Y23.8487 
G01 X49.4955 Y23.8881 
G01 X49.5470 Y23.9094 
G01 X50.2630 Y23.9094 
G01 X50.3145 Y23.8881 
G01 X50.3539 Y23.8487 
G00 Z2.5400  
G00 X49.0839 Y23.8487 
G01 Z-0.1000 F127   
G01 X49.1052 Y23.7972 F127   
G01 X49.1052 Y21.7096 
G01 X49.0839 Y21.6581 
G01 X49.0445 Y21.6187 
G01 X48.9930 Y21.5974 
G01 X48.2769 Y21.5974 
G01 X48.2255 Y21.6187 
G01 X48.1861 Y21.6581 
G01 X48.1648 Y21.7096 
G01 X48.1648 Y23.7972 
G01 X48.1861 Y23.8487 
G01 X48.2255 Y23.8881 
G01 X48.2769 Y23.9094 
G01 X48.9930 Y23.9094 
G01 X49.0445 Y23.8881 
G01 X49.0839 Y23.8487 
G00 Z2.5400  
G00 X47.8139 Y23.8487 
G01 Z-0.1000 F127   
G01 X47.8352 Y23.7972 F127   
G01 X47.8352 Y21.7096 
G01 X47.8139 Y21.6581 
G01 X47.8098 Y21.6540 
G01 X47.8098 Y21.2448 
G01 X55.4586 Y21.2448 
G01 X55.5717 Y21.2145 
G01 X55.6731 Y21.1559 
G01 X59.9842 Y16.8448 
G01 X61.5678 Y16.8448 
G01 X61.5678 Y17.5200 
G01 X61.5891 Y17.5715 
G01 X61.6285 Y17.6109 
G01 X61.6799 Y17.6322 
G01 X63.9200 Y17.6322 
G01 X63.9715 Y17.6109 
G01 X64.0109 Y17.5715 
G01 X64.0322 Y17.5200 
G01 X64.0322 Y15.2799 
G01 X64.0109 Y15.2285 
G01 X63.9715 Y15.1891 
G01 X63.9200 Y15.1678 
G01 X61.6799 Y15.1678 
G01 X61.6285 Y15.1891 
G01 X61.5891 Y15.2285 
G01 X61.5678 Y15.2799 
G01 X61.5678 Y15.9552 
G01 X59.7414 Y15.9552 
G01 X59.6283 Y15.9855 
G01 X59.5269 Y16.0441 
G01 X59.4441 Y16.1269 
G01 X55.2158 Y20.3552 
G01 X47.1643 Y20.3552 
G01 X47.1004 Y20.2938 
G01 X47.0621 Y20.2555 
G01 X47.0582 Y20.2533 
G01 X47.0550 Y20.2502 
G01 X45.2448 Y18.5106 
G01 X45.2448 Y17.7310 
G01 X45.2739 Y17.7019 
G01 X45.2952 Y17.6504 
G01 X45.2952 Y15.5627 
G01 X45.2739 Y15.5113 
G01 X45.2345 Y15.4719 
G01 X45.1830 Y15.4506 
G01 X44.4669 Y15.4506 
G01 X44.4155 Y15.4719 
G01 X44.3761 Y15.5113 
G01 X44.3548 Y15.5627 
G01 X44.3548 Y17.6504 
G01 X44.3552 Y18.6459 
G01 X44.3541 Y18.6503 
G01 X44.3552 Y18.7044 
G01 X44.3552 Y18.7586 
G01 X44.3564 Y18.7629 
G01 X44.3565 Y18.7674 
G01 X44.3715 Y18.8194 
G01 X44.3855 Y18.8717 
G01 X44.3878 Y18.8756 
G01 X44.3890 Y18.8799 
G01 X44.4170 Y18.9263 
G01 X44.4441 Y18.9731 
G01 X44.4472 Y18.9763 
G01 X44.4496 Y18.9801 
G01 X44.4886 Y19.0176 
G01 X44.5269 Y19.0559 
G01 X44.5308 Y19.0582 
G01 X46.4776 Y20.9291 
G01 X46.7044 Y21.1559 
G01 X46.7275 Y21.1692 
G01 X46.9202 Y21.3544 
G01 X46.9202 Y21.6540 
G01 X46.9161 Y21.6581 
G01 X46.8948 Y21.7096 
G01 X46.8948 Y23.7972 
G01 X46.9161 Y23.8487 
G01 X46.9555 Y23.8881 
G01 X47.0070 Y23.9094 
G01 X47.7230 Y23.9094 
G01 X47.7745 Y23.8881 
G01 X47.8139 Y23.8487 
G00 Z2.5400  
G00 X44.0039 Y23.8487 
G01 Z-0.1000 F127   
G01 X44.0252 Y23.7972 F127   
G01 X44.0252 Y21.7096 
G01 X44.0039 Y21.6581 
G01 X43.9645 Y21.6187 
G01 X43.9130 Y21.5974 
G01 X43.1970 Y21.5974 
G01 X43.1455 Y21.6187 
G01 X43.1061 Y21.6581 
G01 X43.0848 Y21.7096 
G01 X43.0848 Y23.7972 
G01 X43.1061 Y23.8487 
G01 X43.1102 Y23.8528 
G01 X43.1102 Y23.9499 
G01 X42.5353 Y24.4789 
G01 X42.3838 Y24.4488 
G01 X42.2162 Y24.4488 
G01 X42.0517 Y24.4815 
G01 X41.8968 Y24.5457 
G01 X41.7574 Y24.6388 
G01 X41.6388 Y24.7574 
G01 X41.5457 Y24.8968 
G01 X41.4815 Y25.0517 
G01 X41.4488 Y25.2162 
G01 X41.4488 Y25.3838 
G01 X41.4815 Y25.5483 
G01 X41.5457 Y25.7032 
G01 X41.6388 Y25.8426 
G01 X41.7574 Y25.9612 
G01 X41.8968 Y26.0543 
G01 X42.0517 Y26.1185 
G01 X42.2162 Y26.1512 
G01 X42.3838 Y26.1512 
G01 X42.5483 Y26.1185 
G01 X42.7032 Y26.0543 
G01 X42.8426 Y25.9612 
G01 X42.9612 Y25.8426 
G01 X43.0543 Y25.7032 
G01 X43.1185 Y25.5483 
G01 X43.1512 Y25.3838 
G01 X43.1512 Y25.2162 
G01 X43.1352 Y25.1358 
G01 X43.8200 Y24.5056 
G01 X43.8281 Y24.5009 
G01 X43.8630 Y24.4661 
G01 X43.8993 Y24.4326 
G01 X43.9043 Y24.4247 
G01 X43.9109 Y24.4181 
G01 X43.9356 Y24.3754 
G01 X43.9620 Y24.3337 
G01 X43.9648 Y24.3248 
G01 X43.9695 Y24.3167 
G01 X43.9823 Y24.2690 
G01 X43.9970 Y24.2219 
G01 X43.9974 Y24.2126 
G01 X43.9998 Y24.2036 
G01 X43.9998 Y24.1542 
G01 X44.0018 Y24.1049 
G01 X43.9998 Y24.0958 
G01 X43.9998 Y23.8528 
G01 X44.0039 Y23.8487 
G00 Z2.5400  
G00 X42.7339 Y23.8487 
G01 Z-0.1000 F127   
G01 X42.7552 Y23.7972 F127   
G01 X42.7552 Y23.0318 
G01 X42.7942 Y22.9643 
G01 X42.8314 Y22.8253 
G01 X42.8314 Y22.6815 
G01 X42.7942 Y22.5425 
G01 X42.7552 Y22.4750 
G01 X42.7552 Y21.7096 
G01 X42.7339 Y21.6581 
G01 X42.6945 Y21.6187 
G01 X42.6430 Y21.5974 
G01 X41.9269 Y21.5974 
G01 X41.8755 Y21.6187 
G01 X41.8361 Y21.6581 
G01 X41.8148 Y21.7096 
G01 X41.8148 Y22.2070 
G01 X41.4020 Y22.2070 
G01 X40.6512 Y21.7662 
G01 X40.6512 Y21.1609 
G01 X40.6299 Y21.1095 
G01 X40.5905 Y21.0701 
G01 X40.5390 Y21.0488 
G01 X39.0609 Y21.0488 
G01 X39.0095 Y21.0701 
G01 X38.9701 Y21.1095 
G01 X38.9488 Y21.1609 
G01 X38.9488 Y22.6390 
G01 X38.9701 Y22.6905 
G01 X39.0095 Y22.7299 
G01 X39.0609 Y22.7512 
G01 X40.1705 Y22.7512 
G01 X40.9165 Y23.1892 
G01 X40.9783 Y23.2255 
G01 X41.0388 Y23.2610 
G01 X41.0425 Y23.2626 
G01 X41.1100 Y23.2806 
G01 X41.1775 Y23.2993 
G01 X41.1795 Y23.2993 
G01 X41.2515 Y23.2998 
G01 X41.3213 Y23.3003 
G01 X41.8148 Y23.2998 
G01 X41.8148 Y23.7972 
G01 X41.8361 Y23.8487 
G01 X41.8755 Y23.8881 
G01 X41.9269 Y23.9094 
G01 X42.6430 Y23.9094 
G01 X42.6945 Y23.8881 
G01 X42.7339 Y23.8487 
G00 Z2.5400  
G00 X42.7339 Y17.7019 
G01 Z-0.1000 F127   
G01 X42.7552 Y17.6504 F127   
G01 X42.7552 Y16.8850 
G01 X42.7942 Y16.8175 
G01 X42.8314 Y16.6785 
G01 X42.8314 Y16.5347 
G01 X42.7942 Y16.3957 
G01 X42.7552 Y16.3282 
G01 X42.7552 Y15.5627 
G01 X42.7339 Y15.5113 
G01 X42.6945 Y15.4719 
G01 X42.6430 Y15.4506 
G01 X41.9269 Y15.4506 
G01 X41.8755 Y15.4719 
G01 X41.8361 Y15.5113 
G01 X41.8148 Y15.5627 
G01 X41.8148 Y16.0602 
G01 X41.0215 Y16.0602 
G01 X40.8825 Y16.0974 
G01 X40.8435 Y16.0856 
G01 X40.6818 Y16.0600 
G01 X40.5181 Y16.0600 
G01 X40.3565 Y16.0856 
G01 X40.2008 Y16.1362 
G01 X40.0549 Y16.2105 
G01 X39.9225 Y16.3067 
G01 X39.8067 Y16.4225 
G01 X39.7105 Y16.5549 
G01 X39.6362 Y16.7008 
G01 X39.5856 Y16.8565 
G01 X39.5600 Y17.0181 
G01 X39.5600 Y17.1819 
G01 X39.5856 Y17.3435 
G01 X39.6362 Y17.4992 
G01 X39.7105 Y17.6451 
G01 X39.8067 Y17.7775 
G01 X39.9225 Y17.8933 
G01 X40.0549 Y17.9895 
G01 X40.2008 Y18.0638 
G01 X40.3565 Y18.1144 
G01 X40.5181 Y18.1400 
G01 X40.6818 Y18.1400 
G01 X40.8435 Y18.1144 
G01 X40.9992 Y18.0638 
G01 X41.1451 Y17.9895 
G01 X41.2775 Y17.8933 
G01 X41.3933 Y17.7775 
G01 X41.4895 Y17.6451 
G01 X41.5638 Y17.4992 
G01 X41.6144 Y17.3435 
G01 X41.6400 Y17.1819 
G01 X41.6400 Y17.1530 
G01 X41.8148 Y17.1530 
G01 X41.8148 Y17.6504 
G01 X41.8361 Y17.7019 
G01 X41.8755 Y17.7413 
G01 X41.9269 Y17.7626 
G01 X42.6430 Y17.7626 
G01 X42.6945 Y17.7413 
G01 X42.7339 Y17.7019 
G00 Z2.5400  
G00 X45.6461 Y17.7019 
G01 Z-0.1000 F127   
G01 X45.6855 Y17.7413 F127   
G01 X45.7370 Y17.7626 
G01 X46.4530 Y17.7626 
G01 X46.5045 Y17.7413 
G01 X46.5439 Y17.7019 
G01 X46.5652 Y17.6504 
G01 X46.5652 Y15.8570 
G01 X46.6145 Y15.7717 
G01 X46.6448 Y15.6586 
G01 X46.6448 Y15.2473 
G01 X47.4876 Y15.0366 
G01 X47.5249 Y15.0309 
G01 X47.5442 Y15.0224 
G01 X47.5647 Y15.0173 
G01 X47.5976 Y14.9990 
G01 X47.6321 Y14.9839 
G01 X47.6486 Y14.9707 
G01 X47.6671 Y14.9605 
G01 X47.6942 Y14.9343 
G01 X48.1516 Y14.5684 
G01 X48.1731 Y14.5559 
G01 X48.1971 Y14.5319 
G01 X48.2236 Y14.5107 
G01 X48.2383 Y14.4907 
G01 X48.2559 Y14.4731 
G01 X48.2729 Y14.4437 
G01 X48.2930 Y14.4164 
G01 X48.3020 Y14.3932 
G01 X48.3145 Y14.3717 
G01 X48.3233 Y14.3389 
G01 X48.3356 Y14.3073 
G01 X48.3384 Y14.2826 
G01 X48.3448 Y14.2586 
G01 X48.3448 Y14.2246 
G01 X48.3485 Y14.1909 
G01 X48.3448 Y14.1663 
G01 X48.3448 Y12.4928 
G01 X48.3489 Y12.4887 
G01 X48.3702 Y12.4372 
G01 X48.3702 Y10.3496 
G01 X48.3489 Y10.2981 
G01 X48.3448 Y10.2940 
G01 X48.3448 Y9.9414  
G01 X48.3145 Y9.8283  
G01 X48.2559 Y9.7269  
G01 X48.2448 Y9.7158  
G01 X48.2448 Y9.6414  
G01 X48.2145 Y9.5283  
G01 X48.1559 Y9.4269  
G01 X48.0731 Y9.3441  
G01 X47.5731 Y8.8441  
G01 X47.4717 Y8.7855  
G01 X47.3586 Y8.7552  
G01 X44.8414 Y8.7552  
G01 X44.7283 Y8.7855  
G01 X44.6269 Y8.8441  
G01 X43.7341 Y9.7369  
G01 X43.6755 Y9.8383  
G01 X43.6452 Y9.9514  
G01 X43.6452 Y10.2940 
G01 X43.6411 Y10.2981 
G01 X43.6198 Y10.3496 
G01 X43.6198 Y12.4372 
G01 X43.6411 Y12.4887 
G01 X43.6805 Y12.5281 
G01 X43.7319 Y12.5494 
G01 X44.4480 Y12.5494 
G01 X44.4995 Y12.5281 
G01 X44.5389 Y12.4887 
G01 X44.5602 Y12.4372 
G01 X44.5602 Y10.3496 
G01 X44.5389 Y10.2981 
G01 X44.5348 Y10.2940 
G01 X44.5348 Y10.1942 
G01 X45.0842 Y9.6448  
G01 X47.1158 Y9.6448  
G01 X47.3552 Y9.8842  
G01 X47.3552 Y9.9586  
G01 X47.3855 Y10.0717 
G01 X47.4441 Y10.1731 
G01 X47.4552 Y10.1842 
G01 X47.4552 Y10.2940 
G01 X47.4511 Y10.2981 
G01 X47.4298 Y10.3496 
G01 X47.4298 Y12.4372 
G01 X47.4511 Y12.4887 
G01 X47.4552 Y12.4928 
G01 X47.4552 Y13.9862 
G01 X47.1979 Y14.1920 
G01 X46.1452 Y14.4552 
G01 X46.1414 Y14.4552 
G01 X46.0884 Y14.4694 
G01 X46.0353 Y14.4827 
G01 X46.0320 Y14.4845 
G01 X46.0283 Y14.4855 
G01 X45.9809 Y14.5129 
G01 X45.9329 Y14.5395 
G01 X45.9302 Y14.5422 
G01 X45.9269 Y14.5441 
G01 X45.8881 Y14.5828 
G01 X45.8487 Y14.6209 
G01 X45.8468 Y14.6242 
G01 X45.8441 Y14.6269 
G01 X45.8166 Y14.6744 
G01 X45.7885 Y14.7214 
G01 X45.7874 Y14.7250 
G01 X45.7855 Y14.7283 
G01 X45.7713 Y14.7813 
G01 X45.7562 Y14.8340 
G01 X45.7562 Y14.8378 
G01 X45.7552 Y14.8414 
G01 X45.7552 Y14.8962 
G01 X45.7543 Y14.9511 
G01 X45.7552 Y14.9548 
G01 X45.7552 Y15.4506 
G01 X45.7370 Y15.4506 
G01 X45.6855 Y15.4719 
G01 X45.6461 Y15.5113 
G01 X45.6248 Y15.5627 
G01 X45.6248 Y17.6504 
G01 X45.6461 Y17.7019 
G00 Z2.5400  
G00 X46.9161 Y17.7019 
G01 Z-0.1000 F127   
G01 X46.9555 Y17.7413 F127   
G01 X47.0070 Y17.7626 
G01 X47.7230 Y17.7626 
G01 X47.7745 Y17.7413 
G01 X47.8139 Y17.7019 
G01 X47.8352 Y17.6504 
G01 X47.8352 Y15.5627 
G01 X47.8139 Y15.5113 
G01 X47.7745 Y15.4719 
G01 X47.7230 Y15.4506 
G01 X47.0070 Y15.4506 
G01 X46.9555 Y15.4719 
G01 X46.9161 Y15.5113 
G01 X46.8948 Y15.5627 
G01 X46.8948 Y17.6504 
G01 X46.9161 Y17.7019 
G00 Z2.5400  
G00 X48.1861 Y17.7019 
G01 Z-0.1000 F127   
G01 X48.2255 Y17.7413 F127   
G01 X48.2769 Y17.7626 
G01 X48.9930 Y17.7626 
G01 X49.0445 Y17.7413 
G01 X49.0839 Y17.7019 
G01 X49.1052 Y17.6504 
G01 X49.1052 Y15.5627 
G01 X49.0839 Y15.5113 
G01 X49.0445 Y15.4719 
G01 X48.9930 Y15.4506 
G01 X48.2769 Y15.4506 
G01 X48.2255 Y15.4719 
G01 X48.1861 Y15.5113 
G01 X48.1648 Y15.5627 
G01 X48.1648 Y17.6504 
G01 X48.1861 Y17.7019 
G00 Z2.5400  
G00 X49.4561 Y17.7019 
G01 Z-0.1000 F127   
G01 X49.4955 Y17.7413 F127   
G01 X49.5470 Y17.7626 
G01 X50.2630 Y17.7626 
G01 X50.3145 Y17.7413 
G01 X50.3539 Y17.7019 
G01 X50.3752 Y17.6504 
G01 X50.3752 Y15.6538 
G01 X50.6842 Y15.3448 
G01 X54.9506 Y15.3448 
G01 X55.3536 Y15.8821 
G01 X55.3536 Y17.8737 
G01 X54.8354 Y18.3918 
G01 X54.0083 Y18.5378 
G01 X53.9638 Y18.4008 
G01 X53.8895 Y18.2549 
G01 X53.7933 Y18.1225 
G01 X53.6775 Y18.0067 
G01 X53.5451 Y17.9105 
G01 X53.3992 Y17.8362 
G01 X53.2435 Y17.7856 
G01 X53.0819 Y17.7600 
G01 X52.9181 Y17.7600 
G01 X52.7565 Y17.7856 
G01 X52.6008 Y17.8362 
G01 X52.4549 Y17.9105 
G01 X52.3225 Y18.0067 
G01 X52.2067 Y18.1225 
G01 X52.1105 Y18.2549 
G01 X52.0362 Y18.4008 
G01 X51.9856 Y18.5565 
G01 X51.9600 Y18.7181 
G01 X51.9600 Y18.8819 
G01 X51.9856 Y19.0435 
G01 X52.0362 Y19.1992 
G01 X52.1105 Y19.3451 
G01 X52.2067 Y19.4775 
G01 X52.3225 Y19.5933 
G01 X52.4549 Y19.6895 
G01 X52.6008 Y19.7638 
G01 X52.7565 Y19.8144 
G01 X52.9181 Y19.8400 
G01 X53.0819 Y19.8400 
G01 X53.2435 Y19.8144 
G01 X53.3992 Y19.7638 
G01 X53.4257 Y19.7503 
G01 X53.4478 Y19.7464 
G01 X53.4719 Y19.7464 
G01 X53.5184 Y19.7339 
G01 X55.1478 Y19.4464 
G01 X55.1719 Y19.4464 
G01 X55.2184 Y19.4339 
G01 X55.2658 Y19.4256 
G01 X55.2876 Y19.4154 
G01 X55.3109 Y19.4092 
G01 X55.3525 Y19.3851 
G01 X55.3962 Y19.3648 
G01 X55.4146 Y19.3493 
G01 X55.4355 Y19.3372 
G01 X55.4695 Y19.3032 
G01 X55.5064 Y19.2723 
G01 X55.5202 Y19.2525 
G01 X56.3372 Y18.4355 
G01 X56.4092 Y18.3109 
G01 X56.4464 Y18.1719 
G01 X56.4464 Y15.7388 
G01 X56.4511 Y15.7061 
G01 X56.4464 Y15.6672 
G01 X56.4464 Y15.6281 
G01 X56.4378 Y15.5961 
G01 X56.4339 Y15.5632 
G01 X56.4193 Y15.5269 
G01 X56.4092 Y15.4891 
G01 X56.3926 Y15.4604 
G01 X56.3803 Y15.4297 
G01 X56.3568 Y15.3984 
G01 X56.3372 Y15.3645 
G01 X56.3138 Y15.3411 
G01 X55.6940 Y14.5146 
G01 X55.5808 Y14.4258 
G01 X55.4485 Y14.3693 
G01 X55.3061 Y14.3489 
G01 X55.1632 Y14.3661 
G01 X55.0297 Y14.4197 
G01 X54.9824 Y14.4552 
G01 X50.4414 Y14.4552 
G01 X50.3283 Y14.4855 
G01 X50.2269 Y14.5441 
G01 X50.1441 Y14.6269 
G01 X49.5491 Y15.2219 
G01 X49.4905 Y15.3233 
G01 X49.4602 Y15.4364 
G01 X49.4602 Y15.5072 
G01 X49.4561 Y15.5113 
G01 X49.4348 Y15.5627 
G01 X49.4348 Y17.6504 
G01 X49.4561 Y17.7019 
G00 Z2.5400  
G00 X50.7261 Y17.7019 
G01 Z-0.1000 F127   
G01 X50.7302 Y17.7060 F127   
G01 X50.7302 Y17.9408 
G01 X49.7491 Y18.9219 
G01 X49.6905 Y19.0233 
G01 X49.6602 Y19.1364 
G01 X49.6602 Y19.2536 
G01 X49.6905 Y19.3667 
G01 X49.7491 Y19.4681 
G01 X49.8319 Y19.5509 
G01 X49.9333 Y19.6095 
G01 X50.0464 Y19.6398 
G01 X50.1636 Y19.6398 
G01 X50.2767 Y19.6095 
G01 X50.3781 Y19.5509 
G01 X51.5309 Y18.3981 
G01 X51.5895 Y18.2967 
G01 X51.6198 Y18.1836 
G01 X51.6198 Y17.7060 
G01 X51.6239 Y17.7019 
G01 X51.6452 Y17.6504 
G01 X51.6452 Y17.2464 
G01 X52.7115 Y17.2464 
G01 X52.8067 Y17.3775 
G01 X52.9225 Y17.4933 
G01 X53.0549 Y17.5895 
G01 X53.2008 Y17.6638 
G01 X53.3565 Y17.7144 
G01 X53.5181 Y17.7400 
G01 X53.6818 Y17.7400 
G01 X53.8435 Y17.7144 
G01 X53.9992 Y17.6638 
G01 X54.1451 Y17.5895 
G01 X54.2775 Y17.4933 
G01 X54.3933 Y17.3775 
G01 X54.4895 Y17.2451 
G01 X54.5638 Y17.0992 
G01 X54.6144 Y16.9435 
G01 X54.6400 Y16.7818 
G01 X54.6400 Y16.6181 
G01 X54.6144 Y16.4565 
G01 X54.5638 Y16.3008 
G01 X54.4895 Y16.1549 
G01 X54.3933 Y16.0225 
G01 X54.2775 Y15.9067 
G01 X54.1451 Y15.8105 
G01 X53.9992 Y15.7362 
G01 X53.8435 Y15.6856 
G01 X53.6818 Y15.6600 
G01 X53.5181 Y15.6600 
G01 X53.3565 Y15.6856 
G01 X53.2008 Y15.7362 
G01 X53.0549 Y15.8105 
G01 X52.9225 Y15.9067 
G01 X52.8067 Y16.0225 
G01 X52.7115 Y16.1536 
G01 X51.6452 Y16.1536 
G01 X51.6452 Y15.5627 
G01 X51.6239 Y15.5113 
G01 X51.5845 Y15.4719 
G01 X51.5330 Y15.4506 
G01 X50.8169 Y15.4506 
G01 X50.7655 Y15.4719 
G01 X50.7261 Y15.5113 
G01 X50.7048 Y15.5627 
G01 X50.7048 Y16.3282 
G01 X50.6658 Y16.3957 
G01 X50.6286 Y16.5347 
G01 X50.6286 Y16.6785 
G01 X50.6658 Y16.8175 
G01 X50.7048 Y16.8850 
G01 X50.7048 Y17.6504 
G01 X50.7261 Y17.7019 
G00 Z2.5400  
G00 X49.7414 Y14.0448 
G01 Z-0.1000 F127   
G01 X53.6586 Y14.0448 F127   
G01 X53.7717 Y14.0145 
G01 X53.8731 Y13.9559 
G01 X54.7842 Y13.0448 
G01 X55.4500 Y13.0448 
G01 X55.4500 Y13.0678 
G01 X55.4713 Y13.1193 
G01 X55.5107 Y13.1587 
G01 X55.5622 Y13.1800 
G01 X56.4178 Y13.1800 
G01 X56.4693 Y13.1587 
G01 X56.5087 Y13.1193 
G01 X56.5300 Y13.0678 
G01 X56.5300 Y11.8122 
G01 X56.5087 Y11.7607 
G01 X56.4693 Y11.7213 
G01 X56.4178 Y11.7000 
G01 X55.5622 Y11.7000 
G01 X55.5107 Y11.7213 
G01 X55.4713 Y11.7607 
G01 X55.4500 Y11.8122 
G01 X55.4500 Y12.1552 
G01 X54.5414 Y12.1552 
G01 X54.4283 Y12.1855 
G01 X54.3269 Y12.2441 
G01 X54.2441 Y12.3269 
G01 X53.4158 Y13.1552 
G01 X49.9842 Y13.1552 
G01 X49.6148 Y12.7858 
G01 X49.6148 Y12.4928 
G01 X49.6189 Y12.4887 
G01 X49.6402 Y12.4372 
G01 X49.6402 Y10.3496 
G01 X49.6189 Y10.2981 
G01 X49.5795 Y10.2587 
G01 X49.5280 Y10.2374 
G01 X48.8120 Y10.2374 
G01 X48.7605 Y10.2587 
G01 X48.7211 Y10.2981 
G01 X48.6998 Y10.3496 
G01 X48.6998 Y12.4372 
G01 X48.7211 Y12.4887 
G01 X48.7252 Y12.4928 
G01 X48.7252 Y13.0286 
G01 X48.7555 Y13.1417 
G01 X48.8141 Y13.2431 
G01 X49.4441 Y13.8731 
G01 X49.5269 Y13.9559 
G01 X49.6283 Y14.0145 
G01 X49.7414 Y14.0448 
G00 Z2.5400  
G00 X50.0305 Y12.5281 
G01 Z-0.1000 F127   
G01 X50.0819 Y12.5494 F127   
G01 X50.2416 Y12.5494 
G01 X50.3253 Y12.5790 
G01 X51.1395 Y12.6433 
G01 X51.1933 Y12.6511 
G01 X51.2110 Y12.6490 
G01 X51.2287 Y12.6504 
G01 X51.2822 Y12.6405 
G01 X51.3361 Y12.6340 
G01 X51.3527 Y12.6274 
G01 X51.3702 Y12.6242 
G01 X51.4193 Y12.6008 
G01 X51.5813 Y12.5360 
G01 X51.6549 Y12.5895 
G01 X51.8008 Y12.6638 
G01 X51.9565 Y12.7144 
G01 X52.1181 Y12.7400 
G01 X52.2818 Y12.7400 
G01 X52.4435 Y12.7144 
G01 X52.5992 Y12.6638 
G01 X52.7451 Y12.5895 
G01 X52.8775 Y12.4933 
G01 X52.9933 Y12.3775 
G01 X53.0895 Y12.2451 
G01 X53.1638 Y12.0992 
G01 X53.2144 Y11.9435 
G01 X53.2400 Y11.7819 
G01 X53.2400 Y11.6181 
G01 X53.2144 Y11.4565 
G01 X53.1638 Y11.3008 
G01 X53.0895 Y11.1549 
G01 X52.9933 Y11.0225 
G01 X52.8775 Y10.9067 
G01 X52.7451 Y10.8105 
G01 X52.5992 Y10.7362 
G01 X52.4435 Y10.6856 
G01 X52.2818 Y10.6600 
G01 X52.1181 Y10.6600 
G01 X51.9565 Y10.6856 
G01 X51.8008 Y10.7362 
G01 X51.6549 Y10.8105 
G01 X51.5225 Y10.9067 
G01 X51.4067 Y11.0225 
G01 X51.3105 Y11.1549 
G01 X51.2362 Y11.3008 
G01 X51.1856 Y11.4565 
G01 X51.1753 Y11.5214 
G01 X51.1157 Y11.5452 
G01 X50.9102 Y11.5290 
G01 X50.9102 Y11.5125 
G01 X50.9145 Y11.5051 
G01 X50.9448 Y11.3920 
G01 X50.9448 Y8.4414  
G01 X50.9145 Y8.3283  
G01 X50.8559 Y8.2269  
G01 X50.7731 Y8.1441  
G01 X50.1731 Y7.5441  
G01 X50.0717 Y7.4855  
G01 X49.9586 Y7.4552  
G01 X49.6148 Y7.4552  
G01 X49.6148 Y6.3460  
G01 X49.6189 Y6.3419  
G01 X49.6402 Y6.2904  
G01 X49.6402 Y4.2027  
G01 X49.6189 Y4.1513  
G01 X49.5795 Y4.1119  
G01 X49.5280 Y4.0906  
G01 X48.8120 Y4.0906  
G01 X48.7605 Y4.1119  
G01 X48.7211 Y4.1513  
G01 X48.6998 Y4.2027  
G01 X48.6998 Y6.2904  
G01 X48.7211 Y6.3419  
G01 X48.7252 Y6.3460  
G01 X48.7252 Y7.4552  
G01 X47.7842 Y7.4552  
G01 X47.7731 Y7.4441  
G01 X47.0748 Y6.7458  
G01 X47.0748 Y6.3460  
G01 X47.0789 Y6.3419  
G01 X47.1002 Y6.2904  
G01 X47.1002 Y4.2027  
G01 X47.0789 Y4.1513  
G01 X47.0395 Y4.1119  
G01 X46.9880 Y4.0906  
G01 X46.2719 Y4.0906  
G01 X46.2205 Y4.1119  
G01 X46.1811 Y4.1513  
G01 X46.1598 Y4.2027  
G01 X46.1598 Y6.2904  
G01 X46.1811 Y6.3419  
G01 X46.1852 Y6.3460  
G01 X46.1852 Y6.9886  
G01 X46.2155 Y7.1017  
G01 X46.2741 Y7.2031  
G01 X46.3569 Y7.2859  
G01 X46.4262 Y7.3552  
G01 X44.8842 Y7.3552  
G01 X44.5348 Y7.0058  
G01 X44.5348 Y6.3460  
G01 X44.5389 Y6.3419  
G01 X44.5602 Y6.2904  
G01 X44.5602 Y4.2027  
G01 X44.5389 Y4.1513  
G01 X44.4995 Y4.1119  
G01 X44.4480 Y4.0906  
G01 X43.7319 Y4.0906  
G01 X43.6805 Y4.1119  
G01 X43.6411 Y4.1513  
G01 X43.6198 Y4.2027  
G01 X43.6198 Y6.2904  
G01 X43.6411 Y6.3419  
G01 X43.6452 Y6.3460  
G01 X43.6452 Y7.2486  
G01 X43.6755 Y7.3617  
G01 X43.7341 Y7.4631  
G01 X44.3441 Y8.0731  
G01 X44.4269 Y8.1559  
G01 X44.5283 Y8.2145  
G01 X44.6414 Y8.2448  
G01 X47.3158 Y8.2448  
G01 X47.3269 Y8.2559  
G01 X47.4283 Y8.3145  
G01 X47.5414 Y8.3448  
G01 X49.7158 Y8.3448  
G01 X50.0552 Y8.6842  
G01 X50.0552 Y10.2485 
G01 X50.0305 Y10.2587 
G01 X49.9911 Y10.2981 
G01 X49.9698 Y10.3496 
G01 X49.9698 Y11.7594 
G01 X49.9490 Y11.7897 
G01 X49.9010 Y11.9253 
G01 X49.8896 Y12.0687 
G01 X49.9158 Y12.2102 
G01 X49.9698 Y12.3234 
G01 X49.9698 Y12.4372 
G01 X49.9911 Y12.4887 
G01 X50.0305 Y12.5281 
G00 Z2.5400  
G00 X47.0789 Y12.4887 
G01 Z-0.1000 F127   
G01 X47.1002 Y12.4372 F127   
G01 X47.1002 Y10.3496 
G01 X47.0789 Y10.2981 
G01 X47.0395 Y10.2587 
G01 X46.9880 Y10.2374 
G01 X46.2719 Y10.2374 
G01 X46.2205 Y10.2587 
G01 X46.1811 Y10.2981 
G01 X46.1598 Y10.3496 
G01 X46.1598 Y12.4372 
G01 X46.1811 Y12.4887 
G01 X46.1852 Y12.4928 
G01 X46.1852 Y12.8300 
G01 X44.1670 Y14.1552 
G01 X40.2522 Y14.1552 
G01 X40.2461 Y14.1537 
G01 X40.1938 Y14.1552 
G01 X40.1414 Y14.1552 
G01 X40.1353 Y14.1568 
G01 X40.1290 Y14.1570 
G01 X40.0789 Y14.1720 
G01 X40.0283 Y14.1855 
G01 X40.0228 Y14.1887 
G01 X40.0168 Y14.1905 
G01 X39.9722 Y14.2179 
G01 X39.9269 Y14.2441 
G01 X39.9224 Y14.2485 
G01 X39.6458 Y14.4188 
G01 X39.5458 Y14.3461 
G01 X39.3730 Y14.2581 
G01 X39.1885 Y14.1981 
G01 X38.9970 Y14.1678 
G01 X38.8030 Y14.1678 
G01 X38.6115 Y14.1981 
G01 X38.4270 Y14.2581 
G01 X38.2542 Y14.3461 
G01 X38.0973 Y14.4601 
G01 X37.9601 Y14.5973 
G01 X37.8461 Y14.7542 
G01 X37.7581 Y14.9270 
G01 X37.6981 Y15.1115 
G01 X37.6678 Y15.3030 
G01 X37.6678 Y15.4970 
G01 X37.6981 Y15.6885 
