(.../Documents/eagle/pcb-gcode/pcb-gcode.ulp)
(Copyright 2005 - 2012 by John Johnson)
(See readme.txt for licensing terms.)
(This file generated from the board:)
(.../GPS-Disciplined-Oscillator-GPSOXCO-/GPSPLLOCXO.brd)
(Current profile is .../eagle/pcb-gcode/profiles/mach.pp  )
(This file generated 13/08/2014 11:47 pm)
(Settings from pcb-machine.h)
(spindle on time = 2.0000)
(spindle speed = 20000.0000)
(tool change at 0.0000  0.0000  25.4000 )
(feed rate xy = F0     )
(feed rate z  = F127   )
(Z Axis Settings)
(  High     Up        Down     Drill)
(30.0000 	2.5400  	-0.1000 	-1.6500 )
(Settings from pcb-defaults.h)
(isolate min = 0.1000)
(isolate max = 0.4000)
(isolate step = 0.0500)
(Generated top outlines, top drill, bottom outlines, )
(Unit of measure: mm)
( Tool|       Size       |  Min Sub |  Max Sub |   Count )
( T01 | 0.800mm 0.0315in | 0.0000in | 0.0000in |       0 )
( T02 | 1.000mm 0.0394in | 0.0000in | 0.0000in |       0 )
( T03 | 1.016mm 0.0400in | 0.0000in | 0.0000in |       0 )
( T04 | 1.200mm 0.0472in | 0.0000in | 0.0000in |       0 )
( T05 | 1.321mm 0.0520in | 0.0000in | 0.0000in |       0 )
( T06 | 1.500mm 0.0591in | 0.0000in | 0.0000in |       0 )
( T07 | 3.200mm 0.1260in | 0.0000in | 0.0000in |       0 )
(Metric Mode)
G21
(Absolute Coordinates)
G90
S20000
G00 Z30.0000 
G00 X0.0000  Y0.0000  
M03
G04 P2.000000
M05
G00 Z25.4000 
M06 T01  ; 0.8000  
G00 Z2.5400  
M03
G04 P2.000000
G82 X39.8000 Y21.9000 Z-1.6500 F127   R2.5400  P1.000000
G82 X42.3000 Y25.3000 
G82 X40.9000 Y26.7000 
G82 X44.6000 Y25.6000 
G82 X48.9000 Y25.6000 
G82 X50.7000 Y25.2000 
G82 X40.7000 Y30.8000 
G82 X44.1000 Y37.2000 
M05
G00 Z25.4000 
G00 X0.0000  Y0.0000  
M06 T02  ; 1.0000  
G00 Z2.5400  
M03
G04 P2.000000
G82 X5.2354  Y10.4660 Z-1.6500 F127   R2.5400  P1.000000
G82 X23.0154 Y10.4660 
G82 X23.0154 Y35.8660 
G82 X14.3540 Y35.8660 
G82 X5.2354  Y35.8660 
G82 X16.9000 Y49.3700 
G82 X19.4400 Y49.3700 
G82 X21.9800 Y49.3700 
G82 X41.7000 Y39.5000 
G82 X55.6000 Y30.1000 
G82 X55.9000 Y27.0000 
G82 X66.7000 Y26.4000 
M05
G00 Z25.4000 
G00 X0.0000  Y0.0000  
M06 T03  ; 1.0160  
G00 Z2.5400  
M03
G04 P2.000000
G82 X59.9300 Y22.3200 Z-1.6500 F127   R2.5400  P1.000000
G82 X59.9300 Y24.8600 
G82 X59.9300 Y27.4000 
G82 X62.4700 Y27.4000 
G82 X62.4700 Y24.8600 
G82 X62.4700 Y22.3200 
G82 X62.4700 Y29.9400 
G82 X62.4700 Y32.4800 
G82 X59.9300 Y32.4800 
G82 X59.9300 Y29.9400 
M05
G00 Z25.4000 
G00 X0.0000  Y0.0000  
M06 T04  ; 1.2000  
G00 Z2.5400  
M03
G04 P2.000000
G82 X14.2000 Y48.1000 Z-1.6500 F127   R2.5400  P1.000000
G82 X22.0000 Y46.2000 
G82 X30.6800 Y36.1000 
G82 X37.6000 Y34.9000 
G82 X40.5000 Y34.3000 
G82 X40.6000 Y43.9000 
G82 X60.2000 Y38.5000 
G82 X65.5000 Y42.5000 
G82 X54.3000 Y22.7000 
G82 X53.0000 Y18.8000 
G82 X53.6000 Y16.7000 
G82 X52.2000 Y11.7000 
G82 X52.1000 Y5.2000  
G82 X41.2000 Y11.6000 
G82 X38.9000 Y15.4000 
G82 X40.6000 Y17.1000 
G82 X30.4000 Y5.6000  
G82 X62.8000 Y16.4000 
G82 X66.6000 Y5.7000  
M05
G00 Z25.4000 
G00 X0.0000  Y0.0000  
M06 T05  ; 1.3208  
G00 Z2.5400  
M03
G04 P2.000000
G82 X3.5100  Y43.6300 Z-1.6500 F127   R2.5400  P1.000000
G82 X3.5100  Y47.3100 
M05
G00 Z25.4000 
G00 X0.0000  Y0.0000  
M06 T06  ; 1.5000  
G00 Z2.5400  
M03
G04 P2.000000
G82 X32.9000 Y15.6000 Z-1.6500 F127   R2.5400  P1.000000
G82 X39.0000 Y5.5000  
G82 X59.1000 Y3.0000  
G82 X69.9000 Y17.2000 
G82 X70.1000 Y34.7000 
G82 X55.4000 Y33.7000 
G82 X52.5000 Y37.1000 
G82 X46.9000 Y48.7000 
G82 X38.4000 Y46.9000 
M05
G00 Z25.4000 
G00 X0.0000  Y0.0000  
M06 T07  ; 3.2000  
G00 Z2.5400  
M03
G04 P2.000000
G82 X3.0000  Y3.0000  Z-1.6500 F127   R2.5400  P1.000000
G82 X32.4000 Y45.6000 
G82 X63.1000 Y49.6000 
G82 X64.0000 Y3.0000  
T01 
G00 Z30.0000 
M05
M02
